; GCode generated by CraftWare

G28 X0 Y0
G28 Z0


M104 S215 ;set head temp (no wait)
M190 S60 ;set bed temp (wait)
M109 S215 ;set head temp (wait)
; ------------------------------------
; Layer #0
; ------------------------------------
M106 S0 ;turn off fan
G21 ; mm
G90 ; abs
G92 E0 ;reset extr
G0 F1200 Z0.300
;segType:Skirt
G0 F3000 E-1.0000
G0 X12.462 Y190.348 F5400
G0 F3000 E0.0000
G1 X9.695 Y187.581 E0.1952 F2400
G1 X9.695 Y179.148 E0.6159
G1 X11.803 Y177.040 E0.7647
G1 X11.606 Y176.711 E0.7838
G1 X9.761 Y174.866 E0.9140
G1 X9.695 Y174.405 E0.9372
G1 X9.695 Y166.499 E1.3316
G1 X11.803 Y164.391 E1.4804
G1 X11.606 Y164.062 E1.4995
G1 X9.761 Y162.217 E1.6297
G1 X9.695 Y161.756 E1.6529
G1 X9.695 Y153.850 E2.0473
G1 X11.803 Y151.742 E2.1961
G1 X11.606 Y151.413 E2.2152
G1 X9.761 Y149.568 E2.3454
G1 X9.695 Y149.107 E2.3686
G1 X9.695 Y141.201 E2.7630
G1 X9.893 Y140.872 E2.7822
G1 X11.738 Y139.027 E2.9124
G1 X11.803 Y138.830 E2.9228
G1 X9.695 Y136.722 E3.0715
G1 X9.695 Y128.816 E3.4659
G1 X9.761 Y128.355 E3.4892
G1 X11.606 Y126.510 E3.6193
G1 X11.803 Y126.181 E3.6385
G1 X9.695 Y124.073 E3.7872
G1 X9.695 Y115.640 E4.2079
G1 X12.594 Y112.741 E4.4124
G1 X13.055 Y112.675 E4.4357
G1 X15.954 Y112.675 E4.5803
G1 X16.020 Y112.214 E4.6035
G1 X16.020 Y109.316 E4.7481
G1 X18.918 Y106.417 E4.9527
G1 X19.380 Y106.351 E4.9759
G1 X28.603 Y106.351 E5.4361
G1 X28.668 Y105.890 E5.4593
G1 X28.668 Y102.991 E5.6039
G1 X31.567 Y100.092 E5.8084
G1 X32.029 Y100.026 E5.8317
G1 X39.934 Y100.026 E6.2261
G1 X40.264 Y100.224 E6.2453
G1 X42.108 Y102.069 E6.3754
G1 X42.306 Y102.134 E6.3858
G1 X44.414 Y100.026 E6.5345
G1 X52.320 Y100.026 E6.9290
G1 X52.781 Y100.092 E6.9522
G1 X54.626 Y101.937 E7.0824
G1 X54.955 Y102.134 E7.1015
G1 X57.063 Y100.026 E7.2502
G1 X62.860 Y100.026 E7.5395
G1 X63.321 Y99.961 E7.5627
G1 X63.321 Y90.737 E8.0229
G1 X63.058 Y90.869 E8.0375
G1 X60.423 Y93.504 E8.2235
G1 X60.093 Y93.702 E8.2426
G1 X14.241 Y93.702 E10.5302
G1 X13.780 Y93.636 E10.5535
G1 X10.881 Y90.737 E10.7580
G1 X10.881 Y82.832 E11.1524
G1 X10.947 Y82.370 E11.1757
G1 X12.792 Y80.526 E11.3058
G1 X12.989 Y80.197 E11.3250
G1 X10.881 Y78.088 E11.4737
G1 X10.881 Y69.656 E11.8944
G1 X12.989 Y67.548 E12.0432
G1 X12.792 Y67.219 E12.0623
G1 X10.947 Y65.374 E12.1924
G1 X10.881 Y64.912 E12.2157
G1 X10.881 Y57.007 E12.6101
G1 X11.467 Y56.421 E12.6515
G0 F3000 E11.6515
G0 X20.055 Y62.610 F5400
G0 X56.556 Y88.916
G0 X58.703 Y90.463
G0 X67.292 Y96.653
G0 X69.439 Y98.200
G0 X75.880 Y102.842
G0 X78.027 Y104.389
G0 X138.146 Y147.716
G0 X140.293 Y149.263
G0 X148.882 Y155.453
G0 X151.029 Y157.000
G0 X174.647 Y174.021
G0 F3000 E12.6515
;segType:HShell
G1 X157.338 Y156.712 E13.8727 F2400
;segType:Perimeter
G0 X156.845 Y156.522 F5400
G1 X156.638 Y155.749 E13.9126 F1439
G1 X193.688 Y155.749 E15.7611
G0 X193.803 Y155.829 F5400
G0 X193.917 Y155.781
G0 X194.031 Y155.734
G0 X194.146 Y155.687
G1 X194.194 Y155.667 E15.7626 F1439
G1 X194.079 Y155.714 E15.7677
G1 X193.965 Y155.761 E15.7742
G1 X193.851 Y155.809 E15.7822
G1 X193.812 Y155.931 E15.7886
G1 X156.800 Y192.943 E18.4000
G0 X156.661 Y192.966 F5400
G0 X156.613 Y193.080
G0 X156.566 Y193.195
G0 X156.519 Y193.309
G1 X156.494 Y193.367 E18.4019 F1439
G1 X156.542 Y193.253 E18.4069
G1 X156.589 Y193.139 E18.4134
G1 X156.637 Y193.025 E18.4214
G1 X156.578 Y192.910 E18.4278
G1 X156.578 Y155.809 E20.2788
G0 X157.351 Y156.016 F5400
;segType:Loop
G0 X157.678 Y156.149
G1 X192.774 Y156.149 E22.0297 F2400
G0 X192.888 Y156.207 F5400
G0 X193.003 Y156.160
G0 X193.117 Y156.113
G0 X193.231 Y156.065
G1 X193.165 Y156.093 E22.0323 F2400
G1 X193.051 Y156.140 E22.0382
G1 X192.936 Y156.187 E22.0455
G1 X192.822 Y156.235 E22.0543
G1 X192.802 Y156.376 E22.0614
G1 X157.164 Y192.014 E24.5759
G0 X157.039 Y192.052 F5400
G0 X156.992 Y192.166
G0 X156.945 Y192.280
G0 X156.897 Y192.395
G1 X156.921 Y192.339 E24.5780 F2400
G1 X156.968 Y192.225 E24.5839
G1 X157.015 Y192.110 E24.5912
G1 X157.063 Y191.996 E24.6000
G1 X156.978 Y191.882 E24.6071
G1 X156.978 Y156.149 E26.3898
G1 X157.478 Y156.149 E26.4147
;segType:HShell
G0 X157.338 Y157.278 F5400
G1 X174.364 Y174.304 E27.6160 F2400
G0 X174.082 Y174.587 F5400
G1 X157.338 Y157.844 E28.7973 F2400
G0 X157.338 Y158.409 F5400
G1 X173.799 Y174.870 E29.9586 F2400
G0 X173.516 Y175.153 F5400
G1 X157.338 Y158.975 E31.1000 F2400
G0 X157.338 Y159.541 F5400
G1 X173.233 Y175.435 E32.2215 F2400
G0 X172.950 Y175.718 F5400
G1 X157.338 Y160.107 E33.3230 F2400
G0 X157.338 Y160.672 F5400
G1 X172.667 Y176.001 E34.4045 F2400
G0 X172.384 Y176.284 F5400
G1 X157.338 Y161.238 E35.4661 F2400
G0 X157.338 Y161.804 F5400
G1 X172.102 Y176.567 E36.5077 F2400
G0 X171.819 Y176.850 F5400
G1 X157.338 Y162.369 E37.5294 F2400
G0 X157.338 Y162.935 F5400
G1 X171.536 Y177.132 E38.5311 F2400
G0 X171.253 Y177.415 F5400
G1 X157.338 Y163.501 E39.5129 F2400
G0 X157.338 Y164.066 F5400
G1 X170.970 Y177.698 E40.4747 F2400
G0 X170.687 Y177.981 F5400
G1 X157.338 Y164.632 E41.4165 F2400
G0 X157.338 Y165.198 F5400
G1 X170.405 Y178.264 E42.3384 F2400
G0 X170.122 Y178.547 F5400
G1 X157.338 Y165.763 E43.2403 F2400
G0 X157.338 Y166.329 F5400
G1 X169.839 Y178.830 E44.1223 F2400
G0 X169.556 Y179.112 F5400
G1 X157.338 Y166.895 E44.9843 F2400
G0 X157.338 Y167.460 F5400
G1 X169.273 Y179.395 E45.8264 F2400
G0 X168.990 Y179.678 F5400
G1 X157.338 Y168.026 E46.6485 F2400
G0 X157.338 Y168.592 F5400
G1 X168.707 Y179.961 E47.4506 F2400
G0 X168.425 Y180.244 F5400
G1 X157.338 Y169.157 E48.2328 F2400
G0 X157.338 Y169.723 F5400
G1 X168.142 Y180.527 E48.9951 F2400
G0 X167.859 Y180.809 F5400
G1 X157.338 Y170.289 E49.7374 F2400
G0 X157.338 Y170.855 F5400
G1 X167.576 Y181.092 E50.4597 F2400
G0 X167.293 Y181.375 F5400
G1 X157.338 Y171.420 E51.1620 F2400
G0 X157.338 Y171.986 F5400
G1 X167.010 Y181.658 E51.8445 F2400
G0 X166.728 Y181.941 F5400
G1 X157.338 Y172.552 E52.5069 F2400
G0 X157.338 Y173.117 F5400
G1 X166.445 Y182.224 E53.1494 F2400
G0 X166.162 Y182.506 F5400
G1 X157.338 Y173.683 E53.7720 F2400
G0 X157.338 Y174.249 F5400
G1 X165.879 Y182.789 E54.3746 F2400
G0 X165.596 Y183.072 F5400
G1 X157.338 Y174.814 E54.9572 F2400
G0 X157.338 Y175.380 F5400
G1 X165.313 Y183.355 E55.5199 F2400
G0 X165.031 Y183.638 F5400
G1 X157.338 Y175.946 E56.0626 F2400
G0 X157.338 Y176.511 F5400
G1 X164.748 Y183.921 E56.5854 F2400
G0 X164.465 Y184.204 F5400
G1 X157.338 Y177.077 E57.0882 F2400
G0 X157.338 Y177.643 F5400
G1 X164.182 Y184.486 E57.5710 F2400
G0 X163.899 Y184.769 F5400
G1 X157.338 Y178.208 E58.0339 F2400
G0 X157.338 Y178.774 F5400
G1 X163.616 Y185.052 E58.4769 F2400
G0 X163.334 Y185.335 F5400
G1 X157.338 Y179.340 E58.8998 F2400
G0 X157.338 Y179.906 F5400
G1 X163.051 Y185.618 E59.3029 F2400
G0 X162.768 Y185.901 F5400
G1 X157.338 Y180.471 E59.6859 F2400
G0 X157.338 Y181.037 F5400
G1 X162.485 Y186.183 E60.0491 F2400
G0 X162.202 Y186.466 F5400
G1 X157.338 Y181.603 E60.3922 F2400
G0 X157.338 Y182.168 F5400
G1 X161.919 Y186.749 E60.7154 F2400
G0 X161.636 Y187.032 F5400
G1 X157.338 Y182.734 E61.0187 F2400
G0 X157.338 Y183.300 F5400
G1 X161.354 Y187.315 E61.3020 F2400
G0 X161.071 Y187.598 F5400
G1 X157.338 Y183.865 E61.5653 F2400
G0 X157.338 Y184.431 F5400
G1 X160.788 Y187.880 E61.8087 F2400
G0 X160.505 Y188.163 F5400
G1 X157.338 Y184.997 E62.0321 F2400
G0 X157.338 Y185.562 F5400
G1 X160.222 Y188.446 E62.2356 F2400
G0 X159.939 Y188.729 F5400
G1 X157.338 Y186.128 E62.4191 F2400
G0 X157.338 Y186.694 F5400
G1 X159.657 Y189.012 E62.5827 F2400
G0 X159.374 Y189.295 F5400
G1 X157.338 Y187.259 E62.7263 F2400
G0 X157.338 Y187.825 F5400
G1 X159.091 Y189.578 E62.8499 F2400
G0 X158.808 Y189.860 F5400
G1 X157.338 Y188.391 E62.9536 F2400
G0 X157.338 Y188.956 F5400
G1 X158.525 Y190.143 E63.0373 F2400
G0 X158.242 Y190.426 F5400
G1 X157.338 Y189.522 E63.1011 F2400
G0 X157.338 Y190.088 F5400
G1 X157.959 Y190.709 E63.1449 F2400
G0 X157.677 Y190.992 F5400
G1 X157.338 Y190.654 E63.1688 F2400
;segType:InnerHair
G0 X157.394 Y191.196 F5400
G1 X157.347 Y191.310 E63.1740 F2400
G1 X157.299 Y191.425 E63.1777
G1 X157.276 Y191.480 E63.1792
G1 X157.324 Y191.366 E63.1837
G1 X157.371 Y191.252 E63.1896
G1 X157.418 Y191.137 E63.1970
G1 X157.394 Y191.196 E63.2004
;segType:HShell
G0 X174.930 Y173.738 F5400
G1 X157.701 Y156.510 E64.4160 F2400
G0 X158.267 Y156.510 F5400
G1 X175.213 Y173.456 E65.6116 F2400
G0 X175.496 Y173.173 F5400
G1 X158.833 Y156.510 E66.7873 F2400
G0 X159.398 Y156.510 F5400
G1 X175.779 Y172.890 E67.9430 F2400
G0 X176.061 Y172.607 F5400
G1 X159.964 Y156.510 E69.0788 F2400
G0 X160.530 Y156.510 F5400
G1 X176.344 Y172.324 E70.1946 F2400
G0 X176.627 Y172.041 F5400
G1 X161.095 Y156.510 E71.2904 F2400
G0 X161.661 Y156.510 F5400
G1 X176.910 Y171.758 E72.3663 F2400
G0 X177.193 Y171.476 F5400
G1 X162.227 Y156.510 E73.4223 F2400
G0 X162.792 Y156.510 F5400
G1 X177.476 Y171.193 E74.4582 F2400
G0 X177.758 Y170.910 F5400
G1 X163.358 Y156.510 E75.4743 F2400
G0 X163.924 Y156.510 F5400
G1 X178.041 Y170.627 E76.4703 F2400
G0 X178.324 Y170.344 F5400
G1 X164.489 Y156.510 E77.4465 F2400
G0 X165.055 Y156.510 F5400
G1 X178.607 Y170.061 E78.4026 F2400
G0 X178.890 Y169.779 F5400
G1 X165.621 Y156.510 E79.3388 F2400
G0 X166.187 Y156.510 F5400
G1 X179.173 Y169.496 E80.2550 F2400
G0 X179.456 Y169.213 F5400
G1 X166.752 Y156.510 E81.1513 F2400
G0 X167.318 Y156.510 F5400
G1 X179.738 Y168.930 E82.0277 F2400
G0 X180.021 Y168.647 F5400
G1 X167.884 Y156.510 E82.8840 F2400
G0 X168.449 Y156.510 F5400
G1 X180.304 Y168.364 E83.7205 F2400
G0 X180.587 Y168.082 F5400
G1 X169.015 Y156.510 E84.5369 F2400
G0 X169.581 Y156.510 F5400
G1 X180.870 Y167.799 E85.3334 F2400
G0 X181.153 Y167.516 F5400
G1 X170.146 Y156.510 E86.1100 F2400
G0 X170.712 Y156.510 F5400
G1 X181.435 Y167.233 E86.8666 F2400
G0 X181.718 Y166.950 F5400
G1 X171.278 Y156.510 E87.6032 F2400
G0 X171.843 Y156.510 F5400
G1 X182.001 Y166.667 E88.3199 F2400
G0 X182.284 Y166.384 F5400
G1 X172.409 Y156.510 E89.0166 F2400
G0 X172.975 Y156.510 F5400
G1 X182.567 Y166.102 E89.6934 F2400
G0 X182.850 Y165.819 F5400
G1 X173.540 Y156.510 E90.3502 F2400
G0 X174.106 Y156.510 F5400
G1 X183.132 Y165.536 E90.9871 F2400
G0 X183.415 Y165.253 F5400
G1 X174.672 Y156.510 E91.6040 F2400
G0 X175.237 Y156.510 F5400
G1 X183.698 Y164.970 E92.2009 F2400
G0 X183.981 Y164.687 F5400
G1 X175.803 Y156.510 E92.7779 F2400
G0 X176.369 Y156.510 F5400
G1 X184.264 Y164.405 E93.3349 F2400
G0 X184.547 Y164.122 F5400
G1 X176.935 Y156.510 E93.8720 F2400
G0 X177.500 Y156.510 F5400
G1 X184.830 Y163.839 E94.3891 F2400
G0 X185.112 Y163.556 F5400
G1 X178.066 Y156.510 E94.8863 F2400
G0 X178.632 Y156.510 F5400
G1 X185.395 Y163.273 E95.3635 F2400
G0 X185.678 Y162.990 F5400
G1 X179.197 Y156.510 E95.8208 F2400
G0 X179.763 Y156.510 F5400
G1 X185.961 Y162.707 E96.2581 F2400
G0 X186.244 Y162.425 F5400
G1 X180.329 Y156.510 E96.6754 F2400
G0 X180.894 Y156.510 F5400
G1 X186.527 Y162.142 E97.0728 F2400
G0 X186.809 Y161.859 F5400
G1 X181.460 Y156.510 E97.4502 F2400
G0 X182.026 Y156.510 F5400
G1 X187.092 Y161.576 E97.8077 F2400
G0 X187.375 Y161.293 F5400
G1 X182.591 Y156.510 E98.1452 F2400
G0 X183.157 Y156.510 F5400
G1 X187.658 Y161.010 E98.4628 F2400
G0 X187.941 Y160.728 F5400
G1 X183.723 Y156.510 E98.7604 F2400
G0 X184.288 Y156.510 F5400
G1 X188.224 Y160.445 E99.0380 F2400
G0 X188.506 Y160.162 F5400
G1 X184.854 Y156.510 E99.2957 F2400
G0 X185.420 Y156.510 F5400
G1 X188.789 Y159.879 E99.5335 F2400
G0 X189.072 Y159.596 F5400
G1 X185.986 Y156.510 E99.7512 F2400
G0 X186.551 Y156.510 F5400
G1 X189.355 Y159.313 E99.9491 F2400
G0 X189.638 Y159.031 F5400
G1 X187.117 Y156.510 E100.1269 F2400
G0 X187.683 Y156.510 F5400
G1 X189.921 Y158.748 E100.2848 F2400
G0 X190.204 Y158.465 F5400
G1 X188.248 Y156.510 E100.4228 F2400
G0 X188.814 Y156.510 F5400
G1 X190.486 Y158.182 E100.5408 F2400
G0 X190.769 Y157.899 F5400
G1 X189.380 Y156.510 E100.6389 F2400
G0 X189.945 Y156.510 F5400
G1 X191.052 Y157.616 E100.7169 F2400
G0 X191.335 Y157.333 F5400
G1 X190.511 Y156.510 E100.7751 F2400
G0 X191.077 Y156.510 F5400
G1 X191.618 Y157.051 E100.8133 F2400
;segType:InnerHair
G0 X192.022 Y156.566 F5400
G1 X192.136 Y156.519 E100.8185 F2400
G1 X192.251 Y156.471 E100.8222
G1 X192.317 Y156.444 E100.8239
G1 X192.203 Y156.491 E100.8283
G1 X192.088 Y156.539 E100.8342
G1 X191.974 Y156.586 E100.8415
G1 X192.022 Y156.566 E100.8443
G0 F3000 E99.8443
G0 X196.222 Y150.035 F5400
G0 X197.621 Y147.858
G0 X222.818 Y108.672
G0 X224.218 Y106.495
G0 F3000 E100.8443
;segType:HShell
G1 X228.647 Y110.924 E101.1568 F2400
G0 X228.991 Y111.268 F5400
G1 X234.997 Y117.274 E101.5805 F2400
;segType:Perimeter
G0 X235.017 Y116.858 F5400
G1 X235.817 Y116.858 E101.6204 F1439
G1 X242.107 Y116.858 E101.9342
G1 X242.107 Y122.807 E102.2310
G1 X235.757 Y122.807 E102.5478
G1 X235.757 Y129.558 E102.8846
G1 X242.107 Y129.558 E103.2014
G1 X242.107 Y135.507 E103.4982
G1 X235.757 Y135.507 E103.8150
G1 X235.757 Y142.258 E104.1519
G1 X242.107 Y142.258 E104.4687
G1 X242.107 Y148.207 E104.7655
G1 X235.757 Y148.207 E105.0823
G1 X235.757 Y154.958 E105.4191
G1 X242.107 Y154.958 E105.7359
G1 X242.107 Y160.907 E106.0327
G1 X235.757 Y160.907 E106.3495
G1 X235.757 Y167.658 E106.6863
G1 X242.107 Y167.658 E107.0031
G1 X242.107 Y173.607 E107.2999
G1 X235.757 Y173.607 E107.6167
G1 X235.757 Y180.358 E107.9535
G1 X242.107 Y180.358 E108.2703
G1 X242.107 Y186.307 E108.5671
G1 X198.057 Y186.307 E110.7647
G1 X198.057 Y148.207 E112.6655
G1 X57.957 Y148.207 E119.6552
G1 X57.957 Y186.307 E121.5560
G1 X13.907 Y186.307 E123.7536
G1 X13.907 Y180.358 E124.0504
G1 X20.257 Y180.358 E124.3672
G1 X20.257 Y173.607 E124.7040
G1 X13.907 Y173.607 E125.0208
G1 X13.907 Y167.658 E125.3176
G1 X20.257 Y167.658 E125.6344
G1 X20.257 Y160.907 E125.9713
G1 X13.907 Y160.907 E126.2881
G1 X13.907 Y154.958 E126.5849
G1 X20.257 Y154.958 E126.9017
G1 X20.257 Y148.207 E127.2385
G1 X13.907 Y148.207 E127.5553
G1 X13.907 Y142.258 E127.8521
G1 X20.257 Y142.258 E128.1689
G1 X20.257 Y135.507 E128.5057
G1 X13.907 Y135.507 E128.8225
G1 X13.907 Y129.558 E129.1193
G1 X20.257 Y129.558 E129.4361
G1 X20.257 Y122.807 E129.7729
G1 X13.907 Y122.807 E130.0897
G1 X13.907 Y116.858 E130.3865
G1 X20.257 Y116.858 E130.7033
G1 X20.257 Y110.508 E131.0201
G1 X32.958 Y110.508 E131.6537
G1 X32.958 Y104.158 E131.9705
G1 X38.907 Y104.158 E132.2673
G1 X38.907 Y110.508 E132.5841
G1 X45.657 Y110.508 E132.9209
G1 X45.657 Y104.158 E133.2377
G1 X51.607 Y104.158 E133.5345
G1 X51.607 Y110.508 E133.8514
G1 X58.358 Y110.508 E134.1882
G1 X58.358 Y104.158 E134.5050
G1 X64.307 Y104.158 E134.8018
G1 X64.307 Y110.508 E135.1186
G1 X71.057 Y110.508 E135.4554
G1 X71.057 Y104.158 E135.7722
G1 X77.007 Y104.158 E136.0690
G1 X77.007 Y110.508 E136.3858
G1 X83.758 Y110.508 E136.7226
G1 X83.758 Y104.158 E137.0395
G1 X89.707 Y104.158 E137.3362
G1 X89.707 Y110.508 E137.6531
G1 X96.457 Y110.508 E137.9899
G1 X96.457 Y104.158 E138.3067
G1 X102.407 Y104.158 E138.6035
G1 X102.407 Y110.508 E138.9203
G1 X147.258 Y110.508 E141.1579
G1 X147.258 Y104.158 E141.4747
G1 X153.207 Y104.158 E141.7715
G1 X153.207 Y110.508 E142.0884
G1 X159.957 Y110.508 E142.4251
G1 X159.957 Y104.158 E142.7420
G1 X165.907 Y104.158 E143.0388
G1 X165.907 Y110.508 E143.3556
G1 X172.658 Y110.508 E143.6924
G1 X172.658 Y104.158 E144.0092
G1 X178.607 Y104.158 E144.3060
G1 X178.607 Y110.508 E144.6228
G1 X185.357 Y110.508 E144.9596
G1 X185.357 Y104.158 E145.2764
G1 X191.307 Y104.158 E145.5732
G1 X191.307 Y110.508 E145.8901
G1 X198.057 Y110.508 E146.2268
G1 X198.057 Y104.158 E146.5437
G1 X204.007 Y104.158 E146.8405
G1 X204.007 Y110.508 E147.1573
G1 X210.758 Y110.508 E147.4941
G1 X210.758 Y104.158 E147.8109
G1 X216.707 Y104.158 E148.1077
G1 X216.707 Y110.508 E148.4245
G1 X223.457 Y110.508 E148.7613
G1 X223.457 Y104.158 E149.0781
G1 X229.407 Y104.158 E149.3749
G1 X229.407 Y110.508 E149.6918
G1 X235.757 Y110.508 E150.0086
G1 X235.757 Y116.798 E150.3224
G0 X235.757 Y117.598 F5400
;segType:Loop
G0 X236.857 Y117.258
G1 X241.707 Y117.258 E150.5643 F2400
G1 X241.707 Y122.407 E150.8212
G1 X235.357 Y122.407 E151.1380
G1 X235.357 Y129.958 E151.5147
G1 X241.707 Y129.958 E151.8315
G1 X241.707 Y135.107 E152.0884
G1 X235.357 Y135.107 E152.4052
G1 X235.357 Y142.658 E152.7820
G1 X241.707 Y142.658 E153.0988
G1 X241.707 Y147.807 E153.3557
G1 X235.357 Y147.807 E153.6725
G1 X235.357 Y155.358 E154.0492
G1 X241.707 Y155.358 E154.3660
G1 X241.707 Y160.507 E154.6229
G1 X235.357 Y160.507 E154.9397
G1 X235.357 Y168.058 E155.3164
G1 X241.707 Y168.058 E155.6332
G1 X241.707 Y173.207 E155.8901
G1 X235.357 Y173.207 E156.2069
G1 X235.357 Y180.758 E156.5836
G1 X241.707 Y180.758 E156.9004
G1 X241.707 Y185.907 E157.1573
G1 X198.457 Y185.907 E159.3150
G1 X198.457 Y147.807 E161.2159
G1 X57.557 Y147.807 E168.2454
G1 X57.557 Y185.907 E170.1462
G1 X14.307 Y185.907 E172.3039
G1 X14.307 Y180.758 E172.5608
G1 X20.657 Y180.758 E172.8776
G1 X20.657 Y173.207 E173.2544
G1 X14.307 Y173.207 E173.5712
G1 X14.307 Y168.058 E173.8281
G1 X20.657 Y168.058 E174.1449
G1 X20.657 Y160.507 E174.5216
G1 X14.307 Y160.507 E174.8384
G1 X14.307 Y155.358 E175.0953
G1 X20.657 Y155.358 E175.4121
G1 X20.657 Y147.807 E175.7888
G1 X14.307 Y147.807 E176.1056
G1 X14.307 Y142.658 E176.3625
G1 X20.657 Y142.658 E176.6793
G1 X20.657 Y135.107 E177.0560
G1 X14.307 Y135.107 E177.3728
G1 X14.307 Y129.958 E177.6297
G1 X20.657 Y129.958 E177.9465
G1 X20.657 Y122.407 E178.3232
G1 X14.307 Y122.407 E178.6400
G1 X14.307 Y117.258 E178.8969
G1 X20.657 Y117.258 E179.2137
G1 X20.657 Y110.908 E179.5305
G1 X33.358 Y110.908 E180.1641
G1 X33.358 Y104.558 E180.4810
G1 X38.507 Y104.558 E180.7379
G1 X38.507 Y110.908 E181.0547
G1 X46.057 Y110.908 E181.4314
G1 X46.057 Y104.558 E181.7482
G1 X51.207 Y104.558 E182.0051
G1 X51.207 Y110.908 E182.3219
G1 X58.758 Y110.908 E182.6986
G1 X58.758 Y104.558 E183.0155
G1 X63.907 Y104.558 E183.2724
G1 X63.907 Y110.908 E183.5892
G1 X71.457 Y110.908 E183.9659
G1 X71.457 Y104.558 E184.2827
G1 X76.607 Y104.558 E184.5396
G1 X76.607 Y110.908 E184.8564
G1 X84.158 Y110.908 E185.2331
G1 X84.158 Y104.558 E185.5500
G1 X89.307 Y104.558 E185.8069
G1 X89.307 Y110.908 E186.1237
G1 X96.857 Y110.908 E186.5004
G1 X96.857 Y104.558 E186.8172
G1 X102.007 Y104.558 E187.0741
G1 X102.007 Y110.908 E187.3909
G1 X147.658 Y110.908 E189.6685
G1 X147.658 Y104.558 E189.9853
G1 X152.807 Y104.558 E190.2422
G1 X152.807 Y110.908 E190.5590
G1 X160.357 Y110.908 E190.9357
G1 X160.357 Y104.558 E191.2525
G1 X165.507 Y104.558 E191.5094
G1 X165.507 Y110.908 E191.8262
G1 X173.058 Y110.908 E192.2030
G1 X173.058 Y104.558 E192.5198
G1 X178.207 Y104.558 E192.7767
G1 X178.207 Y110.908 E193.0935
G1 X185.757 Y110.908 E193.4702
G1 X185.757 Y104.558 E193.7870
G1 X190.907 Y104.558 E194.0439
G1 X190.907 Y110.908 E194.3607
G1 X198.457 Y110.908 E194.7374
G1 X198.457 Y104.558 E195.0543
G1 X203.607 Y104.558 E195.3112
G1 X203.607 Y110.908 E195.6280
G1 X211.158 Y110.908 E196.0047
G1 X211.158 Y104.558 E196.3215
G1 X216.307 Y104.558 E196.5784
G1 X216.307 Y110.908 E196.8952
G1 X223.857 Y110.908 E197.2719
G1 X223.857 Y104.558 E197.5888
G1 X229.007 Y104.558 E197.8456
G1 X229.007 Y110.908 E198.1625
G1 X235.357 Y110.908 E198.4793
G1 X235.357 Y117.258 E198.7961
G1 X236.657 Y117.258 E198.8609
;segType:HShell
G0 X234.997 Y116.708 F5400
G1 X229.556 Y111.268 E199.2448 F2400
G0 X230.122 Y111.268 F5400
G1 X234.997 Y116.142 E199.5887 F2400
G0 X234.997 Y115.577 F5400
G1 X230.688 Y111.268 E199.8927 F2400
G0 X231.254 Y111.268 F5400
G1 X234.997 Y115.011 E200.1568 F2400
G0 X234.997 Y114.445 F5400
G1 X231.819 Y111.268 E200.3810 F2400
G0 X232.385 Y111.268 F5400
G1 X234.997 Y113.880 E200.5652 F2400
G0 X234.997 Y113.314 F5400
G1 X232.951 Y111.268 E200.7096 F2400
G0 X233.516 Y111.268 F5400
G1 X234.997 Y112.748 E200.8140 F2400
G0 X234.997 Y112.183 F5400
G1 X234.082 Y111.268 E200.8786 F2400
G0 X234.648 Y111.268 F5400
G1 X234.997 Y111.617 E200.9032 F2400
G0 X228.647 Y110.358 F5400
G1 X224.218 Y105.929 E201.2157 F2400
G0 X224.218 Y105.363 F5400
G1 X228.647 Y109.792 E201.5282 F2400
G0 X228.647 Y109.227 F5400
G1 X224.338 Y104.918 E201.8322 F2400
G0 X224.903 Y104.918 F5400
G1 X228.647 Y108.661 E202.0964 F2400
G0 X228.647 Y108.095 F5400
G1 X225.469 Y104.918 E202.3205 F2400
G0 X226.035 Y104.918 F5400
G1 X228.647 Y107.530 E202.5048 F2400
G0 X228.647 Y106.964 F5400
G1 X226.600 Y104.918 E202.6492 F2400
G0 X227.166 Y104.918 F5400
G1 X228.647 Y106.398 E202.7537 F2400
G0 X228.647 Y105.833 F5400
G1 X227.732 Y104.918 E202.8182 F2400
G0 X228.297 Y104.918 F5400
G1 X228.647 Y105.267 E202.8429 F2400
G0 X223.857 Y105.384 F5400
G0 X223.857 Y110.908
G0 X216.307 Y110.908
G0 X216.307 Y105.569
G0 X216.307 Y105.569
G0 X215.933 Y105.578
G0 X215.946 Y105.578
G1 X215.287 Y104.918 E202.8894 F2400
G0 X214.721 Y104.918 F5400
G1 X215.946 Y106.143 E202.9759 F2400
G0 X215.946 Y106.709 F5400
G1 X214.155 Y104.918 E203.1023 F2400
G0 X213.590 Y104.918 F5400
G1 X215.947 Y107.275 E203.2686 F2400
G0 X215.947 Y107.840 F5400
G1 X213.024 Y104.918 E203.4748 F2400
G0 X212.458 Y104.918 F5400
G1 X215.946 Y108.406 E203.7209 F2400
G0 X215.947 Y108.972 F5400
G1 X211.893 Y104.918 E204.0069 F2400
G0 X211.518 Y105.108 F5400
G1 X215.946 Y109.537 E204.3194 F2400
G0 X215.946 Y110.103 F5400
G1 X211.518 Y105.674 E204.6319 F2400
G0 X211.518 Y106.240 F5400
G1 X215.946 Y110.669 E204.9444 F2400
G0 X215.946 Y111.234 F5400
G1 X211.518 Y106.806 E205.2568 F2400
G0 X211.518 Y107.371 F5400
G1 X238.893 Y134.747 E207.1883 F2400
G0 X238.327 Y134.747 F5400
G1 X211.518 Y107.937 E209.0799 F2400
G0 X211.518 Y108.503 F5400
G1 X237.762 Y134.747 E210.9315 F2400
G0 X237.196 Y134.747 F5400
G1 X211.518 Y109.068 E212.7433 F2400
G0 X211.518 Y109.634 F5400
G1 X236.630 Y134.747 E214.5151 F2400
G0 X236.065 Y134.747 F5400
G1 X211.518 Y110.200 E216.2470 F2400
G0 X211.518 Y110.765 F5400
G1 X235.499 Y134.747 E217.9390 F2400
G0 X234.997 Y134.810 F5400
G1 X211.454 Y111.268 E219.6001 F2400
G0 X210.889 Y111.268 F5400
G1 X234.997 Y135.376 E221.3010 F2400
G0 X234.997 Y135.941 F5400
G1 X210.323 Y111.268 E223.0418 F2400
G0 X209.757 Y111.268 F5400
G1 X234.997 Y136.507 E224.8226 F2400
G0 X234.997 Y137.073 F5400
G1 X209.192 Y111.268 E226.6433 F2400
G0 X208.626 Y111.268 F5400
G1 X234.997 Y137.638 E228.5038 F2400
G0 X234.997 Y138.204 F5400
G1 X208.060 Y111.268 E230.4043 F2400
G0 X207.495 Y111.268 F5400
G1 X234.997 Y138.770 E232.3447 F2400
G0 X234.997 Y139.335 F5400
G1 X206.929 Y111.268 E234.3251 F2400
G0 X206.363 Y111.268 F5400
G1 X234.997 Y139.901 E236.3453 F2400
G0 X234.997 Y140.467 F5400
G1 X205.798 Y111.268 E238.4054 F2400
G0 X205.232 Y111.268 F5400
G1 X234.997 Y141.032 E240.5055 F2400
G0 X234.997 Y141.598 F5400
G1 X204.666 Y111.268 E242.6454 F2400
G0 X204.101 Y111.268 F5400
G1 X234.997 Y142.164 E244.8253 F2400
G0 X234.997 Y142.730 F5400
G1 X203.535 Y111.268 E247.0451 F2400
G0 X198.457 Y108.915 F5400
G0 X198.457 Y110.908
G0 X190.907 Y110.908
G0 X190.907 Y105.416
G0 X190.907 Y105.416
G0 X189.819 Y104.912
G0 X189.831 Y104.918
G1 X190.546 Y105.633 E247.0956 F2400
G0 X190.546 Y106.199 F5400
G1 X189.265 Y104.918 E247.1860 F2400
G0 X188.699 Y104.918 F5400
G1 X190.546 Y106.765 E247.3163 F2400
G0 X190.546 Y107.330 F5400
G1 X188.134 Y104.918 E247.4866 F2400
G0 X187.568 Y104.918 F5400
G1 X190.546 Y107.896 E247.6967 F2400
G0 X190.546 Y108.462 F5400
G1 X187.002 Y104.918 E247.9468 F2400
G0 X186.437 Y104.918 F5400
G1 X190.546 Y109.027 E248.2367 F2400
G0 X190.546 Y109.593 F5400
G1 X186.118 Y105.164 E248.5492 F2400
G0 X186.118 Y105.730 F5400
G1 X190.546 Y110.159 E248.8617 F2400
G0 X190.546 Y110.725 F5400
G1 X186.118 Y106.296 E249.1742 F2400
G0 X185.757 Y106.256 F5400
G0 X185.757 Y110.908
G0 X178.207 Y110.908
G0 X178.207 Y105.418
G0 X178.207 Y105.418
G0 X177.833 Y105.377
G0 X177.847 Y105.379
G1 X177.386 Y104.918 E249.2067 F2400
G0 X176.820 Y104.918 F5400
G1 X177.847 Y105.944 E249.2791 F2400
G0 X177.847 Y106.510 F5400
G1 X176.254 Y104.918 E249.3915 F2400
G0 X175.689 Y104.918 F5400
G1 X177.847 Y107.076 E249.5437 F2400
G0 X177.847 Y107.641 F5400
G1 X175.123 Y104.918 E249.7359 F2400
G0 X174.557 Y104.918 F5400
G1 X177.847 Y108.207 E249.9680 F2400
G0 X177.847 Y108.773 F5400
G1 X173.992 Y104.918 E250.2400 F2400
G0 X173.426 Y104.918 F5400
G1 X177.847 Y109.338 E250.5519 F2400
G0 X177.847 Y109.904 F5400
G1 X173.418 Y105.475 E250.8643 F2400
G0 X173.418 Y106.041 F5400
G1 X177.847 Y110.470 E251.1768 F2400
G0 X177.847 Y111.035 F5400
G1 X173.418 Y106.607 E251.4893 F2400
G0 X173.418 Y107.172 F5400
G1 X239.092 Y172.847 E256.1230 F2400
G0 X238.527 Y172.847 F5400
G1 X173.418 Y107.738 E260.7168 F2400
G0 X173.418 Y108.304 F5400
G1 X237.961 Y172.847 E265.2706 F2400
G0 X237.395 Y172.847 F5400
G1 X173.418 Y108.869 E269.7846 F2400
G0 X173.418 Y109.435 F5400
G1 X236.829 Y172.847 E274.2586 F2400
G0 X236.264 Y172.847 F5400
G1 X173.418 Y110.001 E278.6928 F2400
G0 X173.418 Y110.566 F5400
G1 X235.698 Y172.847 E283.0870 F2400
G0 X235.132 Y172.847 F5400
G1 X173.418 Y111.132 E287.4413 F2400
G0 X172.988 Y111.268 F5400
G1 X234.997 Y173.277 E291.8164 F2400
G0 X234.997 Y173.842 F5400
G1 X172.422 Y111.268 E296.2313 F2400
G0 X171.857 Y111.268 F5400
G1 X234.997 Y174.408 E300.6862 F2400
G0 X234.997 Y174.974 F5400
G1 X171.291 Y111.268 E305.1810 F2400
G0 X170.725 Y111.268 F5400
G1 X234.997 Y175.539 E309.7157 F2400
G0 X234.997 Y176.105 F5400
G1 X170.159 Y111.268 E314.2903 F2400
G0 X169.594 Y111.268 F5400
G1 X234.997 Y176.671 E318.9048 F2400
G0 X234.997 Y177.236 F5400
G1 X169.028 Y111.268 E323.5593 F2400
G0 X168.462 Y111.268 F5400
G1 X234.997 Y177.802 E328.2536 F2400
G0 X234.997 Y178.368 F5400
G1 X167.897 Y111.268 E332.9879 F2400
G0 X167.331 Y111.268 F5400
G1 X234.997 Y178.933 E337.7620 F2400
G0 X234.997 Y179.499 F5400
G1 X166.765 Y111.268 E342.5761 F2400
G0 X166.200 Y111.268 F5400
G1 X234.997 Y180.065 E347.4301 F2400
G0 X234.997 Y180.630 F5400
G1 X165.634 Y111.268 E352.3240 F2400
G0 X160.718 Y109.746 F5400
G1 X198.419 Y147.447 E354.9841 F2400
G0 X197.853 Y147.447 F5400
G1 X160.718 Y110.311 E357.6042 F2400
G0 X160.718 Y110.877 F5400
G1 X197.287 Y147.447 E360.1844 F2400
G0 X196.722 Y147.447 F5400
G1 X160.543 Y111.268 E362.7370 F2400
G0 X159.977 Y111.268 F5400
G1 X196.156 Y147.447 E365.2896 F2400
G0 X195.590 Y147.447 F5400
G1 X159.411 Y111.268 E367.8422 F2400
G0 X158.846 Y111.268 F5400
G1 X195.025 Y147.447 E370.3948 F2400
G0 X194.459 Y147.447 F5400
G1 X158.280 Y111.268 E372.9474 F2400
G0 X157.714 Y111.268 F5400
G1 X193.893 Y147.447 E375.5000 F2400
G0 X193.328 Y147.447 F5400
G1 X157.149 Y111.268 E378.0527 F2400
G0 X156.583 Y111.268 F5400
G1 X192.762 Y147.447 E380.6053 F2400
G0 X192.196 Y147.447 F5400
G1 X156.017 Y111.268 E383.1579 F2400
G0 X155.452 Y111.268 F5400
G1 X191.630 Y147.447 E385.7105 F2400
G0 X191.065 Y147.447 F5400
G1 X154.886 Y111.268 E388.2631 F2400
G0 X154.320 Y111.268 F5400
G1 X190.499 Y147.447 E390.8157 F2400
G0 X189.933 Y147.447 F5400
G1 X153.755 Y111.268 E393.3683 F2400
G0 X153.189 Y111.268 F5400
G1 X189.368 Y147.447 E395.9209 F2400
G0 X188.802 Y147.447 F5400
G1 X152.623 Y111.268 E398.4736 F2400
G0 X147.658 Y110.899 F5400
G0 X147.658 Y110.908
G0 X102.007 Y110.908
G0 X102.007 Y107.513
G0 X102.007 Y107.513
G0 X96.857 Y107.131
G0 X96.857 Y107.131
G0 X96.857 Y110.908
G0 X89.307 Y110.908
G0 X89.307 Y106.571
G0 X89.307 Y106.571
G0 X84.158 Y106.189
G0 X84.158 Y106.189
G0 X84.158 Y110.908
G0 X76.607 Y110.908
G0 X76.607 Y105.628
G0 X76.607 Y105.628
G0 X76.233 Y105.601
G0 X76.246 Y105.602
G1 X75.562 Y104.918 E398.5218 F2400
G0 X74.997 Y104.918 F5400
G1 X76.246 Y106.167 E398.6100 F2400
G0 X76.246 Y106.733 F5400
G1 X74.431 Y104.918 E398.7381 F2400
G0 X73.865 Y104.918 F5400
G1 X76.246 Y107.299 E398.9061 F2400
G0 X76.246 Y107.865 F5400
G1 X73.300 Y104.918 E399.1140 F2400
G0 X72.734 Y104.918 F5400
G1 X76.246 Y108.430 E399.3619 F2400
G0 X76.246 Y108.996 F5400
G1 X72.168 Y104.918 E399.6496 F2400
G0 X71.818 Y105.133 F5400
G1 X76.246 Y109.562 E399.9621 F2400
G0 X76.246 Y110.127 F5400
G1 X71.818 Y105.698 E400.2745 F2400
G0 X71.818 Y106.264 F5400
G1 X76.246 Y110.693 E400.5870 F2400
G0 X76.246 Y111.259 F5400
G1 X71.818 Y106.830 E400.8995 F2400
G0 X71.457 Y106.765 F5400
G0 X71.457 Y110.908
G0 X63.907 Y110.908
G0 X63.907 Y105.412
G0 X63.907 Y105.412
G0 X63.534 Y105.345
G0 X63.547 Y105.347
G1 X63.117 Y104.918 E400.9298 F2400
G0 X62.552 Y104.918 F5400
G1 X63.547 Y105.913 E401.0000 F2400
G0 X63.547 Y106.478 F5400
G1 X61.986 Y104.918 E401.1101 F2400
G0 X61.420 Y104.918 F5400
G1 X63.547 Y107.044 E401.2601 F2400
G0 X63.547 Y107.610 F5400
G1 X60.855 Y104.918 E401.4501 F2400
G0 X60.289 Y104.918 F5400
G1 X63.547 Y108.175 E401.6799 F2400
G0 X63.547 Y108.741 F5400
G1 X59.723 Y104.918 E401.9497 F2400
G0 X59.157 Y104.918 F5400
G1 X63.547 Y109.307 E402.2594 F2400
G0 X63.547 Y109.872 F5400
G1 X59.118 Y105.444 E402.5718 F2400
G0 X59.118 Y106.009 F5400
G1 X63.547 Y110.438 E402.8843 F2400
G0 X63.547 Y111.004 F5400
G1 X59.118 Y106.575 E403.1968 F2400
G0 X58.758 Y106.509 F5400
G0 X58.758 Y110.908
G0 X51.207 Y110.908
G0 X51.207 Y105.120
G0 X51.207 Y105.120
G0 X50.094 Y104.915
G0 X50.106 Y104.918
G1 X50.846 Y105.658 E403.2490 F2400
G0 X50.846 Y106.223 F5400
G1 X49.541 Y104.918 E403.3411 F2400
G0 X48.975 Y104.918 F5400
G1 X50.846 Y106.789 E403.4731 F2400
G0 X50.846 Y107.355 F5400
G1 X48.409 Y104.918 E403.6451 F2400
G0 X47.844 Y104.918 F5400
G1 X50.846 Y107.920 E403.8569 F2400
G0 X50.846 Y108.486 F5400
G1 X47.278 Y104.918 E404.1087 F2400
G0 X46.712 Y104.918 F5400
G1 X50.846 Y109.052 E404.4004 F2400
G0 X50.846 Y109.617 F5400
G1 X46.418 Y105.189 E404.7128 F2400
G0 X46.418 Y105.754 F5400
G1 X50.846 Y110.183 E405.0253 F2400
G0 X50.846 Y110.749 F5400
G1 X46.418 Y106.320 E405.3378 F2400
G0 X46.057 Y106.280 F5400
G0 X46.057 Y110.908
G0 X38.507 Y110.908
G0 X38.507 Y105.443
G0 X38.507 Y105.443
G0 X38.133 Y105.401
G0 X38.147 Y105.403
G1 X37.661 Y104.918 E405.3720 F2400
G0 X37.096 Y104.918 F5400
G1 X38.147 Y105.968 E405.4461 F2400
G0 X38.147 Y106.534 F5400
G1 X36.530 Y104.918 E405.5602 F2400
G0 X35.964 Y104.918 F5400
G1 X38.147 Y107.100 E405.7142 F2400
G0 X38.147 Y107.666 F5400
G1 X35.399 Y104.918 E405.9080 F2400
G0 X34.833 Y104.918 F5400
G1 X38.147 Y108.231 E406.1418 F2400
G0 X38.147 Y108.797 F5400
G1 X34.267 Y104.918 E406.4155 F2400
G0 X33.718 Y104.934 F5400
G1 X38.147 Y109.363 E406.7280 F2400
G0 X38.147 Y109.928 F5400
G1 X33.718 Y105.499 E407.0405 F2400
G0 X33.718 Y106.065 F5400
G1 X38.147 Y110.494 E407.3529 F2400
G0 X38.147 Y111.060 F5400
G1 X33.718 Y106.631 E407.6654 F2400
G0 X33.718 Y107.196 F5400
G1 X73.968 Y147.447 E410.5053 F2400
G0 X73.402 Y147.447 F5400
G1 X33.718 Y107.762 E413.3052 F2400
G0 X33.718 Y108.328 F5400
G1 X72.837 Y147.447 E416.0653 F2400
G0 X72.271 Y147.447 F5400
G1 X33.718 Y108.893 E418.7854 F2400
G0 X33.718 Y109.459 F5400
G1 X71.705 Y147.447 E421.4657 F2400
G0 X71.139 Y147.447 F5400
G1 X33.718 Y110.025 E424.1060 F2400
G0 X33.718 Y110.591 F5400
G1 X70.574 Y147.447 E426.7064 F2400
G0 X70.008 Y147.447 F5400
G1 X33.718 Y111.156 E429.2669 F2400
G0 X33.264 Y111.268 F5400
G1 X69.442 Y147.447 E431.8195 F2400
G0 X68.877 Y147.447 F5400
G1 X32.698 Y111.268 E434.3721 F2400
G0 X32.132 Y111.268 F5400
G1 X68.311 Y147.447 E436.9247 F2400
G0 X67.745 Y147.447 F5400
G1 X31.567 Y111.268 E439.4773 F2400
G0 X31.001 Y111.268 F5400
G1 X67.180 Y147.447 E442.0299 F2400
G0 X66.614 Y147.447 F5400
G1 X30.435 Y111.268 E444.5825 F2400
G0 X29.869 Y111.268 F5400
G1 X66.048 Y147.447 E447.1352 F2400
G0 X65.483 Y147.447 F5400
G1 X29.304 Y111.268 E449.6878 F2400
G0 X28.738 Y111.268 F5400
G1 X64.917 Y147.447 E452.2404 F2400
G0 X64.351 Y147.447 F5400
G1 X28.172 Y111.268 E454.7930 F2400
G0 X27.607 Y111.268 F5400
G1 X63.786 Y147.447 E457.3456 F2400
G0 X63.220 Y147.447 F5400
G1 X27.041 Y111.268 E459.8982 F2400
G0 X26.475 Y111.268 F5400
G1 X62.654 Y147.447 E462.4508 F2400
G0 X62.089 Y147.447 F5400
G1 X25.910 Y111.268 E465.0034 F2400
G0 X25.344 Y111.268 F5400
G1 X61.523 Y147.447 E467.5561 F2400
G0 X60.957 Y147.447 F5400
G1 X24.778 Y111.268 E470.1087 F2400
G0 X24.213 Y111.268 F5400
G1 X60.391 Y147.447 E472.6613 F2400
G0 X59.826 Y147.447 F5400
G1 X23.647 Y111.268 E475.2139 F2400
G0 X23.081 Y111.268 F5400
G1 X59.260 Y147.447 E477.7665 F2400
G0 X58.694 Y147.447 F5400
G1 X22.516 Y111.268 E480.3191 F2400
G0 X21.950 Y111.268 F5400
G1 X58.129 Y147.447 E482.8717 F2400
G0 X57.563 Y147.447 F5400
G1 X21.384 Y111.268 E485.4243 F2400
G0 X21.018 Y111.467 F5400
G1 X57.197 Y147.646 E487.9770 F2400
G0 X57.197 Y148.212 F5400
G1 X21.018 Y112.033 E490.5296 F2400
G0 X21.018 Y112.598 F5400
G1 X57.197 Y148.777 E493.0823 F2400
G0 X57.197 Y149.343 F5400
G1 X21.018 Y113.164 E495.6349 F2400
G0 X21.018 Y113.730 F5400
G1 X57.197 Y149.909 E498.1876 F2400
G0 X57.197 Y150.474 F5400
G1 X21.018 Y114.295 E500.7402 F2400
G0 X21.018 Y114.861 F5400
G1 X57.197 Y151.040 E503.2928 F2400
G0 X57.197 Y151.606 F5400
G1 X21.018 Y115.427 E505.8455 F2400
G0 X21.018 Y115.992 F5400
G1 X57.197 Y152.171 E508.3981 F2400
G0 X57.197 Y152.737 F5400
G1 X21.018 Y116.558 E510.9508 F2400
G0 X21.018 Y117.124 F5400
G1 X57.197 Y153.303 E513.5034 F2400
G0 X57.197 Y153.869 F5400
G1 X20.946 Y117.618 E516.0611 F2400
G0 X20.380 Y117.618 F5400
G1 X57.197 Y154.434 E518.6587 F2400
G0 X57.197 Y155.000 F5400
G1 X19.815 Y117.618 E521.2962 F2400
G0 X19.249 Y117.618 F5400
G1 X57.197 Y155.566 E523.9736 F2400
G0 X57.197 Y156.131 F5400
G1 X18.683 Y117.618 E526.6909 F2400
G0 X18.117 Y117.618 F5400
G1 X57.197 Y156.697 E529.4482 F2400
G0 X57.197 Y157.263 F5400
G1 X17.552 Y117.618 E532.2454 F2400
G0 X16.986 Y117.618 F5400
G1 X57.197 Y157.828 E535.0825 F2400
G0 X57.197 Y158.394 F5400
G1 X21.018 Y122.215 E537.6351 F2400
G0 X21.018 Y122.781 F5400
G1 X57.197 Y158.960 E540.1877 F2400
G0 X57.197 Y159.525 F5400
G1 X21.018 Y123.346 E542.7403 F2400
G0 X21.018 Y123.912 F5400
G1 X57.197 Y160.091 E545.2929 F2400
G0 X57.197 Y160.657 F5400
G1 X21.018 Y124.478 E547.8455 F2400
G0 X21.018 Y125.043 F5400
G1 X57.197 Y161.222 E550.3982 F2400
G0 X57.197 Y161.788 F5400
G1 X21.018 Y125.609 E552.9508 F2400
G0 X21.018 Y126.175 F5400
G1 X57.197 Y162.354 E555.5034 F2400
G0 X57.197 Y162.919 F5400
G1 X21.018 Y126.740 E558.0560 F2400
G0 X21.018 Y127.306 F5400
G1 X57.197 Y163.485 E560.6086 F2400
G0 X57.197 Y164.051 F5400
G1 X21.018 Y127.872 E563.1612 F2400
G0 X21.018 Y128.437 F5400
G1 X57.197 Y164.617 E565.7138 F2400
G0 X57.197 Y165.182 F5400
G1 X21.018 Y129.003 E568.2664 F2400
G0 X21.018 Y129.569 F5400
G1 X57.197 Y165.748 E570.8191 F2400
G0 X57.197 Y166.314 F5400
G1 X21.018 Y130.134 E573.3717 F2400
G0 X20.635 Y130.318 F5400
G1 X57.197 Y166.879 E575.9513 F2400
G0 X57.197 Y167.445 F5400
G1 X20.069 Y130.318 E578.5708 F2400
G0 X19.504 Y130.318 F5400
G1 X57.197 Y168.011 E581.2302 F2400
G0 X57.197 Y168.576 F5400
G1 X18.938 Y130.318 E583.9295 F2400
G0 X18.372 Y130.318 F5400
G1 X57.197 Y169.142 E586.6688 F2400
G0 X57.197 Y169.708 F5400
G1 X17.807 Y130.318 E589.4480 F2400
G0 X17.241 Y130.318 F5400
G1 X57.197 Y170.273 E592.2671 F2400
G0 X57.197 Y170.839 F5400
G1 X16.675 Y130.318 E595.1261 F2400
G0 X16.110 Y130.318 F5400
G1 X20.538 Y134.747 E595.4386 F2400
G0 X19.973 Y134.747 F5400
G1 X15.544 Y130.318 E595.7511 F2400
G0 X14.978 Y130.318 F5400
G1 X19.407 Y134.747 E596.0636 F2400
G0 X18.841 Y134.747 F5400
G1 X14.668 Y130.573 E596.3581 F2400
G0 X14.668 Y131.138 F5400
G1 X18.276 Y134.747 E596.6126 F2400
G0 X17.710 Y134.747 F5400
G1 X14.668 Y131.704 E596.8273 F2400
G0 X14.668 Y132.270 F5400
G1 X17.144 Y134.747 E597.0020 F2400
G0 X16.579 Y134.747 F5400
G1 X14.668 Y132.836 E597.1369 F2400
G0 X14.668 Y133.401 F5400
G1 X16.013 Y134.747 E597.2318 F2400
G0 X15.447 Y134.747 F5400
G1 X14.668 Y133.967 E597.2868 F2400
G0 X14.668 Y135.107 F5400
G0 X20.657 Y135.107
G0 X20.657 Y142.658
G0 X14.668 Y142.658
G0 X14.668 Y142.658
G0 X14.668 Y146.991
G0 X14.668 Y146.978
G1 X15.137 Y147.447 E597.3198 F2400
G0 X15.702 Y147.447 F5400
G1 X14.668 Y146.412 E597.3928 F2400
G0 X14.668 Y145.846 F5400
G1 X16.268 Y147.447 E597.5058 F2400
G0 X16.834 Y147.447 F5400
G1 X14.668 Y145.281 E597.6586 F2400
G0 X14.668 Y144.715 F5400
G1 X17.399 Y147.447 E597.8513 F2400
G0 X17.965 Y147.447 F5400
G1 X14.668 Y144.149 E598.0840 F2400
G0 X14.668 Y143.584 F5400
G1 X18.531 Y147.447 E598.3566 F2400
G0 X19.096 Y147.447 F5400
G1 X14.668 Y143.018 E598.6691 F2400
G0 X15.233 Y143.018 F5400
G1 X19.662 Y147.447 E598.9816 F2400
G0 X20.228 Y147.447 F5400
G1 X15.799 Y143.018 E599.2941 F2400
G0 X16.365 Y143.018 F5400
G1 X20.793 Y147.447 E599.6066 F2400
G0 X21.018 Y147.671 F5400
G1 X57.197 Y183.850 E602.1592 F2400
G0 X57.197 Y184.416 F5400
G1 X21.018 Y148.236 E604.7118 F2400
G0 X21.018 Y148.802 F5400
G1 X57.197 Y184.981 E607.2644 F2400
G0 X57.196 Y185.547 F5400
G1 X21.018 Y149.368 E609.8170 F2400
G0 X21.018 Y149.933 F5400
G1 X56.631 Y185.547 E612.3297 F2400
G0 X56.065 Y185.547 F5400
G1 X21.018 Y150.499 E614.8025 F2400
G0 X21.018 Y151.065 F5400
G1 X55.499 Y185.547 E617.2354 F2400
G0 X54.934 Y185.547 F5400
G1 X21.018 Y151.631 E619.6283 F2400
G0 X21.018 Y152.196 F5400
G1 X54.368 Y185.547 E621.9813 F2400
G0 X53.802 Y185.547 F5400
G1 X21.018 Y152.762 E624.2945 F2400
G0 X21.018 Y153.328 F5400
G1 X53.237 Y185.547 E626.5677 F2400
G0 X52.671 Y185.547 F5400
G1 X21.018 Y153.893 E628.8011 F2400
G0 X21.018 Y154.459 F5400
G1 X52.105 Y185.547 E630.9945 F2400
G0 X51.539 Y185.547 F5400
G1 X21.018 Y155.025 E633.1480 F2400
G0 X21.018 Y155.590 F5400
G1 X50.974 Y185.547 E635.2616 F2400
G0 X50.408 Y185.547 F5400
G1 X20.579 Y155.718 E637.3662 F2400
G0 X20.014 Y155.718 F5400
G1 X49.842 Y185.547 E639.4708 F2400
G0 X49.277 Y185.547 F5400
G1 X19.448 Y155.718 E641.5754 F2400
G0 X18.882 Y155.718 F5400
G1 X48.711 Y185.547 E643.6800 F2400
G0 X48.145 Y185.547 F5400
G1 X18.316 Y155.718 E645.7846 F2400
G0 X17.751 Y155.718 F5400
G1 X47.580 Y185.547 E647.8892 F2400
G0 X47.014 Y185.547 F5400
G1 X17.185 Y155.718 E649.9939 F2400
G0 X16.619 Y155.718 F5400
G1 X46.448 Y185.547 E652.0985 F2400
G0 X45.883 Y185.547 F5400
G1 X21.018 Y160.681 E653.8529 F2400
G0 X21.018 Y161.247 F5400
G1 X45.317 Y185.547 E655.5673 F2400
G0 X44.751 Y185.547 F5400
G1 X21.018 Y161.813 E657.2419 F2400
G0 X21.018 Y162.379 F5400
G1 X44.186 Y185.547 E658.8766 F2400
G0 X43.620 Y185.547 F5400
G1 X21.018 Y162.944 E660.4713 F2400
G0 X21.018 Y163.510 F5400
G1 X43.054 Y185.547 E662.0261 F2400
G0 X42.489 Y185.547 F5400
G1 X21.018 Y164.076 E663.5410 F2400
G0 X21.018 Y164.641 F5400
G1 X41.923 Y185.547 E665.0160 F2400
G0 X41.357 Y185.547 F5400
G1 X21.018 Y165.207 E666.4510 F2400
G0 X21.018 Y165.773 F5400
G1 X40.791 Y185.547 E667.8462 F2400
G0 X40.226 Y185.547 F5400
G1 X21.018 Y166.338 E669.2014 F2400
G0 X21.018 Y166.904 F5400
G1 X39.660 Y185.547 E670.5167 F2400
G0 X39.094 Y185.547 F5400
G1 X21.018 Y167.470 E671.7921 F2400
G0 X21.018 Y168.035 F5400
G1 X38.529 Y185.547 E673.0277 F2400
G0 X37.963 Y185.547 F5400
G1 X20.834 Y168.418 E674.2362 F2400
G0 X20.269 Y168.418 F5400
G1 X37.397 Y185.547 E675.4448 F2400
G0 X36.832 Y185.547 F5400
G1 X19.703 Y168.418 E676.6533 F2400
G0 X19.137 Y168.418 F5400
G1 X36.266 Y185.547 E677.8619 F2400
G0 X35.700 Y185.547 F5400
G1 X18.572 Y168.418 E679.0705 F2400
G0 X18.006 Y168.418 F5400
G1 X35.135 Y185.547 E680.2790 F2400
G0 X34.569 Y185.547 F5400
G1 X17.440 Y168.418 E681.4876 F2400
G0 X16.874 Y168.418 F5400
G1 X34.003 Y185.547 E682.6961 F2400
G0 X33.438 Y185.547 F5400
G1 X21.018 Y173.127 E683.5724 F2400
G0 X21.018 Y173.692 F5400
G1 X32.872 Y185.547 E684.4088 F2400
G0 X32.306 Y185.547 F5400
G1 X21.018 Y174.258 E685.2052 F2400
G0 X21.018 Y174.824 F5400
G1 X31.741 Y185.547 E685.9618 F2400
G0 X31.175 Y185.547 F5400
G1 X21.018 Y175.389 E686.6785 F2400
G0 X21.018 Y175.955 F5400
G1 X30.609 Y185.547 E687.3552 F2400
G0 X30.043 Y185.547 F5400
G1 X21.018 Y176.521 E687.9921 F2400
G0 X21.018 Y177.086 F5400
G1 X29.478 Y185.547 E688.5890 F2400
G0 X28.912 Y185.547 F5400
G1 X21.018 Y177.652 E689.1460 F2400
G0 X21.018 Y178.218 F5400
G1 X28.346 Y185.547 E689.6631 F2400
G0 X27.781 Y185.547 F5400
G1 X21.018 Y178.783 E690.1403 F2400
G0 X21.018 Y179.349 F5400
G1 X27.215 Y185.547 E690.5775 F2400
G0 X26.649 Y185.547 F5400
G1 X21.018 Y179.915 E690.9749 F2400
G0 X21.018 Y180.480 F5400
G1 X26.084 Y185.547 E691.3323 F2400
G0 X25.518 Y185.547 F5400
G1 X21.018 Y181.046 E691.6498 F2400
G0 X20.523 Y181.118 F5400
G1 X24.952 Y185.547 E691.9623 F2400
G0 X24.387 Y185.547 F5400
G1 X19.958 Y181.118 E692.2748 F2400
G0 X19.392 Y181.118 F5400
G1 X23.821 Y185.547 E692.5873 F2400
G0 X23.255 Y185.547 F5400
G1 X18.826 Y181.118 E692.8998 F2400
G0 X18.261 Y181.118 F5400
G1 X22.690 Y185.547 E693.2123 F2400
G0 X22.124 Y185.547 F5400
G1 X17.695 Y181.118 E693.5248 F2400
G0 X17.129 Y181.118 F5400
G1 X21.558 Y185.547 E693.8373 F2400
G0 X20.992 Y185.547 F5400
G1 X16.564 Y181.118 E694.1498 F2400
G0 X15.998 Y181.118 F5400
G1 X20.427 Y185.547 E694.4623 F2400
G0 X19.861 Y185.547 F5400
G1 X15.432 Y181.118 E694.7748 F2400
G0 X14.867 Y181.118 F5400
G1 X19.295 Y185.547 E695.0873 F2400
G0 X18.730 Y185.547 F5400
G1 X14.668 Y181.484 E695.3739 F2400
G0 X14.668 Y182.050 F5400
G1 X18.164 Y185.547 E695.6206 F2400
G0 X17.598 Y185.547 F5400
G1 X14.668 Y182.616 E695.8274 F2400
G0 X14.668 Y183.181 F5400
G1 X17.033 Y185.547 E695.9943 F2400
G0 X16.467 Y185.547 F5400
G1 X14.668 Y183.747 E696.1212 F2400
G0 X14.668 Y184.313 F5400
G1 X15.901 Y185.547 E696.2083 F2400
G0 X15.336 Y185.547 F5400
G1 X14.668 Y184.879 E696.2554 F2400
G0 X16.747 Y180.758 F5400
G0 X20.657 Y180.758
G0 X20.657 Y173.207
G0 X20.556 Y173.207
G0 X20.556 Y173.207
G0 X20.744 Y172.835
G0 X20.738 Y172.847
G1 X16.309 Y168.418 E696.5679 F2400
G0 X15.743 Y168.418 F5400
G1 X20.172 Y172.847 E696.8804 F2400
G0 X19.606 Y172.847 F5400
G1 X15.177 Y168.418 E697.1929 F2400
G0 X14.668 Y168.474 F5400
G1 X19.041 Y172.847 E697.5014 F2400
G0 X18.475 Y172.847 F5400
G1 X14.668 Y169.039 E697.7700 F2400
G0 X14.668 Y169.605 F5400
G1 X17.909 Y172.847 E697.9987 F2400
G0 X17.344 Y172.847 F5400
G1 X14.668 Y170.171 E698.1875 F2400
G0 X14.668 Y170.736 F5400
G1 X16.778 Y172.847 E698.3364 F2400
G0 X16.212 Y172.847 F5400
G1 X14.668 Y171.302 E698.4454 F2400
G0 X14.668 Y171.868 F5400
G1 X15.647 Y172.847 E698.5145 F2400
G0 X15.081 Y172.847 F5400
G1 X14.668 Y172.433 E698.5437 F2400
G0 X14.668 Y168.058 F5400
G0 X20.657 Y168.058
G0 X20.657 Y160.507
G0 X14.668 Y160.507
G0 X14.668 Y160.507
G0 X14.668 Y159.410
G0 X14.668 Y159.423
G1 X15.391 Y160.147 E698.5948 F2400
G0 X15.957 Y160.147 F5400
G1 X14.668 Y158.857 E698.6858 F2400
G0 X14.668 Y158.291 F5400
G1 X16.523 Y160.147 E698.8167 F2400
G0 X17.089 Y160.147 F5400
G1 X14.668 Y157.726 E698.9875 F2400
G0 X14.668 Y157.160 F5400
G1 X17.654 Y160.147 E699.1982 F2400
G0 X18.220 Y160.147 F5400
G1 X14.668 Y156.594 E699.4488 F2400
G0 X14.668 Y156.029 F5400
G1 X18.786 Y160.147 E699.7393 F2400
G0 X19.351 Y160.147 F5400
G1 X14.922 Y155.718 E700.0518 F2400
G0 X15.488 Y155.718 F5400
G1 X19.917 Y160.147 E700.3643 F2400
G0 X20.483 Y160.147 F5400
G1 X16.054 Y155.718 E700.6768 F2400
G0 X16.079 Y155.358 F5400
G0 X20.657 Y155.358
G0 X20.657 Y147.807
G0 X16.600 Y147.807
G0 X16.600 Y147.807
G0 X16.931 Y143.005
G0 X16.930 Y143.018
G1 X57.197 Y183.284 E703.5178 F2400
G0 X57.197 Y182.718 F5400
G1 X17.496 Y143.018 E706.3189 F2400
G0 X18.062 Y143.018 F5400
G1 X57.197 Y182.153 E709.0801 F2400
G0 X57.197 Y181.587 F5400
G1 X18.627 Y143.018 E711.8014 F2400
G0 X19.193 Y143.018 F5400
G1 X57.197 Y181.021 E714.4827 F2400
G0 X57.197 Y180.456 F5400
G1 X19.759 Y143.018 E717.1241 F2400
G0 X20.324 Y143.018 F5400
G1 X57.197 Y179.890 E719.7257 F2400
G0 X57.197 Y179.324 F5400
G1 X20.890 Y143.018 E722.2873 F2400
G0 X21.018 Y142.580 F5400
G1 X57.197 Y178.759 E724.8399 F2400
G0 X57.197 Y178.193 F5400
G1 X21.018 Y142.014 E727.3925 F2400
G0 X21.018 Y141.448 F5400
G1 X57.197 Y177.627 E729.9452 F2400
G0 X57.197 Y177.062 F5400
G1 X21.018 Y140.882 E732.4978 F2400
G0 X21.018 Y140.317 F5400
G1 X57.197 Y176.496 E735.0504 F2400
G0 X57.197 Y175.930 F5400
G1 X21.018 Y139.751 E737.6030 F2400
G0 X21.018 Y139.185 F5400
G1 X57.197 Y175.365 E740.1556 F2400
G0 X57.197 Y174.799 F5400
G1 X21.018 Y138.620 E742.7082 F2400
G0 X21.018 Y138.054 F5400
G1 X57.197 Y174.233 E745.2608 F2400
G0 X57.197 Y173.668 F5400
G1 X21.018 Y137.488 E747.8134 F2400
G0 X21.018 Y136.923 F5400
G1 X57.197 Y173.102 E750.3661 F2400
G0 X57.197 Y172.536 F5400
G1 X21.018 Y136.357 E752.9187 F2400
G0 X21.018 Y135.791 F5400
G1 X57.197 Y171.970 E755.4713 F2400
G0 X57.197 Y171.405 F5400
G1 X21.018 Y135.226 E758.0239 F2400
G0 X18.576 Y129.958 F5400
G0 X20.657 Y129.958
G0 X20.657 Y122.407
G0 X15.078 Y122.407
G0 X15.078 Y122.407
G0 X14.662 Y121.510
G0 X14.668 Y121.522
G1 X15.192 Y122.047 E758.0609 F2400
G0 X15.758 Y122.047 F5400
G1 X14.668 Y120.956 E758.1379 F2400
G0 X14.668 Y120.390 F5400
G1 X16.324 Y122.047 E758.2548 F2400
G0 X16.889 Y122.047 F5400
G1 X14.668 Y119.825 E758.4115 F2400
G0 X14.668 Y119.259 F5400
G1 X17.455 Y122.047 E758.6082 F2400
G0 X18.021 Y122.047 F5400
G1 X14.668 Y118.693 E758.8448 F2400
G0 X14.668 Y118.128 F5400
G1 X18.587 Y122.047 E759.1212 F2400
G0 X19.152 Y122.047 F5400
G1 X14.723 Y117.618 E759.4337 F2400
G0 X15.289 Y117.618 F5400
G1 X19.718 Y122.047 E759.7462 F2400
G0 X20.284 Y122.047 F5400
G1 X15.855 Y117.618 E760.0587 F2400
G0 X16.420 Y117.618 F5400
G1 X20.849 Y122.047 E760.3712 F2400
G0 X38.355 Y111.268 F5400
G1 X74.534 Y147.447 E762.9239 F2400
G0 X75.099 Y147.447 F5400
G1 X38.920 Y111.268 E765.4765 F2400
G0 X39.486 Y111.268 F5400
G1 X75.665 Y147.447 E768.0291 F2400
G0 X76.231 Y147.447 F5400
G1 X40.052 Y111.268 E770.5817 F2400
G0 X40.618 Y111.268 F5400
G1 X76.796 Y147.447 E773.1343 F2400
G0 X77.362 Y147.447 F5400
G1 X41.183 Y111.268 E775.6869 F2400
G0 X41.749 Y111.268 F5400
G1 X77.928 Y147.447 E778.2395 F2400
G0 X78.493 Y147.447 F5400
G1 X42.315 Y111.268 E780.7921 F2400
G0 X42.880 Y111.268 F5400
G1 X79.059 Y147.447 E783.3448 F2400
G0 X79.625 Y147.447 F5400
G1 X43.446 Y111.268 E785.8974 F2400
G0 X44.012 Y111.268 F5400
G1 X80.190 Y147.447 E788.4500 F2400
G0 X80.756 Y147.447 F5400
G1 X44.577 Y111.268 E791.0026 F2400
G0 X45.143 Y111.268 F5400
G1 X81.322 Y147.447 E793.5552 F2400
G0 X81.888 Y147.447 F5400
G1 X45.709 Y111.268 E796.1078 F2400
G0 X46.274 Y111.268 F5400
G1 X82.453 Y147.447 E798.6604 F2400
G0 X83.019 Y147.447 F5400
G1 X46.418 Y110.845 E801.2428 F2400
G0 X46.418 Y110.280 F5400
G1 X83.585 Y147.447 E803.8651 F2400
G0 X84.150 Y147.447 F5400
G1 X46.418 Y109.714 E806.5274 F2400
G0 X46.418 Y109.148 F5400
G1 X84.716 Y147.447 E809.2295 F2400
G0 X85.282 Y147.447 F5400
G1 X46.418 Y108.583 E811.9716 F2400
G0 X46.418 Y108.017 F5400
G1 X85.847 Y147.447 E814.7536 F2400
G0 X86.413 Y147.447 F5400
G1 X46.418 Y107.451 E817.5755 F2400
G0 X46.418 Y106.886 F5400
G1 X86.979 Y147.447 E820.4373 F2400
G0 X87.544 Y147.447 F5400
G1 X51.366 Y111.268 E822.9899 F2400
G0 X51.931 Y111.268 F5400
G1 X88.110 Y147.447 E825.5425 F2400
G0 X88.676 Y147.447 F5400
G1 X52.497 Y111.268 E828.0951 F2400
G0 X53.063 Y111.268 F5400
G1 X89.241 Y147.447 E830.6477 F2400
G0 X89.807 Y147.447 F5400
G1 X53.628 Y111.268 E833.2003 F2400
G0 X54.194 Y111.268 F5400
G1 X90.373 Y147.447 E835.7530 F2400
G0 X90.938 Y147.447 F5400
G1 X54.760 Y111.268 E838.3056 F2400
G0 X55.325 Y111.268 F5400
G1 X91.504 Y147.447 E840.8582 F2400
G0 X92.070 Y147.447 F5400
G1 X55.891 Y111.268 E843.4108 F2400
G0 X56.457 Y111.268 F5400
G1 X92.636 Y147.447 E845.9634 F2400
G0 X93.201 Y147.447 F5400
G1 X57.022 Y111.268 E848.5160 F2400
G0 X57.588 Y111.268 F5400
G1 X93.767 Y147.447 E851.0686 F2400
G0 X94.333 Y147.447 F5400
G1 X58.154 Y111.268 E853.6212 F2400
G0 X58.719 Y111.268 F5400
G1 X94.898 Y147.447 E856.1738 F2400
G0 X95.464 Y147.447 F5400
G1 X59.118 Y111.100 E858.7383 F2400
G0 X59.118 Y110.535 F5400
G1 X96.030 Y147.447 E861.3426 F2400
G0 X96.595 Y147.447 F5400
G1 X59.118 Y109.969 E863.9868 F2400
G0 X59.118 Y109.403 F5400
G1 X97.161 Y147.447 E866.6710 F2400
G0 X97.727 Y147.447 F5400
G1 X59.118 Y108.838 E869.3950 F2400
G0 X59.118 Y108.272 F5400
G1 X98.292 Y147.447 E872.1590 F2400
G0 X98.858 Y147.447 F5400
G1 X59.118 Y107.706 E874.9629 F2400
G0 X59.118 Y107.141 F5400
G1 X99.424 Y147.447 E877.8067 F2400
G0 X99.989 Y147.447 F5400
G1 X63.811 Y111.268 E880.3593 F2400
G0 X64.376 Y111.268 F5400
G1 X100.555 Y147.447 E882.9119 F2400
G0 X101.121 Y147.447 F5400
G1 X64.942 Y111.268 E885.4645 F2400
G0 X65.508 Y111.268 F5400
G1 X101.687 Y147.447 E888.0172 F2400
G0 X102.252 Y147.447 F5400
G1 X66.073 Y111.268 E890.5698 F2400
G0 X66.639 Y111.268 F5400
G1 X102.818 Y147.447 E893.1224 F2400
G0 X103.384 Y147.447 F5400
G1 X67.205 Y111.268 E895.6750 F2400
G0 X67.770 Y111.268 F5400
G1 X103.949 Y147.447 E898.2276 F2400
G0 X104.515 Y147.447 F5400
G1 X68.336 Y111.268 E900.7802 F2400
G0 X68.902 Y111.268 F5400
G1 X105.081 Y147.447 E903.3328 F2400
G0 X105.646 Y147.447 F5400
G1 X69.467 Y111.268 E905.8854 F2400
G0 X70.033 Y111.268 F5400
G1 X106.212 Y147.447 E908.4380 F2400
G0 X106.778 Y147.447 F5400
G1 X70.599 Y111.268 E910.9907 F2400
G0 X71.165 Y111.268 F5400
G1 X107.343 Y147.447 E913.5433 F2400
G0 X107.909 Y147.447 F5400
G1 X71.730 Y111.268 E916.0959 F2400
G0 X71.818 Y110.790 F5400
G1 X108.475 Y147.447 E918.6823 F2400
G0 X109.040 Y147.447 F5400
G1 X71.818 Y110.224 E921.3085 F2400
G0 X71.818 Y109.658 F5400
G1 X109.606 Y147.447 E923.9747 F2400
G0 X110.172 Y147.447 F5400
G1 X71.818 Y109.092 E926.6808 F2400
G0 X71.818 Y108.527 F5400
G1 X110.737 Y147.447 E929.4269 F2400
G0 X111.303 Y147.447 F5400
G1 X71.818 Y107.961 E932.2128 F2400
G0 X71.818 Y107.395 F5400
G1 X111.869 Y147.447 E935.0386 F2400
G0 X112.435 Y147.447 F5400
G1 X76.256 Y111.268 E937.5912 F2400
G0 X76.821 Y111.268 F5400
G1 X113.000 Y147.447 E940.1439 F2400
G0 X113.566 Y147.447 F5400
G1 X77.387 Y111.268 E942.6965 F2400
G0 X77.953 Y111.268 F5400
G1 X114.132 Y147.447 E945.2491 F2400
G0 X114.697 Y147.447 F5400
G1 X78.518 Y111.268 E947.8017 F2400
G0 X79.084 Y111.268 F5400
G1 X115.263 Y147.447 E950.3543 F2400
G0 X115.829 Y147.447 F5400
G1 X79.650 Y111.268 E952.9069 F2400
G0 X80.215 Y111.268 F5400
G1 X116.394 Y147.447 E955.4595 F2400
G0 X116.960 Y147.447 F5400
G1 X80.781 Y111.268 E958.0121 F2400
G0 X81.347 Y111.268 F5400
G1 X117.526 Y147.447 E960.5648 F2400
G0 X118.091 Y147.447 F5400
G1 X81.913 Y111.268 E963.1174 F2400
G0 X82.478 Y111.268 F5400
G1 X118.657 Y147.447 E965.6700 F2400
G0 X119.223 Y147.447 F5400
G1 X83.044 Y111.268 E968.2226 F2400
G0 X83.610 Y111.268 F5400
G1 X119.788 Y147.447 E970.7752 F2400
G0 X120.354 Y147.447 F5400
G1 X84.175 Y111.268 E973.3278 F2400
G0 X84.518 Y111.045 F5400
G1 X120.920 Y147.447 E975.8962 F2400
G0 X121.485 Y147.447 F5400
G1 X84.518 Y110.479 E978.5045 F2400
G0 X84.518 Y109.913 F5400
G1 X122.051 Y147.447 E981.1526 F2400
G0 X122.617 Y147.447 F5400
G1 X84.518 Y109.348 E983.8408 F2400
G0 X84.518 Y108.782 F5400
G1 X123.183 Y147.447 E986.5688 F2400
G0 X123.748 Y147.447 F5400
G1 X84.518 Y108.216 E989.3367 F2400
G0 X84.518 Y107.651 F5400
G1 X124.314 Y147.447 E992.1446 F2400
G0 X124.880 Y147.447 F5400
G1 X84.518 Y107.085 E994.9923 F2400
G0 X84.518 Y106.519 F5400
G1 X88.947 Y110.948 E995.3048 F2400
G0 X88.947 Y110.382 F5400
G1 X84.518 Y105.953 E995.6173 F2400
G0 X84.518 Y105.388 F5400
G1 X88.947 Y109.817 E995.9298 F2400
G0 X88.947 Y109.251 F5400
G1 X84.613 Y104.918 E996.2355 F2400
G0 X85.179 Y104.918 F5400
G1 X88.947 Y108.685 E996.5013 F2400
G0 X88.947 Y108.120 F5400
G1 X85.745 Y104.918 E996.7272 F2400
G0 X86.310 Y104.918 F5400
G1 X88.947 Y107.554 E996.9132 F2400
G0 X88.947 Y106.988 F5400
G1 X86.876 Y104.918 E997.0593 F2400
G0 X87.442 Y104.918 F5400
G1 X88.947 Y106.423 E997.1655 F2400
G0 X88.947 Y105.857 F5400
G1 X88.007 Y104.918 E997.2318 F2400
G0 X88.573 Y104.918 F5400
G1 X88.947 Y105.291 E997.2581 F2400
G0 X89.266 Y111.268 F5400
G1 X125.445 Y147.447 E999.8107 F2400
G0 X126.011 Y147.447 F5400
G1 X89.832 Y111.268 E1002.3633 F2400
G0 X90.398 Y111.268 F5400
G1 X126.577 Y147.447 E1004.9160 F2400
G0 X127.142 Y147.447 F5400
G1 X90.964 Y111.268 E1007.4686 F2400
G0 X91.529 Y111.268 F5400
G1 X127.708 Y147.447 E1010.0212 F2400
G0 X128.274 Y147.447 F5400
G1 X92.095 Y111.268 E1012.5738 F2400
G0 X92.661 Y111.268 F5400
G1 X128.839 Y147.447 E1015.1264 F2400
G0 X129.405 Y147.447 F5400
G1 X93.226 Y111.268 E1017.6790 F2400
G0 X93.792 Y111.268 F5400
G1 X129.971 Y147.447 E1020.2316 F2400
G0 X130.536 Y147.447 F5400
G1 X94.358 Y111.268 E1022.7842 F2400
G0 X94.923 Y111.268 F5400
G1 X131.102 Y147.447 E1025.3368 F2400
G0 X131.668 Y147.447 F5400
G1 X95.489 Y111.268 E1027.8894 F2400
G0 X96.055 Y111.268 F5400
G1 X132.234 Y147.447 E1030.4420 F2400
G0 X132.799 Y147.447 F5400
G1 X96.620 Y111.268 E1032.9946 F2400
G0 X97.186 Y111.268 F5400
G1 X133.365 Y147.447 E1035.5472 F2400
G0 X133.931 Y147.447 F5400
G1 X97.218 Y110.734 E1038.1376 F2400
G0 X97.218 Y110.168 F5400
G1 X134.496 Y147.447 E1040.7678 F2400
G0 X135.062 Y147.447 F5400
G1 X97.218 Y109.602 E1043.4380 F2400
G0 X97.218 Y109.037 F5400
G1 X135.628 Y147.447 E1046.1481 F2400
G0 X136.193 Y147.447 F5400
G1 X97.218 Y108.471 E1048.8981 F2400
G0 X97.218 Y107.905 F5400
G1 X136.759 Y147.447 E1051.6880 F2400
G0 X137.325 Y147.447 F5400
G1 X97.218 Y107.340 E1054.5177 F2400
G0 X97.218 Y106.774 F5400
G1 X101.646 Y111.203 E1054.8302 F2400
G0 X101.646 Y110.637 F5400
G1 X97.218 Y106.208 E1055.1427 F2400
G0 X97.218 Y105.643 F5400
G1 X101.646 Y110.071 E1055.4552 F2400
G0 X101.646 Y109.506 F5400
G1 X97.218 Y105.077 E1055.7677 F2400
G0 X97.624 Y104.918 F5400
G1 X101.646 Y108.940 E1056.0515 F2400
G0 X101.646 Y108.374 F5400
G1 X98.190 Y104.918 E1056.2954 F2400
G0 X98.755 Y104.918 F5400
G1 X101.646 Y107.809 E1056.4994 F2400
G0 X101.646 Y107.243 F5400
G1 X99.321 Y104.918 E1056.6635 F2400
G0 X99.887 Y104.918 F5400
G1 X101.646 Y106.677 E1056.7876 F2400
G0 X101.646 Y106.112 F5400
G1 X100.453 Y104.918 E1056.8718 F2400
G0 X101.018 Y104.918 F5400
G1 X101.646 Y105.546 E1056.9161 F2400
G0 X101.712 Y111.268 F5400
G1 X137.890 Y147.447 E1059.4688 F2400
G0 X138.456 Y147.447 F5400
G1 X102.277 Y111.268 E1062.0214 F2400
G0 X102.843 Y111.268 F5400
G1 X139.022 Y147.447 E1064.5740 F2400
G0 X139.587 Y147.447 F5400
G1 X103.409 Y111.268 E1067.1266 F2400
G0 X103.974 Y111.268 F5400
G1 X140.153 Y147.447 E1069.6792 F2400
G0 X140.719 Y147.447 F5400
G1 X104.540 Y111.268 E1072.2318 F2400
G0 X105.106 Y111.268 F5400
G1 X141.284 Y147.447 E1074.7844 F2400
G0 X141.850 Y147.447 F5400
G1 X105.671 Y111.268 E1077.3370 F2400
G0 X106.237 Y111.268 F5400
G1 X142.416 Y147.447 E1079.8896 F2400
G0 X142.982 Y147.447 F5400
G1 X106.803 Y111.268 E1082.4423 F2400
G0 X107.368 Y111.268 F5400
G1 X143.547 Y147.447 E1084.9949 F2400
G0 X144.113 Y147.447 F5400
G1 X107.934 Y111.268 E1087.5475 F2400
G0 X108.500 Y111.268 F5400
G1 X144.679 Y147.447 E1090.1001 F2400
G0 X145.244 Y147.447 F5400
G1 X109.065 Y111.268 E1092.6527 F2400
G0 X109.631 Y111.268 F5400
G1 X145.810 Y147.447 E1095.2053 F2400
G0 X146.376 Y147.447 F5400
G1 X110.197 Y111.268 E1097.7579 F2400
G0 X110.762 Y111.268 F5400
G1 X146.941 Y147.447 E1100.3105 F2400
G0 X147.507 Y147.447 F5400
G1 X111.328 Y111.268 E1102.8632 F2400
G0 X111.894 Y111.268 F5400
G1 X148.073 Y147.447 E1105.4158 F2400
G0 X148.638 Y147.447 F5400
G1 X112.460 Y111.268 E1107.9684 F2400
G0 X113.025 Y111.268 F5400
G1 X149.204 Y147.447 E1110.5210 F2400
G0 X149.770 Y147.447 F5400
G1 X113.591 Y111.268 E1113.0736 F2400
G0 X114.157 Y111.268 F5400
G1 X150.335 Y147.447 E1115.6262 F2400
G0 X150.901 Y147.447 F5400
G1 X114.722 Y111.268 E1118.1788 F2400
G0 X115.288 Y111.268 F5400
G1 X151.467 Y147.447 E1120.7314 F2400
G0 X152.032 Y147.447 F5400
G1 X115.854 Y111.268 E1123.2841 F2400
G0 X116.419 Y111.268 F5400
G1 X152.598 Y147.447 E1125.8367 F2400
G0 X153.164 Y147.447 F5400
G1 X116.985 Y111.268 E1128.3893 F2400
G0 X117.551 Y111.268 F5400
G1 X153.730 Y147.447 E1130.9419 F2400
G0 X154.295 Y147.447 F5400
G1 X118.116 Y111.268 E1133.4945 F2400
G0 X118.682 Y111.268 F5400
G1 X154.861 Y147.447 E1136.0471 F2400
G0 X155.427 Y147.447 F5400
G1 X119.248 Y111.268 E1138.5997 F2400
G0 X119.813 Y111.268 F5400
G1 X155.992 Y147.447 E1141.1523 F2400
G0 X156.558 Y147.447 F5400
G1 X120.379 Y111.268 E1143.7050 F2400
G0 X120.945 Y111.268 F5400
G1 X157.124 Y147.447 E1146.2576 F2400
G0 X157.689 Y147.447 F5400
G1 X121.511 Y111.268 E1148.8102 F2400
G0 X122.076 Y111.268 F5400
G1 X158.255 Y147.447 E1151.3628 F2400
G0 X158.821 Y147.447 F5400
G1 X122.642 Y111.268 E1153.9154 F2400
G0 X123.208 Y111.268 F5400
G1 X159.386 Y147.447 E1156.4680 F2400
G0 X159.952 Y147.447 F5400
G1 X123.773 Y111.268 E1159.0206 F2400
G0 X124.339 Y111.268 F5400
G1 X160.518 Y147.447 E1161.5732 F2400
G0 X161.083 Y147.447 F5400
G1 X124.905 Y111.268 E1164.1259 F2400
G0 X125.470 Y111.268 F5400
G1 X161.649 Y147.447 E1166.6785 F2400
G0 X162.215 Y147.447 F5400
G1 X126.036 Y111.268 E1169.2311 F2400
G0 X126.602 Y111.268 F5400
G1 X162.781 Y147.447 E1171.7837 F2400
G0 X163.346 Y147.447 F5400
G1 X127.167 Y111.268 E1174.3363 F2400
G0 X127.733 Y111.268 F5400
G1 X163.912 Y147.447 E1176.8889 F2400
G0 X164.478 Y147.447 F5400
G1 X128.299 Y111.268 E1179.4415 F2400
G0 X128.864 Y111.268 F5400
G1 X165.043 Y147.447 E1181.9941 F2400
G0 X165.609 Y147.447 F5400
G1 X129.430 Y111.268 E1184.5468 F2400
G0 X129.996 Y111.268 F5400
G1 X166.175 Y147.447 E1187.0994 F2400
G0 X166.740 Y147.447 F5400
G1 X130.561 Y111.268 E1189.6520 F2400
G0 X131.127 Y111.268 F5400
G1 X167.306 Y147.447 E1192.2046 F2400
G0 X167.872 Y147.447 F5400
G1 X131.693 Y111.268 E1194.7572 F2400
G0 X132.259 Y111.268 F5400
G1 X168.437 Y147.447 E1197.3098 F2400
G0 X169.003 Y147.447 F5400
G1 X132.824 Y111.268 E1199.8624 F2400
G0 X133.390 Y111.268 F5400
G1 X169.569 Y147.447 E1202.4150 F2400
G0 X170.134 Y147.447 F5400
G1 X133.956 Y111.268 E1204.9677 F2400
G0 X134.521 Y111.268 F5400
G1 X170.700 Y147.447 E1207.5203 F2400
G0 X171.266 Y147.447 F5400
G1 X135.087 Y111.268 E1210.0729 F2400
G0 X135.653 Y111.268 F5400
G1 X171.831 Y147.447 E1212.6255 F2400
G0 X172.397 Y147.447 F5400
G1 X136.218 Y111.268 E1215.1781 F2400
G0 X136.784 Y111.268 F5400
G1 X172.963 Y147.447 E1217.7307 F2400
G0 X173.529 Y147.447 F5400
G1 X137.350 Y111.268 E1220.2833 F2400
G0 X137.915 Y111.268 F5400
G1 X174.094 Y147.447 E1222.8359 F2400
G0 X174.660 Y147.447 F5400
G1 X138.481 Y111.268 E1225.3885 F2400
G0 X139.047 Y111.268 F5400
G1 X175.226 Y147.447 E1227.9412 F2400
G0 X175.791 Y147.447 F5400
G1 X139.612 Y111.268 E1230.4938 F2400
G0 X140.178 Y111.268 F5400
G1 X176.357 Y147.447 E1233.0464 F2400
G0 X176.923 Y147.447 F5400
G1 X140.744 Y111.268 E1235.5990 F2400
G0 X141.310 Y111.268 F5400
G1 X177.488 Y147.447 E1238.1516 F2400
G0 X178.054 Y147.447 F5400
G1 X141.875 Y111.268 E1240.7042 F2400
G0 X142.441 Y111.268 F5400
G1 X178.620 Y147.447 E1243.2568 F2400
G0 X179.185 Y147.447 F5400
G1 X143.007 Y111.268 E1245.8094 F2400
G0 X143.572 Y111.268 F5400
G1 X179.751 Y147.447 E1248.3621 F2400
G0 X180.317 Y147.447 F5400
G1 X144.138 Y111.268 E1250.9147 F2400
G0 X144.704 Y111.268 F5400
G1 X180.882 Y147.447 E1253.4673 F2400
G0 X181.448 Y147.447 F5400
G1 X145.269 Y111.268 E1256.0199 F2400
G0 X145.835 Y111.268 F5400
G1 X182.014 Y147.447 E1258.5725 F2400
G0 X182.580 Y147.447 F5400
G1 X146.401 Y111.268 E1261.1251 F2400
G0 X146.966 Y111.268 F5400
G1 X183.145 Y147.447 E1263.6777 F2400
G0 X183.711 Y147.447 F5400
G1 X147.532 Y111.268 E1266.2303 F2400
G0 X148.018 Y111.188 F5400
G1 X184.277 Y147.447 E1268.7886 F2400
G0 X184.842 Y147.447 F5400
G1 X148.018 Y110.622 E1271.3867 F2400
G0 X148.018 Y110.056 F5400
G1 X185.408 Y147.447 E1274.0248 F2400
G0 X185.974 Y147.447 F5400
G1 X148.018 Y109.491 E1276.7028 F2400
G0 X148.018 Y108.925 F5400
G1 X186.539 Y147.447 E1279.4207 F2400
G0 X187.105 Y147.447 F5400
G1 X148.018 Y108.359 E1282.1785 F2400
G0 X148.018 Y107.794 F5400
G1 X187.671 Y147.447 E1284.9762 F2400
G0 X188.236 Y147.447 F5400
G1 X148.018 Y107.228 E1287.8138 F2400
G0 X148.018 Y106.662 F5400
G1 X152.447 Y111.091 E1288.1263 F2400
G0 X152.447 Y110.526 F5400
G1 X148.018 Y106.097 E1288.4388 F2400
G0 X148.018 Y105.531 F5400
G1 X152.447 Y109.960 E1288.7513 F2400
G0 X152.447 Y109.394 F5400
G1 X148.018 Y104.965 E1289.0638 F2400
G0 X148.536 Y104.918 F5400
G1 X152.447 Y108.828 E1289.3397 F2400
G0 X152.447 Y108.263 F5400
G1 X149.101 Y104.918 E1289.5757 F2400
G0 X149.667 Y104.918 F5400
G1 X152.447 Y107.697 E1289.7717 F2400
G0 X152.447 Y107.131 F5400
G1 X150.233 Y104.918 E1289.9280 F2400
G0 X150.799 Y104.918 F5400
G1 X152.447 Y106.566 E1290.0443 F2400
G0 X152.447 Y106.000 F5400
G1 X151.364 Y104.918 E1290.1207 F2400
G0 X151.930 Y104.918 F5400
G1 X152.447 Y105.434 E1290.1572 F2400
G0 X152.807 Y105.419 F5400
G0 X152.807 Y110.908
G0 X160.357 Y110.908
G0 X160.357 Y105.092
G0 X160.357 Y105.092
G0 X164.388 Y104.917
G0 X164.375 Y104.918
G1 X165.146 Y105.689 E1290.2117 F2400
G0 X165.146 Y106.255 F5400
G1 X163.809 Y104.918 E1290.3060 F2400
G0 X163.244 Y104.918 F5400
G1 X165.146 Y106.821 E1290.4403 F2400
G0 X165.146 Y107.386 F5400
G1 X162.678 Y104.918 E1290.6145 F2400
G0 X162.112 Y104.918 F5400
G1 X165.146 Y107.952 E1290.8286 F2400
G0 X165.146 Y108.518 F5400
G1 X161.547 Y104.918 E1291.0826 F2400
G0 X160.981 Y104.918 F5400
G1 X165.146 Y109.083 E1291.3766 F2400
G0 X165.146 Y109.649 F5400
G1 X160.718 Y105.220 E1291.6891 F2400
G0 X160.718 Y105.786 F5400
G1 X165.146 Y110.215 E1292.0016 F2400
G0 X165.146 Y110.780 F5400
G1 X160.718 Y106.351 E1292.3141 F2400
G0 X160.718 Y106.917 F5400
G1 X239.347 Y185.547 E1297.8618 F2400
G0 X238.782 Y185.547 F5400
G1 X160.718 Y107.483 E1303.3696 F2400
G0 X160.718 Y108.049 F5400
G1 X238.216 Y185.547 E1308.8375 F2400
G0 X237.650 Y185.547 F5400
G1 X160.718 Y108.614 E1314.2655 F2400
G0 X160.718 Y109.180 F5400
G1 X237.085 Y185.547 E1319.6536 F2400
G0 X236.519 Y185.547 F5400
G1 X198.818 Y147.846 E1322.3136 F2400
G0 X198.818 Y148.411 F5400
G1 X235.953 Y185.547 E1324.9337 F2400
G0 X235.387 Y185.547 F5400
G1 X198.818 Y148.977 E1327.5139 F2400
G0 X198.818 Y149.543 F5400
G1 X234.822 Y185.547 E1330.0542 F2400
G0 X234.256 Y185.547 F5400
G1 X198.818 Y150.108 E1332.5546 F2400
G0 X198.818 Y150.674 F5400
G1 X233.690 Y185.547 E1335.0150 F2400
G0 X233.125 Y185.547 F5400
G1 X198.818 Y151.240 E1337.4355 F2400
G0 X198.818 Y151.805 F5400
G1 X232.559 Y185.547 E1339.8162 F2400
G0 X231.993 Y185.547 F5400
G1 X198.818 Y152.371 E1342.1569 F2400
G0 X198.818 Y152.937 F5400
G1 X231.428 Y185.547 E1344.4576 F2400
G0 X230.862 Y185.547 F5400
G1 X198.818 Y153.502 E1346.7185 F2400
G0 X198.818 Y154.068 F5400
G1 X230.296 Y185.547 E1348.9395 F2400
G0 X229.731 Y185.547 F5400
G1 X198.818 Y154.634 E1351.1205 F2400
G0 X198.818 Y155.199 F5400
G1 X229.165 Y185.547 E1353.2616 F2400
G0 X228.599 Y185.547 F5400
G1 X198.818 Y155.765 E1355.3628 F2400
G0 X198.818 Y156.331 F5400
G1 X228.033 Y185.547 E1357.4242 F2400
G0 X227.468 Y185.547 F5400
G1 X198.818 Y156.896 E1359.4457 F2400
G0 X198.818 Y157.462 F5400
G1 X226.902 Y185.547 E1361.4272 F2400
G0 X226.336 Y185.547 F5400
G1 X198.818 Y158.028 E1363.3689 F2400
G0 X198.818 Y158.594 F5400
G1 X225.771 Y185.547 E1365.2706 F2400
G0 X225.205 Y185.547 F5400
G1 X198.818 Y159.159 E1367.1324 F2400
G0 X198.818 Y159.725 F5400
G1 X224.639 Y185.547 E1368.9543 F2400
G0 X224.074 Y185.547 F5400
G1 X198.818 Y160.291 E1370.7363 F2400
G0 X198.818 Y160.856 F5400
G1 X223.508 Y185.547 E1372.4784 F2400
G0 X222.942 Y185.547 F5400
G1 X198.818 Y161.422 E1374.1805 F2400
G0 X198.818 Y161.988 F5400
G1 X222.377 Y185.547 E1375.8428 F2400
G0 X221.811 Y185.547 F5400
G1 X198.818 Y162.553 E1377.4651 F2400
G0 X198.818 Y163.119 F5400
G1 X221.245 Y185.547 E1379.0475 F2400
G0 X220.680 Y185.547 F5400
G1 X198.818 Y163.685 E1380.5900 F2400
G0 X198.818 Y164.250 F5400
G1 X220.114 Y185.547 E1382.0925 F2400
G0 X219.548 Y185.547 F5400
G1 X198.818 Y164.816 E1383.5552 F2400
G0 X198.818 Y165.382 F5400
G1 X218.982 Y185.547 E1384.9779 F2400
G0 X218.417 Y185.547 F5400
G1 X198.818 Y165.947 E1386.3607 F2400
G0 X198.818 Y166.513 F5400
G1 X217.851 Y185.547 E1387.7036 F2400
G0 X217.285 Y185.547 F5400
G1 X198.818 Y167.079 E1389.0066 F2400
G0 X198.818 Y167.645 F5400
G1 X216.720 Y185.547 E1390.2697 F2400
G0 X216.154 Y185.547 F5400
G1 X198.818 Y168.210 E1391.4928 F2400
G0 X198.818 Y168.776 F5400
G1 X215.588 Y185.547 E1392.6760 F2400
G0 X215.023 Y185.547 F5400
G1 X198.818 Y169.342 E1393.8193 F2400
G0 X198.818 Y169.907 F5400
G1 X214.457 Y185.547 E1394.9227 F2400
G0 X213.891 Y185.547 F5400
G1 X198.818 Y170.473 E1395.9862 F2400
G0 X198.818 Y171.039 F5400
G1 X213.326 Y185.547 E1397.0098 F2400
G0 X212.760 Y185.547 F5400
G1 X198.818 Y171.604 E1397.9935 F2400
G0 X198.818 Y172.170 F5400
G1 X212.194 Y185.547 E1398.9374 F2400
G0 X211.628 Y185.547 F5400
G1 X198.818 Y172.736 E1399.8413 F2400
G0 X198.818 Y173.301 F5400
G1 X211.063 Y185.547 E1400.7053 F2400
G0 X210.497 Y185.547 F5400
G1 X198.818 Y173.867 E1401.5294 F2400
G0 X198.818 Y174.433 F5400
G1 X209.931 Y185.547 E1402.3136 F2400
G0 X209.366 Y185.547 F5400
G1 X198.818 Y174.998 E1403.0579 F2400
G0 X198.818 Y175.564 F5400
G1 X208.800 Y185.547 E1403.7622 F2400
G0 X208.234 Y185.547 F5400
G1 X198.818 Y176.130 E1404.4266 F2400
G0 X198.818 Y176.695 F5400
G1 X207.669 Y185.547 E1405.0511 F2400
G0 X207.103 Y185.547 F5400
G1 X198.818 Y177.261 E1405.6357 F2400
G0 X198.818 Y177.827 F5400
G1 X206.537 Y185.547 E1406.1804 F2400
G0 X205.972 Y185.547 F5400
G1 X198.818 Y178.393 E1406.6852 F2400
G0 X198.818 Y178.958 F5400
G1 X205.406 Y185.547 E1407.1500 F2400
G0 X204.840 Y185.547 F5400
G1 X198.818 Y179.524 E1407.5750 F2400
G0 X198.818 Y180.090 F5400
G1 X204.275 Y185.547 E1407.9600 F2400
G0 X203.709 Y185.547 F5400
G1 X198.818 Y180.655 E1408.3051 F2400
G0 X198.818 Y181.221 F5400
G1 X203.143 Y185.547 E1408.6102 F2400
G0 X202.578 Y185.547 F5400
G1 X198.818 Y181.787 E1408.8755 F2400
G0 X198.818 Y182.352 F5400
G1 X202.012 Y185.547 E1409.1008 F2400
G0 X201.446 Y185.547 F5400
G1 X198.818 Y182.918 E1409.2863 F2400
G0 X198.818 Y183.484 F5400
G1 X200.880 Y185.547 E1409.4318 F2400
G0 X200.315 Y185.547 F5400
G1 X198.817 Y184.049 E1409.5374 F2400
G0 X198.818 Y184.615 F5400
G1 X199.749 Y185.547 E1409.6030 F2400
G0 X199.183 Y185.547 F5400
G1 X198.818 Y185.181 E1409.6288 F2400
G0 X235.484 Y181.118 F5400
G1 X239.913 Y185.547 E1409.9413 F2400
G0 X240.479 Y185.547 F5400
G1 X236.050 Y181.118 E1410.2538 F2400
G0 X236.615 Y181.118 F5400
G1 X241.044 Y185.547 E1410.5663 F2400
G0 X241.347 Y185.283 F5400
G1 X237.181 Y181.118 E1410.8602 F2400
G0 X237.747 Y181.118 F5400
G1 X241.347 Y184.718 E1411.1143 F2400
G0 X241.347 Y184.152 F5400
G1 X238.312 Y181.118 E1411.3284 F2400
G0 X238.878 Y181.118 F5400
G1 X241.347 Y183.586 E1411.5026 F2400
G0 X241.347 Y183.021 F5400
G1 X239.444 Y181.118 E1411.6368 F2400
G0 X240.009 Y181.118 F5400
G1 X241.347 Y182.455 E1411.7312 F2400
G0 X241.347 Y181.889 F5400
G1 X240.575 Y181.118 E1411.7856 F2400
G0 X240.598 Y180.758 F5400
G0 X235.357 Y180.758
G0 X235.357 Y173.207
G0 X241.074 Y173.207
G0 X241.074 Y173.207
G0 X241.347 Y168.865
G0 X241.346 Y168.878
G1 X240.886 Y168.418 E1411.8181 F2400
G0 X240.320 Y168.418 F5400
G1 X241.347 Y169.444 E1411.8905 F2400
G0 X241.347 Y170.010 F5400
G1 X239.754 Y168.418 E1412.0028 F2400
G0 X239.189 Y168.418 F5400
G1 X241.347 Y170.576 E1412.1550 F2400
G0 X241.347 Y171.141 F5400
G1 X238.623 Y168.418 E1412.3472 F2400
G0 X238.057 Y168.418 F5400
G1 X241.347 Y171.707 E1412.5792 F2400
G0 X241.347 Y172.273 F5400
G1 X237.492 Y168.418 E1412.8512 F2400
G0 X236.926 Y168.418 F5400
G1 X241.347 Y172.838 E1413.1631 F2400
G0 X240.789 Y172.847 F5400
G1 X236.360 Y168.418 E1413.4756 F2400
G0 X235.795 Y168.418 F5400
G1 X240.224 Y172.847 E1413.7881 F2400
G0 X239.658 Y172.847 F5400
G1 X235.229 Y168.418 E1414.1006 F2400
G0 X235.285 Y143.018 F5400
G1 X239.714 Y147.447 E1414.4131 F2400
G0 X240.279 Y147.447 F5400
G1 X235.851 Y143.018 E1414.7256 F2400
G0 X236.416 Y143.018 F5400
G1 X240.845 Y147.447 E1415.0381 F2400
G0 X241.347 Y147.382 F5400
G1 X236.982 Y143.018 E1415.3461 F2400
G0 X237.548 Y143.018 F5400
G1 X241.347 Y146.817 E1415.6141 F2400
G0 X241.347 Y146.251 F5400
G1 X238.113 Y143.018 E1415.8423 F2400
G0 X238.679 Y143.018 F5400
G1 X241.347 Y145.685 E1416.0305 F2400
G0 X241.347 Y145.120 F5400
G1 X239.245 Y143.018 E1416.1788 F2400
G0 X239.810 Y143.018 F5400
G1 X241.347 Y144.554 E1416.2872 F2400
G0 X241.347 Y143.988 F5400
G1 X240.376 Y143.018 E1416.3557 F2400
G0 X240.942 Y143.018 F5400
G1 X241.347 Y143.423 E1416.3843 F2400
G0 X241.347 Y142.658 F5400
G0 X235.357 Y142.658
G0 X235.357 Y135.107
G0 X241.347 Y135.107
G0 X241.347 Y135.107
G0 X241.347 Y130.964
G0 X241.347 Y130.978
G1 X240.687 Y130.318 E1416.4308 F2400
G0 X240.121 Y130.318 F5400
G1 X241.347 Y131.543 E1416.5172 F2400
G0 X241.347 Y132.109 F5400
G1 X239.555 Y130.318 E1416.6436 F2400
G0 X238.990 Y130.318 F5400
G1 X241.347 Y132.675 E1416.8098 F2400
G0 X241.347 Y133.240 F5400
G1 X238.424 Y130.318 E1417.0160 F2400
G0 X237.858 Y130.318 F5400
G1 X241.347 Y133.806 E1417.2621 F2400
G0 X241.347 Y134.372 F5400
G1 X237.293 Y130.318 E1417.5481 F2400
G0 X236.727 Y130.318 F5400
G1 X241.156 Y134.747 E1417.8606 F2400
G0 X240.590 Y134.747 F5400
G1 X236.161 Y130.318 E1418.1731 F2400
G0 X235.595 Y130.318 F5400
G1 X240.024 Y134.747 E1418.4856 F2400
G0 X239.459 Y134.747 F5400
G1 X235.030 Y130.318 E1418.7981 F2400
G0 X236.188 Y135.107 F5400
G0 X235.357 Y135.107
G0 X235.357 Y142.658
G0 X238.015 Y142.658
G0 X238.015 Y142.658
G0 X239.260 Y147.807
G0 X239.260 Y147.807
G0 X235.357 Y147.807
G0 X235.357 Y155.358
G0 X241.086 Y155.358
G0 X241.086 Y155.358
G0 X241.350 Y156.446
G0 X241.347 Y156.433
G1 X240.631 Y155.718 E1418.8486 F2400
G0 X240.065 Y155.718 F5400
G1 X241.347 Y156.999 E1418.9391 F2400
G0 X241.347 Y157.565 F5400
G1 X239.499 Y155.718 E1419.0695 F2400
G0 X238.934 Y155.718 F5400
G1 X241.347 Y158.130 E1419.2397 F2400
G0 X241.347 Y158.696 F5400
G1 X238.368 Y155.718 E1419.4500 F2400
G0 X237.802 Y155.718 F5400
G1 X241.347 Y159.262 E1419.7000 F2400
G0 X241.347 Y159.828 F5400
G1 X237.237 Y155.718 E1419.9899 F2400
G0 X236.671 Y155.718 F5400
G1 X241.100 Y160.147 E1420.3024 F2400
G0 X240.534 Y160.147 F5400
G1 X236.105 Y155.718 E1420.6149 F2400
G0 X235.540 Y155.718 F5400
G1 X239.969 Y160.147 E1420.9274 F2400
G0 X239.403 Y160.147 F5400
G1 X186.118 Y106.861 E1424.6869 F2400
G0 X186.118 Y107.427 F5400
G1 X238.837 Y160.147 E1428.4065 F2400
G0 X238.272 Y160.147 F5400
G1 X186.118 Y107.993 E1432.0862 F2400
G0 X186.118 Y108.558 F5400
G1 X237.706 Y160.147 E1435.7260 F2400
G0 X237.140 Y160.147 F5400
G1 X186.118 Y109.124 E1439.3258 F2400
G0 X186.118 Y109.690 F5400
G1 X236.574 Y160.147 E1442.8859 F2400
G0 X236.009 Y160.147 F5400
G1 X186.118 Y110.255 E1446.4060 F2400
G0 X186.118 Y110.821 F5400
G1 X235.443 Y160.147 E1449.8862 F2400
G0 X234.997 Y160.266 F5400
G1 X185.999 Y111.268 E1453.3433 F2400
G0 X185.433 Y111.268 F5400
G1 X234.997 Y160.831 E1456.8402 F2400
G0 X234.997 Y161.397 F5400
G1 X184.867 Y111.268 E1460.3771 F2400
G0 X184.302 Y111.268 F5400
G1 X234.997 Y161.963 E1463.9539 F2400
G0 X234.997 Y162.528 F5400
G1 X183.736 Y111.268 E1467.5706 F2400
G0 X183.170 Y111.268 F5400
G1 X234.997 Y163.094 E1471.2272 F2400
G0 X234.997 Y163.660 F5400
G1 X182.605 Y111.268 E1474.9237 F2400
G0 X182.039 Y111.268 F5400
G1 X234.997 Y164.226 E1478.6602 F2400
G0 X234.997 Y164.791 F5400
G1 X181.473 Y111.268 E1482.4365 F2400
G0 X180.907 Y111.268 F5400
G1 X234.997 Y165.357 E1486.2528 F2400
G0 X234.997 Y165.923 F5400
G1 X180.342 Y111.268 E1490.1090 F2400
G0 X179.776 Y111.268 F5400
G1 X234.997 Y166.488 E1494.0051 F2400
G0 X234.997 Y167.054 F5400
G1 X179.210 Y111.268 E1497.9412 F2400
G0 X178.645 Y111.268 F5400
G1 X234.997 Y167.620 E1501.9171 F2400
G0 X234.997 Y168.185 F5400
G1 X178.079 Y111.268 E1505.9330 F2400
G0 X191.090 Y111.268 F5400
G1 X234.997 Y155.175 E1509.0309 F2400
G0 X234.997 Y154.609 F5400
G1 X191.655 Y111.268 E1512.0889 F2400
G0 X192.221 Y111.268 F5400
G1 X234.997 Y154.043 E1515.1069 F2400
G0 X234.997 Y153.478 F5400
G1 X192.787 Y111.268 E1518.0851 F2400
G0 X193.353 Y111.268 F5400
G1 X234.997 Y152.912 E1521.0233 F2400
G0 X234.997 Y152.346 F5400
G1 X193.918 Y111.268 E1523.9216 F2400
G0 X194.484 Y111.268 F5400
G1 X234.997 Y151.781 E1526.7800 F2400
G0 X234.997 Y151.215 F5400
G1 X195.050 Y111.268 E1529.5985 F2400
G0 X195.615 Y111.268 F5400
G1 X234.997 Y150.649 E1532.3771 F2400
G0 X234.997 Y150.083 F5400
G1 X196.181 Y111.268 E1535.1157 F2400
G0 X196.747 Y111.268 F5400
G1 X234.997 Y149.518 E1537.8145 F2400
G0 X234.997 Y148.952 F5400
G1 X197.312 Y111.268 E1540.4733 F2400
G0 X197.878 Y111.268 F5400
G1 X234.997 Y148.386 E1543.0922 F2400
G0 X234.997 Y147.821 F5400
G1 X198.444 Y111.268 E1545.6711 F2400
G0 X198.818 Y111.076 F5400
G1 X235.188 Y147.447 E1548.2373 F2400
G0 X235.754 Y147.447 F5400
G1 X198.818 Y110.510 E1550.8434 F2400
G0 X198.818 Y109.945 F5400
G1 X236.320 Y147.447 E1553.4894 F2400
G0 X236.885 Y147.447 F5400
G1 X198.818 Y109.379 E1556.1753 F2400
G0 X198.818 Y108.813 F5400
G1 X237.451 Y147.447 E1558.9011 F2400
G0 X238.017 Y147.447 F5400
G1 X198.818 Y108.248 E1561.6669 F2400
G0 X198.818 Y107.682 F5400
G1 X238.582 Y147.447 E1564.4725 F2400
G0 X239.148 Y147.447 F5400
G1 X198.818 Y107.116 E1567.3181 F2400
G0 X198.818 Y106.550 F5400
G1 X203.247 Y110.980 E1567.6306 F2400
G0 X203.247 Y110.414 F5400
G1 X198.818 Y105.985 E1567.9431 F2400
G0 X198.818 Y105.419 F5400
G1 X203.247 Y109.848 E1568.2556 F2400
G0 X203.247 Y109.282 F5400
G1 X198.882 Y104.918 E1568.5636 F2400
G0 X199.447 Y104.918 F5400
G1 X203.247 Y108.717 E1568.8317 F2400
G0 X203.247 Y108.151 F5400
G1 X200.013 Y104.918 E1569.0598 F2400
G0 X200.579 Y104.918 F5400
G1 X203.247 Y107.585 E1569.2480 F2400
G0 X203.247 Y107.020 F5400
G1 X201.145 Y104.918 E1569.3964 F2400
G0 X201.710 Y104.918 F5400
G1 X203.247 Y106.454 E1569.5048 F2400
G0 X203.247 Y105.888 F5400
G1 X202.276 Y104.918 E1569.5732 F2400
G0 X202.842 Y104.918 F5400
G1 X203.247 Y105.323 E1569.6018 F2400
G0 X203.607 Y105.491 F5400
G0 X203.607 Y110.908
G0 X211.158 Y110.908
G0 X211.158 Y109.016
G0 X211.158 Y109.016
G0 X215.992 Y111.273
G0 X215.980 Y111.268
G1 X234.997 Y130.284 E1570.9435 F2400
G0 X234.997 Y129.719 F5400
G1 X216.546 Y111.268 E1572.2452 F2400
G0 X217.111 Y111.268 F5400
G1 X234.997 Y129.153 E1573.5071 F2400
G0 X234.997 Y128.587 F5400
G1 X217.677 Y111.268 E1574.7291 F2400
G0 X218.243 Y111.268 F5400
G1 X234.997 Y128.022 E1575.9113 F2400
G0 X234.997 Y127.456 F5400
G1 X218.808 Y111.268 E1577.0535 F2400
G0 X219.374 Y111.268 F5400
G1 X234.997 Y126.890 E1578.1558 F2400
G0 X234.997 Y126.325 F5400
G1 X219.940 Y111.268 E1579.2181 F2400
G0 X220.505 Y111.268 F5400
G1 X234.997 Y125.759 E1580.2406 F2400
G0 X234.997 Y125.193 F5400
G1 X221.071 Y111.268 E1581.2231 F2400
G0 X221.637 Y111.268 F5400
G1 X234.997 Y124.628 E1582.1658 F2400
G0 X234.997 Y124.062 F5400
G1 X222.203 Y111.268 E1583.0685 F2400
G0 X222.768 Y111.268 F5400
G1 X234.997 Y123.496 E1583.9313 F2400
G0 X234.997 Y122.931 F5400
G1 X223.334 Y111.268 E1584.7542 F2400
G0 X223.900 Y111.268 F5400
G1 X234.997 Y122.365 E1585.5371 F2400
G0 X235.244 Y122.047 F5400
G1 X224.218 Y111.020 E1586.3151 F2400
G0 X224.218 Y110.454 F5400
G1 X235.810 Y122.047 E1587.1329 F2400
G0 X236.375 Y122.047 F5400
G1 X224.218 Y109.889 E1587.9907 F2400
G0 X224.218 Y109.323 F5400
G1 X236.941 Y122.047 E1588.8884 F2400
G0 X237.507 Y122.047 F5400
G1 X224.218 Y108.757 E1589.8260 F2400
G0 X224.218 Y108.192 F5400
G1 X238.073 Y122.047 E1590.8036 F2400
G0 X238.638 Y122.047 F5400
G1 X224.218 Y107.626 E1591.8210 F2400
G0 X224.218 Y107.060 F5400
G1 X239.204 Y122.047 E1592.8784 F2400
G0 X239.770 Y122.047 F5400
G1 X235.341 Y117.618 E1593.1909 F2400
G0 X235.906 Y117.618 F5400
G1 X240.335 Y122.047 E1593.5034 F2400
G0 X240.901 Y122.047 F5400
G1 X236.472 Y117.618 E1593.8159 F2400
G0 X237.038 Y117.618 F5400
G1 X241.347 Y121.927 E1594.1199 F2400
G0 X241.347 Y121.361 F5400
G1 X237.603 Y117.618 E1594.3839 F2400
G0 X238.169 Y117.618 F5400
G1 X241.347 Y120.795 E1594.6082 F2400
G0 X241.347 Y120.230 F5400
G1 X238.735 Y117.618 E1594.7925 F2400
G0 X239.301 Y117.618 F5400
G1 X241.347 Y119.664 E1594.9369 F2400
G0 X241.347 Y119.098 F5400
G1 X239.866 Y117.618 E1595.0414 F2400
G0 X240.432 Y117.618 F5400
G1 X241.347 Y118.532 E1595.1060 F2400
G0 X241.347 Y117.967 F5400
G1 X240.998 Y117.618 E1595.1306 F2400
G0 F3000 E1594.1306
G0 X239.078 Y91.261 F5400
G0 X238.886 Y88.625
G0 X238.119 Y78.083
G0 X237.927 Y75.447
G0 X237.543 Y70.175
G0 X237.351 Y67.540
G0 X237.159 Y64.904
G0 X236.967 Y62.268
G0 X236.199 Y51.726
G0 F3000 E1595.1306
G1 X198.932 Y14.458 E1597.7600 F2400
;segType:Perimeter
G0 X199.260 Y14.438 F5400
G1 X199.260 Y13.638 E1597.7999 F1439
G1 X199.260 Y7.348 E1598.1138
G1 X205.210 Y7.348 E1598.4106
G1 X205.210 Y13.698 E1598.7274
G1 X211.960 Y13.698 E1599.0642
G1 X211.960 Y7.348 E1599.3810
G1 X217.909 Y7.348 E1599.6777
G1 X217.909 Y13.698 E1599.9945
G1 X224.660 Y13.698 E1600.3313
G1 X224.660 Y7.348 E1600.6481
G1 X230.609 Y7.348 E1600.9448
G1 X230.609 Y13.698 E1601.2616
G1 X236.960 Y13.698 E1601.5784
G1 X236.960 Y20.048 E1601.8951
G1 X243.310 Y20.048 E1602.2119
G1 X243.310 Y25.997 E1602.5088
G1 X236.960 Y25.997 E1602.8256
G1 X236.960 Y32.748 E1603.1624
G1 X243.310 Y32.748 E1603.4791
G1 X243.310 Y38.697 E1603.7759
G1 X236.960 Y38.697 E1604.0927
G1 X236.960 Y45.448 E1604.4294
G1 X243.310 Y45.448 E1604.7462
G1 X243.310 Y51.397 E1605.0430
G1 X236.960 Y51.397 E1605.3597
G1 X236.960 Y58.148 E1605.6965
G1 X243.310 Y58.148 E1606.0133
G1 X243.310 Y64.097 E1606.3101
G1 X236.960 Y64.097 E1606.6268
G1 X236.960 Y70.848 E1606.9636
G1 X243.310 Y70.848 E1607.2804
G1 X243.310 Y76.797 E1607.5771
G1 X236.960 Y76.797 E1607.8939
G1 X236.960 Y83.548 E1608.2307
G1 X243.310 Y83.548 E1608.5475
G1 X243.310 Y89.497 E1608.8444
G1 X199.260 Y89.497 E1611.0420
G1 X199.260 Y51.397 E1612.9429
G1 X59.160 Y51.397 E1619.9325
G1 X59.160 Y89.497 E1621.8334
G1 X15.110 Y89.497 E1624.0310
G1 X15.110 Y83.548 E1624.3279
G1 X21.460 Y83.548 E1624.6447
G1 X21.460 Y76.797 E1624.9814
G1 X15.110 Y76.797 E1625.2982
G1 X15.110 Y70.848 E1625.5950
G1 X21.460 Y70.848 E1625.9117
G1 X21.460 Y64.097 E1626.2485
G1 X15.110 Y64.097 E1626.5653
G1 X15.110 Y58.148 E1626.8621
G1 X21.460 Y58.148 E1627.1788
G1 X21.460 Y51.397 E1627.5156
G1 X15.110 Y51.397 E1627.8324
G1 X15.110 Y45.448 E1628.1292
G1 X21.460 Y45.448 E1628.4459
G1 X21.460 Y38.697 E1628.7827
G1 X15.110 Y38.697 E1629.0995
G1 X15.110 Y32.748 E1629.3962
G1 X21.460 Y32.748 E1629.7130
G1 X21.460 Y25.997 E1630.0498
G1 X15.110 Y25.997 E1630.3666
G1 X15.110 Y20.048 E1630.6635
G1 X21.460 Y20.048 E1630.9802
G1 X21.460 Y13.698 E1631.2970
G1 X34.160 Y13.698 E1631.9307
G1 X34.160 Y7.348 E1632.2474
G1 X40.109 Y7.348 E1632.5442
G1 X40.109 Y13.698 E1632.8610
G1 X46.860 Y13.698 E1633.1978
G1 X46.860 Y7.348 E1633.5145
G1 X52.809 Y7.348 E1633.8113
G1 X52.809 Y13.698 E1634.1281
G1 X59.560 Y13.698 E1634.4648
G1 X59.560 Y7.348 E1634.7816
G1 X65.510 Y7.348 E1635.0784
G1 X65.510 Y13.698 E1635.3951
G1 X72.260 Y13.698 E1635.7319
G1 X72.260 Y7.348 E1636.0487
G1 X78.209 Y7.348 E1636.3455
G1 X78.209 Y13.698 E1636.6622
G1 X84.960 Y13.698 E1636.9990
G1 X84.960 Y7.348 E1637.3158
G1 X90.910 Y7.348 E1637.6127
G1 X90.910 Y13.698 E1637.9294
G1 X97.660 Y13.698 E1638.2662
G1 X97.660 Y7.348 E1638.5830
G1 X103.609 Y7.348 E1638.8798
G1 X103.609 Y13.698 E1639.1965
G1 X148.460 Y13.698 E1641.4342
G1 X148.460 Y7.348 E1641.7510
G1 X154.410 Y7.348 E1642.0477
G1 X154.410 Y13.698 E1642.3645
G1 X161.160 Y13.698 E1642.7013
G1 X161.160 Y7.348 E1643.0181
G1 X167.109 Y7.348 E1643.3148
G1 X167.109 Y13.698 E1643.6316
G1 X173.860 Y13.698 E1643.9684
G1 X173.860 Y7.348 E1644.2852
G1 X179.810 Y7.348 E1644.5819
G1 X179.810 Y13.698 E1644.8987
G1 X186.560 Y13.698 E1645.2355
G1 X186.560 Y7.348 E1645.5522
G1 X192.509 Y7.348 E1645.8490
G1 X192.509 Y13.698 E1646.1658
G0 X199.200 Y13.698 F5400
G0 X199.200 Y13.698
G0 X199.260 Y13.698
G0 X199.260 Y13.555
G0 X199.260 Y13.555
G0 X199.665 Y12.586
;segType:Loop
G0 X199.660 Y12.598
G1 X199.660 Y7.748 E1646.4077 F2400
G1 X204.810 Y7.748 E1646.6647
G1 X204.810 Y14.098 E1646.9814
G1 X212.360 Y14.098 E1647.3582
G1 X212.360 Y7.748 E1647.6749
G1 X217.509 Y7.748 E1647.9318
G1 X217.509 Y14.098 E1648.2485
G1 X225.060 Y14.098 E1648.6252
G1 X225.060 Y7.748 E1648.9420
G1 X230.209 Y7.748 E1649.1989
G1 X230.209 Y14.098 E1649.5156
G1 X236.560 Y14.098 E1649.8324
G1 X236.560 Y20.448 E1650.1492
G1 X242.909 Y20.448 E1650.4659
G1 X242.909 Y25.597 E1650.7229
G1 X236.560 Y25.597 E1651.0397
G1 X236.560 Y33.148 E1651.4164
G1 X242.909 Y33.148 E1651.7332
G1 X242.909 Y38.297 E1651.9900
G1 X236.560 Y38.297 E1652.3068
G1 X236.560 Y45.848 E1652.6835
G1 X242.909 Y45.848 E1653.0002
G1 X242.909 Y50.997 E1653.2571
G1 X236.560 Y50.997 E1653.5739
G1 X236.560 Y58.548 E1653.9506
G1 X242.909 Y58.548 E1654.2673
G1 X242.909 Y63.697 E1654.5242
G1 X236.560 Y63.697 E1654.8409
G1 X236.560 Y71.248 E1655.2177
G1 X242.909 Y71.248 E1655.5344
G1 X242.909 Y76.397 E1655.7913
G1 X236.560 Y76.397 E1656.1080
G1 X236.560 Y83.948 E1656.4847
G1 X242.909 Y83.948 E1656.8015
G1 X242.909 Y89.097 E1657.0585
G1 X199.660 Y89.097 E1659.2162
G1 X199.660 Y50.997 E1661.1171
G1 X58.760 Y50.997 E1668.1466
G1 X58.760 Y89.097 E1670.0475
G1 X15.510 Y89.097 E1672.2052
G1 X15.510 Y83.948 E1672.4622
G1 X21.860 Y83.948 E1672.7789
G1 X21.860 Y76.397 E1673.1556
G1 X15.510 Y76.397 E1673.4724
G1 X15.510 Y71.248 E1673.7292
G1 X21.860 Y71.248 E1674.0460
G1 X21.860 Y63.697 E1674.4227
G1 X15.510 Y63.697 E1674.7395
G1 X15.510 Y58.548 E1674.9963
G1 X21.860 Y58.548 E1675.3131
G1 X21.860 Y50.997 E1675.6898
G1 X15.510 Y50.997 E1676.0066
G1 X15.510 Y45.848 E1676.2634
G1 X21.860 Y45.848 E1676.5802
G1 X21.860 Y38.297 E1676.9569
G1 X15.510 Y38.297 E1677.2737
G1 X15.510 Y33.148 E1677.5305
G1 X21.860 Y33.148 E1677.8472
G1 X21.860 Y25.597 E1678.2240
G1 X15.510 Y25.597 E1678.5408
G1 X15.510 Y20.448 E1678.7978
G1 X21.860 Y20.448 E1679.1146
G1 X21.860 Y14.098 E1679.4312
G1 X34.560 Y14.098 E1680.0650
G1 X34.560 Y7.748 E1680.3818
G1 X39.709 Y7.748 E1680.6386
G1 X39.709 Y14.098 E1680.9554
G1 X47.260 Y14.098 E1681.3320
G1 X47.260 Y7.748 E1681.6488
G1 X52.409 Y7.748 E1681.9056
G1 X52.409 Y14.098 E1682.2224
G1 X59.960 Y14.098 E1682.5992
G1 X59.960 Y7.748 E1682.9158
G1 X65.110 Y7.748 E1683.1728
G1 X65.110 Y14.098 E1683.4896
G1 X72.660 Y14.098 E1683.8662
G1 X72.660 Y7.748 E1684.1830
G1 X77.809 Y7.748 E1684.4398
G1 X77.809 Y14.098 E1684.7566
G1 X85.360 Y14.098 E1685.1334
G1 X85.360 Y7.748 E1685.4500
G1 X90.510 Y7.748 E1685.7070
G1 X90.510 Y14.098 E1686.0238
G1 X98.060 Y14.098 E1686.4006
G1 X98.060 Y7.748 E1686.7172
G1 X103.209 Y7.748 E1686.9742
G1 X103.209 Y14.098 E1687.2908
G1 X148.860 Y14.098 E1689.5684
G1 X148.860 Y7.748 E1689.8852
G1 X154.009 Y7.748 E1690.1420
G1 X154.009 Y14.098 E1690.4588
G1 X161.560 Y14.098 E1690.8356
G1 X161.560 Y7.748 E1691.1524
G1 X166.709 Y7.748 E1691.4092
G1 X166.709 Y14.098 E1691.7260
G1 X174.260 Y14.098 E1692.1026
G1 X174.260 Y7.748 E1692.4194
G1 X179.410 Y7.748 E1692.6762
G1 X179.410 Y14.098 E1692.9930
G1 X186.960 Y14.098 E1693.3698
G1 X186.960 Y7.748 E1693.6866
G1 X192.109 Y7.748 E1693.9434
G1 X192.109 Y14.098 E1694.2602
G1 X199.660 Y14.098 E1694.6368
G1 X199.660 Y12.798 E1694.7016
G0 X199.660 Y12.798 F5400
G0 X199.660 Y14.098
G0 X198.647 Y14.098
G0 X198.647 Y14.098
G0 X198.358 Y14.469
;segType:HShell
G0 X198.366 Y14.458
G1 X236.199 Y52.291 E1697.3710 F2400
G0 X236.199 Y52.857 F5400
G1 X197.801 Y14.458 E1700.0802 F2400
G0 X197.235 Y14.458 F5400
G1 X236.199 Y53.423 E1702.8294 F2400
G0 X236.199 Y53.988 F5400
G1 X196.669 Y14.458 E1705.6184 F2400
G0 X196.104 Y14.458 F5400
G1 X236.199 Y54.554 E1708.4474 F2400
G0 X236.199 Y55.120 F5400
G1 X195.538 Y14.458 E1711.3162 F2400
G0 X194.972 Y14.458 F5400
G1 X236.199 Y55.685 E1714.2250 F2400
G0 X236.199 Y56.251 F5400
G1 X194.406 Y14.458 E1717.1738 F2400
G0 X193.841 Y14.458 F5400
G1 X236.199 Y56.817 E1720.1624 F2400
G0 X236.199 Y57.382 F5400
G1 X193.275 Y14.458 E1723.1910 F2400
G0 X192.709 Y14.458 F5400
G1 X236.199 Y57.948 E1726.2596 F2400
G0 X236.199 Y58.514 F5400
G1 X192.144 Y14.458 E1729.3680 F2400
G0 X191.749 Y8.407 F5400
G1 X191.451 Y8.108 E1729.3890 F2400
G0 X190.885 Y8.108 F5400
G1 X191.749 Y8.973 E1729.4500 F2400
G0 X191.749 Y9.538 F5400
G1 X190.319 Y8.108 E1729.5510 F2400
G0 X189.754 Y8.108 F5400
G1 X191.749 Y10.104 E1729.6918 F2400
G0 X191.749 Y10.670 F5400
G1 X189.188 Y8.108 E1729.8726 F2400
G0 X188.622 Y8.108 F5400
G1 X191.749 Y11.235 E1730.0932 F2400
G0 X191.749 Y11.801 F5400
G1 X188.057 Y8.108 E1730.3536 F2400
G0 X187.491 Y8.108 F5400
G1 X191.749 Y12.367 E1730.6540 F2400
G0 X191.749 Y12.932 F5400
G1 X187.320 Y8.504 E1730.9666 F2400
G0 X187.320 Y9.069 F5400
G1 X191.749 Y13.498 E1731.2790 F2400
G0 X191.749 Y14.064 F5400
G1 X187.320 Y9.635 E1731.5916 F2400
G0 X200.020 Y51.185 F5400
G1 X237.573 Y88.737 E1734.2410 F2400
G0 X237.007 Y88.737 F5400
G1 X200.020 Y51.750 E1736.8508 F2400
G0 X200.020 Y52.316 F5400
G1 X236.441 Y88.737 E1739.4204 F2400
G0 X235.876 Y88.737 F5400
G1 X200.020 Y52.882 E1741.9502 F2400
G0 X200.020 Y53.447 F5400
G1 X235.310 Y88.737 E1744.4400 F2400
G0 X234.744 Y88.737 F5400
G1 X200.020 Y54.013 E1746.8900 F2400
G0 X200.020 Y54.579 F5400
G1 X234.179 Y88.737 E1749.3000 F2400
G0 X233.613 Y88.737 F5400
G1 X200.020 Y55.145 E1751.6702 F2400
G0 X200.020 Y55.710 F5400
G1 X233.047 Y88.737 E1754.0004 F2400
G0 X232.482 Y88.737 F5400
G1 X200.020 Y56.276 E1756.2906 F2400
G0 X200.020 Y56.842 F5400
G1 X231.916 Y88.737 E1758.5410 F2400
G0 X231.350 Y88.737 F5400
G1 X200.020 Y57.407 E1760.7514 F2400
G0 X200.020 Y57.973 F5400
G1 X230.785 Y88.737 E1762.9220 F2400
G0 X230.219 Y88.737 F5400
G1 X200.020 Y58.539 E1765.0526 F2400
G0 X200.020 Y59.104 F5400
G1 X229.653 Y88.737 E1767.1434 F2400
G0 X229.087 Y88.737 F5400
G1 X200.020 Y59.670 E1769.1940 F2400
G0 X200.020 Y60.236 F5400
G1 X228.522 Y88.737 E1771.2050 F2400
G0 X227.956 Y88.737 F5400
G1 X200.020 Y60.801 E1773.1762 F2400
G0 X200.020 Y61.367 F5400
G1 X227.390 Y88.737 E1775.1072 F2400
G0 X226.825 Y88.737 F5400
G1 X200.020 Y61.933 E1776.9986 F2400
G0 X200.020 Y62.498 F5400
G1 X226.259 Y88.737 E1778.8498 F2400
G0 X225.693 Y88.737 F5400
G1 X200.020 Y63.064 E1780.6612 F2400
G0 X200.020 Y63.630 F5400
G1 X225.128 Y88.737 E1782.4328 F2400
G0 X224.562 Y88.737 F5400
G1 X200.020 Y64.196 E1784.1644 F2400
G0 X200.020 Y64.761 F5400
G1 X223.996 Y88.737 E1785.8560 F2400
G0 X223.431 Y88.737 F5400
G1 X200.020 Y65.327 E1787.5076 F2400
G0 X200.020 Y65.893 F5400
G1 X222.865 Y88.737 E1789.1196 F2400
G0 X222.299 Y88.737 F5400
G1 X200.020 Y66.458 E1790.6914 F2400
G0 X200.020 Y67.024 F5400
G1 X221.734 Y88.737 E1792.2234 F2400
G0 X221.168 Y88.737 F5400
G1 X200.020 Y67.590 E1793.7154 F2400
G0 X200.020 Y68.155 F5400
G1 X220.602 Y88.737 E1795.1676 F2400
G0 X220.036 Y88.737 F5400
G1 X200.020 Y68.721 E1796.5798 F2400
G0 X200.020 Y69.287 F5400
G1 X219.471 Y88.737 E1797.9522 F2400
G0 X218.905 Y88.737 F5400
G1 X200.020 Y69.852 E1799.2846 F2400
G0 X200.020 Y70.418 F5400
G1 X218.339 Y88.737 E1800.5770 F2400
G0 X217.774 Y88.737 F5400
G1 X200.020 Y70.984 E1801.8296 F2400
G0 X200.020 Y71.549 F5400
G1 X217.208 Y88.737 E1803.0422 F2400
G0 X216.642 Y88.737 F5400
G1 X200.020 Y72.115 E1804.2150 F2400
G0 X200.020 Y72.681 F5400
G1 X216.077 Y88.737 E1805.3478 F2400
G0 X215.511 Y88.737 F5400
G1 X200.020 Y73.246 E1806.4406 F2400
G0 X200.020 Y73.812 F5400
G1 X214.945 Y88.737 E1807.4936 F2400
G0 X214.380 Y88.737 F5400
G1 X200.020 Y74.378 E1808.5068 F2400
G0 X200.020 Y74.944 F5400
G1 X213.814 Y88.737 E1809.4802 F2400
G0 X213.248 Y88.737 F5400
G1 X200.020 Y75.509 E1810.4134 F2400
G0 X200.020 Y76.075 F5400
G1 X212.683 Y88.737 E1811.3068 F2400
G0 X212.117 Y88.737 F5400
G1 X200.020 Y76.641 E1812.1604 F2400
G0 X200.020 Y77.206 F5400
G1 X211.551 Y88.737 E1812.9740 F2400
G0 X210.986 Y88.737 F5400
G1 X200.020 Y77.772 E1813.7476 F2400
G0 X200.020 Y78.338 F5400
G1 X210.420 Y88.737 E1814.4814 F2400
G0 X209.854 Y88.737 F5400
G1 X200.020 Y78.903 E1815.1752 F2400
G0 X200.020 Y79.469 F5400
G1 X209.288 Y88.737 E1815.8292 F2400
G0 X208.723 Y88.737 F5400
G1 X200.020 Y80.035 E1816.4432 F2400
G0 X200.020 Y80.600 F5400
G1 X208.157 Y88.737 E1817.0174 F2400
G0 X207.591 Y88.737 F5400
G1 X200.020 Y81.166 E1817.5516 F2400
G0 X200.020 Y81.732 F5400
G1 X207.026 Y88.737 E1818.0458 F2400
G0 X206.460 Y88.737 F5400
G1 X200.020 Y82.297 E1818.5002 F2400
G0 X200.020 Y82.863 F5400
G1 X205.894 Y88.737 E1818.9146 F2400
G0 X205.329 Y88.737 F5400
G1 X200.020 Y83.429 E1819.2890 F2400
G0 X200.020 Y83.995 F5400
G1 X204.763 Y88.737 E1819.6236 F2400
G0 X204.197 Y88.737 F5400
G1 X200.020 Y84.560 E1819.9184 F2400
G0 X200.020 Y85.126 F5400
G1 X203.632 Y88.737 E1820.1730 F2400
G0 X203.066 Y88.737 F5400
G1 X200.020 Y85.692 E1820.3880 F2400
G0 X200.020 Y86.257 F5400
G1 X202.500 Y88.737 E1820.5628 F2400
G0 X201.935 Y88.737 F5400
G1 X200.020 Y86.823 E1820.6978 F2400
G0 X200.020 Y87.389 F5400
G1 X201.369 Y88.737 E1820.7930 F2400
G0 X200.803 Y88.737 F5400
G1 X200.020 Y87.954 E1820.8482 F2400
G0 X236.283 Y71.608 F5400
G1 X240.712 Y76.037 E1821.1606 F2400
G0 X241.277 Y76.037 F5400
G1 X236.849 Y71.608 E1821.4732 F2400
G0 X237.414 Y71.608 F5400
G1 X241.843 Y76.037 E1821.7856 F2400
G0 X242.409 Y76.037 F5400
G1 X237.980 Y71.608 E1822.0982 F2400
G0 X238.546 Y71.608 F5400
G1 X242.549 Y75.612 E1822.3806 F2400
G0 X242.549 Y75.046 F5400
G1 X239.111 Y71.608 E1822.6232 F2400
G0 X239.677 Y71.608 F5400
G1 X242.549 Y74.480 E1822.8258 F2400
G0 X242.549 Y73.915 F5400
G1 X240.243 Y71.608 E1822.9886 F2400
G0 X240.808 Y71.608 F5400
G1 X242.549 Y73.349 E1823.1114 F2400
G0 X242.549 Y72.783 F5400
G1 X241.374 Y71.608 E1823.1942 F2400
G0 X241.940 Y71.608 F5400
G1 X242.549 Y72.218 E1823.2372 F2400
G0 X242.427 Y76.397 F5400
G0 X236.560 Y76.397
G0 X236.560 Y83.948
G0 X242.205 Y83.948
G0 X242.205 Y83.948
G0 X242.194 Y84.321
G0 X242.195 Y84.308
G1 X242.549 Y84.663 E1823.2622 F2400
G0 X242.549 Y85.228 F5400
G1 X241.629 Y84.308 E1823.3272 F2400
G0 X241.063 Y84.308 F5400
G1 X242.549 Y85.794 E1823.4320 F2400
G0 X242.549 Y86.360 F5400
G1 X240.498 Y84.308 E1823.5768 F2400
G0 X239.932 Y84.308 F5400
G1 X242.549 Y86.926 E1823.7614 F2400
G0 X242.549 Y87.491 F5400
G1 X239.366 Y84.308 E1823.9860 F2400
G0 X238.801 Y84.308 F5400
G1 X242.549 Y88.057 E1824.2506 F2400
G0 X242.549 Y88.623 F5400
G1 X238.235 Y84.308 E1824.5550 F2400
G0 X237.669 Y84.308 F5400
G1 X242.098 Y88.737 E1824.8676 F2400
G0 X241.533 Y88.737 F5400
G1 X237.103 Y84.308 E1825.1800 F2400
G0 X236.538 Y84.308 F5400
G1 X240.967 Y88.737 E1825.4926 F2400
G0 X240.401 Y88.737 F5400
G1 X161.920 Y10.256 E1831.0298 F2400
G0 X161.920 Y10.822 F5400
G1 X239.835 Y88.737 E1836.5270 F2400
G0 X239.270 Y88.737 F5400
G1 X161.920 Y11.388 E1841.9844 F2400
G0 X161.920 Y11.953 F5400
G1 X238.704 Y88.737 E1847.4020 F2400
G0 X238.138 Y88.737 F5400
G1 X161.920 Y12.519 E1852.7796 F2400
G0 X161.920 Y13.085 F5400
G1 X199.473 Y50.637 E1855.4290 F2400
G0 X198.907 Y50.637 F5400
G1 X161.920 Y13.650 E1858.0386 F2400
G0 X161.920 Y14.216 F5400
G1 X198.341 Y50.637 E1860.6084 F2400
G0 X197.776 Y50.637 F5400
G1 X161.597 Y14.458 E1863.1610 F2400
G0 X161.031 Y14.458 F5400
G1 X197.210 Y50.637 E1865.7136 F2400
G0 X196.644 Y50.637 F5400
G1 X160.465 Y14.458 E1868.2662 F2400
G0 X159.900 Y14.458 F5400
G1 X196.078 Y50.637 E1870.8188 F2400
G0 X195.513 Y50.637 F5400
G1 X159.334 Y14.458 E1873.3714 F2400
G0 X158.768 Y14.458 F5400
G1 X194.947 Y50.637 E1875.9240 F2400
G0 X194.381 Y50.637 F5400
G1 X158.203 Y14.458 E1878.4766 F2400
G0 X157.637 Y14.458 F5400
G1 X193.816 Y50.637 E1881.0292 F2400
G0 X193.250 Y50.637 F5400
G1 X157.071 Y14.458 E1883.5820 F2400
G0 X156.506 Y14.458 F5400
G1 X192.684 Y50.637 E1886.1346 F2400
G0 X192.119 Y50.637 F5400
G1 X155.940 Y14.458 E1888.6872 F2400
G0 X155.374 Y14.458 F5400
G1 X191.553 Y50.637 E1891.2398 F2400
G0 X190.987 Y50.637 F5400
G1 X154.808 Y14.458 E1893.7924 F2400
G0 X154.243 Y14.458 F5400
G1 X190.422 Y50.637 E1896.3450 F2400
G0 X189.856 Y50.637 F5400
G1 X153.677 Y14.458 E1898.8976 F2400
G0 X148.860 Y13.865 F5400
G0 X148.860 Y14.098
G0 X103.209 Y14.098
G0 X103.209 Y8.248
G0 X103.209 Y8.248
G0 X102.059 Y8.107
G0 X102.072 Y8.108
G1 X102.849 Y8.885 E1898.9524 F2400
G0 X102.849 Y9.451 F5400
G1 X101.507 Y8.108 E1899.0472 F2400
G0 X100.941 Y8.108 F5400
G1 X102.849 Y10.017 E1899.1818 F2400
G0 X102.849 Y10.582 F5400
G1 X100.375 Y8.108 E1899.3564 F2400
G0 X99.810 Y8.108 F5400
G1 X102.849 Y11.148 E1899.5708 F2400
G0 X102.849 Y11.714 F5400
G1 X99.244 Y8.108 E1899.8252 F2400
G0 X98.678 Y8.108 F5400
G1 X102.849 Y12.279 E1900.1196 F2400
G0 X102.849 Y12.845 F5400
G1 X98.420 Y8.416 E1900.4320 F2400
G0 X98.420 Y8.982 F5400
G1 X102.849 Y13.411 E1900.7446 F2400
G0 X102.849 Y13.976 F5400
G1 X98.420 Y9.548 E1901.0570 F2400
G0 X98.060 Y9.508 F5400
G0 X98.060 Y14.098
G0 X90.510 Y14.098
G0 X90.510 Y8.670
G0 X90.510 Y8.670
G0 X90.136 Y8.629
G0 X90.149 Y8.630
G1 X89.627 Y8.108 E1901.0938 F2400
G0 X89.062 Y8.108 F5400
G1 X90.149 Y9.196 E1901.1706 F2400
G0 X90.149 Y9.762 F5400
G1 X88.496 Y8.108 E1901.2874 F2400
G0 X87.930 Y8.108 F5400
G1 X90.149 Y10.327 E1901.4440 F2400
G0 X90.149 Y10.893 F5400
G1 X87.365 Y8.108 E1901.6406 F2400
G0 X86.799 Y8.108 F5400
G1 X90.149 Y11.459 E1901.8770 F2400
G0 X90.149 Y12.024 F5400
G1 X86.233 Y8.108 E1902.1534 F2400
G0 X85.720 Y8.161 F5400
G1 X90.149 Y12.590 E1902.4658 F2400
G0 X90.149 Y13.156 F5400
G1 X85.720 Y8.727 E1902.7784 F2400
G0 X85.720 Y9.292 F5400
G1 X90.149 Y13.722 E1903.0908 F2400
G0 X90.149 Y14.287 F5400
G1 X85.720 Y9.858 E1903.4034 F2400
G0 X85.720 Y10.424 F5400
G1 X125.933 Y50.637 E1906.2406 F2400
G0 X125.368 Y50.637 F5400
G1 X85.720 Y10.990 E1909.0380 F2400
G0 X85.720 Y11.555 F5400
G1 X124.802 Y50.637 E1911.7954 F2400
G0 X124.236 Y50.637 F5400
G1 X85.720 Y12.121 E1914.5130 F2400
G0 X85.720 Y12.687 F5400
G1 X123.671 Y50.637 E1917.1906 F2400
G0 X123.105 Y50.637 F5400
G1 X85.720 Y13.252 E1919.8282 F2400
G0 X85.720 Y13.818 F5400
G1 X122.539 Y50.637 E1922.4260 F2400
G0 X121.974 Y50.637 F5400
G1 X85.720 Y14.384 E1924.9838 F2400
G0 X85.229 Y14.458 F5400
G1 X121.408 Y50.637 E1927.5364 F2400
G0 X120.842 Y50.637 F5400
G1 X84.663 Y14.458 E1930.0892 F2400
G0 X84.098 Y14.458 F5400
G1 X120.277 Y50.637 E1932.6418 F2400
G0 X119.711 Y50.637 F5400
G1 X83.532 Y14.458 E1935.1944 F2400
G0 X82.966 Y14.458 F5400
G1 X119.145 Y50.637 E1937.7470 F2400
G0 X118.580 Y50.637 F5400
G1 X82.401 Y14.458 E1940.2996 F2400
G0 X81.835 Y14.458 F5400
G1 X118.014 Y50.637 E1942.8522 F2400
G0 X117.448 Y50.637 F5400
G1 X81.269 Y14.458 E1945.4048 F2400
G0 X80.704 Y14.458 F5400
G1 X116.882 Y50.637 E1947.9574 F2400
G0 X116.317 Y50.637 F5400
G1 X80.138 Y14.458 E1950.5100 F2400
G0 X79.572 Y14.458 F5400
G1 X115.751 Y50.637 E1953.0626 F2400
G0 X115.185 Y50.637 F5400
G1 X79.007 Y14.458 E1955.6152 F2400
G0 X78.441 Y14.458 F5400
G1 X114.620 Y50.637 E1958.1678 F2400
G0 X114.054 Y50.637 F5400
G1 X77.875 Y14.458 E1960.7204 F2400
G0 X72.660 Y12.165 F5400
G0 X72.660 Y14.098
G0 X65.110 Y14.098
G0 X65.110 Y8.845
G0 X65.110 Y8.845
G0 X64.737 Y8.681
G0 X64.749 Y8.686
G1 X64.171 Y8.108 E1960.7612 F2400
G0 X63.606 Y8.108 F5400
G1 X64.749 Y9.252 E1960.8420 F2400
G0 X64.749 Y9.818 F5400
G1 X63.040 Y8.108 E1960.9626 F2400
G0 X62.474 Y8.108 F5400
G1 X64.749 Y10.383 E1961.1230 F2400
G0 X64.749 Y10.949 F5400
G1 X61.909 Y8.108 E1961.3234 F2400
G0 X61.343 Y8.108 F5400
G1 X64.749 Y11.515 E1961.5638 F2400
G0 X64.749 Y12.080 F5400
G1 X60.777 Y8.108 E1961.8442 F2400
G0 X60.321 Y8.217 F5400
G1 X64.749 Y12.646 E1962.1566 F2400
G0 X64.749 Y13.212 F5400
G1 X60.321 Y8.783 E1962.4692 F2400
G0 X60.321 Y9.349 F5400
G1 X64.749 Y13.777 E1962.7816 F2400
G0 X64.749 Y14.343 F5400
G1 X60.321 Y9.914 E1963.0942 F2400
G0 X59.960 Y9.850 F5400
G0 X59.960 Y14.098
G0 X52.409 Y14.098
G0 X52.409 Y8.496
G0 X52.409 Y8.496
G0 X52.036 Y8.429
G0 X52.049 Y8.431
G1 X51.726 Y8.108 E1963.1170 F2400
G0 X51.161 Y8.108 F5400
G1 X52.049 Y8.997 E1963.1796 F2400
G0 X52.049 Y9.563 F5400
G1 X50.595 Y8.108 E1963.2824 F2400
G0 X50.029 Y8.108 F5400
G1 X52.049 Y10.128 E1963.4250 F2400
G0 X52.049 Y10.694 F5400
G1 X49.464 Y8.108 E1963.6072 F2400
G0 X48.898 Y8.108 F5400
G1 X52.049 Y11.260 E1963.8296 F2400
G0 X52.049 Y11.825 F5400
G1 X48.332 Y8.108 E1964.0918 F2400
G0 X47.767 Y8.108 F5400
G1 X52.049 Y12.391 E1964.3940 F2400
G0 X52.049 Y12.957 F5400
G1 X47.620 Y8.528 E1964.7064 F2400
G0 X47.620 Y9.093 F5400
G1 X52.049 Y13.522 E1965.0190 F2400
G0 X52.049 Y14.088 F5400
G1 X47.620 Y9.659 E1965.3314 F2400
G0 X47.260 Y9.619 F5400
G0 X47.260 Y14.098
G0 X39.709 Y14.098
G0 X39.709 Y8.782
G0 X39.709 Y8.782
G0 X39.336 Y8.741
G0 X39.349 Y8.742
G1 X38.716 Y8.108 E1965.3760 F2400
G0 X38.150 Y8.108 F5400
G1 X39.349 Y9.308 E1965.4606 F2400
G0 X39.349 Y9.873 F5400
G1 X37.584 Y8.108 E1965.5852 F2400
G0 X37.019 Y8.108 F5400
G1 X39.349 Y10.439 E1965.7496 F2400
G0 X39.349 Y11.005 F5400
G1 X36.453 Y8.108 E1965.9540 F2400
G0 X35.887 Y8.108 F5400
G1 X39.349 Y11.570 E1966.1982 F2400
G0 X39.349 Y12.136 F5400
G1 X35.321 Y8.108 E1966.4824 F2400
G0 X34.920 Y8.273 F5400
G1 X39.349 Y12.702 E1966.7950 F2400
G0 X39.349 Y13.268 F5400
G1 X34.920 Y8.839 E1967.1074 F2400
G0 X34.920 Y9.404 F5400
G1 X39.349 Y13.833 E1967.4200 F2400
G0 X39.349 Y14.399 F5400
G1 X34.920 Y9.970 E1967.7324 F2400
G0 X34.920 Y10.536 F5400
G1 X75.022 Y50.637 E1970.5618 F2400
G0 X74.456 Y50.637 F5400
G1 X34.920 Y11.101 E1973.3512 F2400
G0 X34.920 Y11.667 F5400
G1 X73.890 Y50.637 E1976.1008 F2400
G0 X73.325 Y50.637 F5400
G1 X34.920 Y12.233 E1978.8104 F2400
G0 X34.920 Y12.798 F5400
G1 X72.759 Y50.637 E1981.4800 F2400
G0 X72.193 Y50.637 F5400
G1 X34.920 Y13.364 E1984.1098 F2400
G0 X34.920 Y13.930 F5400
G1 X71.628 Y50.637 E1986.6996 F2400
G0 X71.062 Y50.637 F5400
G1 X34.883 Y14.458 E1989.2522 F2400
G0 X34.317 Y14.458 F5400
G1 X70.496 Y50.637 E1991.8048 F2400
G0 X69.931 Y50.637 F5400
G1 X33.752 Y14.458 E1994.3574 F2400
G0 X33.186 Y14.458 F5400
G1 X69.365 Y50.637 E1996.9100 F2400
G0 X68.799 Y50.637 F5400
G1 X32.620 Y14.458 E1999.4626 F2400
G0 X32.055 Y14.458 F5400
G1 X68.234 Y50.637 E2002.0152 F2400
G0 X67.668 Y50.637 F5400
G1 X31.489 Y14.458 E2004.5678 F2400
G0 X30.923 Y14.458 F5400
G1 X67.102 Y50.637 E2007.1204 F2400
G0 X66.536 Y50.637 F5400
G1 X30.358 Y14.458 E2009.6730 F2400
G0 X29.792 Y14.458 F5400
G1 X65.971 Y50.637 E2012.2258 F2400
G0 X65.405 Y50.637 F5400
G1 X29.226 Y14.458 E2014.7784 F2400
G0 X28.661 Y14.458 F5400
G1 X64.839 Y50.637 E2017.3310 F2400
G0 X64.274 Y50.637 F5400
G1 X28.095 Y14.458 E2019.8836 F2400
G0 X27.529 Y14.458 F5400
