; GCode generated by CraftWare

G28 X0 Y0
G28 Z0


M104 S215 ;set head temp (no wait)
M190 S60 ;set bed temp (wait)
M109 S215 ;set head temp (wait)
; ------------------------------------
; Layer #0
; ------------------------------------
M106 S0 ;turn off fan
G21 ; mm
G90 ; abs
G92 E0 ;reset extr
G0 F1200 Z0.300
;segType:Skirt
G0 F3000 E-1.0000
G0 X12.945 Y196.387 F5400
G0 F3000 E0.0000
G1 X12.945 Y181.750 E0.7302 F2400
G1 X15.074 Y179.621 E0.8804
G1 X14.874 Y179.289 E0.8998
G1 X13.011 Y177.426 E1.0312
G1 X12.945 Y176.960 E1.0547
G1 X12.945 Y168.977 E1.4530
G1 X15.074 Y166.848 E1.6032
G1 X12.945 Y164.719 E1.7534
G1 X12.945 Y156.735 E2.1517
G1 X13.011 Y156.269 E2.1752
G1 X14.874 Y154.406 E2.3066
G1 X15.074 Y154.074 E2.3260
G1 X12.945 Y151.945 E2.4762
G1 X12.945 Y143.961 E2.8745
G1 X13.011 Y143.495 E2.8980
G1 X14.874 Y141.633 E3.0294
G1 X15.007 Y141.367 E3.0442
G1 X13.144 Y139.504 E3.1756
G1 X12.945 Y139.171 E3.1950
G1 X12.945 Y130.922 E3.6066
G1 X15.074 Y128.793 E3.7568
G1 X14.874 Y128.460 E3.7761
G1 X13.011 Y126.597 E3.9076
G1 X12.945 Y126.131 E3.9311
G1 X12.945 Y118.148 E4.3294
G1 X15.872 Y115.220 E4.5359
G1 X16.338 Y115.154 E4.5594
G1 X18.999 Y115.154 E4.6922
G1 X19.198 Y115.087 E4.7026
G1 X19.198 Y111.894 E4.8620
G1 X22.126 Y108.967 E5.0685
G1 X22.592 Y108.900 E5.0920
G1 X90.718 Y108.900 E8.4908
G1 X158.845 Y108.900 E11.8897
G1 X226.972 Y108.900 E15.2885
G1 X229.066 Y108.900 E15.3930
;segType:HShell
G0 F3000 E14.3930
G0 X238.264 Y119.464 F5400
G0 F3000 E15.3930
G1 X232.597 Y113.797 E15.7929 F2400
G0 X233.163 Y113.797 F5400
G1 X238.264 Y118.899 E16.1528 F2400
;segType:Perimeter
G0 X238.285 Y119.387 F5400
G1 X239.085 Y119.387 E16.1927 F1439
G1 X245.375 Y119.387 E16.5065
G1 X245.375 Y125.337 E16.8033
G1 X239.025 Y125.337 E17.1201
G1 X239.025 Y132.087 E17.4569
G1 X245.375 Y132.087 E17.7737
G1 X245.375 Y138.037 E18.0705
G1 X239.025 Y138.037 E18.3873
G1 X239.025 Y144.787 E18.7241
G1 X245.375 Y144.787 E19.0409
G1 X245.375 Y150.736 E19.3377
G1 X239.025 Y150.736 E19.6545
G1 X239.025 Y157.487 E19.9913
G1 X245.375 Y157.487 E20.3081
G1 X245.375 Y163.436 E20.6049
G1 X239.025 Y163.436 E20.9217
G1 X239.025 Y170.187 E21.2586
G1 X245.375 Y170.187 E21.5754
G1 X245.375 Y176.137 E21.8722
G1 X239.025 Y176.137 E22.1890
G1 X239.025 Y182.887 E22.5258
G1 X245.375 Y182.887 E22.8426
G1 X245.375 Y188.837 E23.1394
G1 X239.025 Y188.837 E23.4562
G1 X239.025 Y195.187 E23.7730
G1 X233.075 Y195.187 E24.0698
G1 X233.075 Y188.837 E24.3866
G1 X226.325 Y188.837 E24.7234
G1 X226.325 Y195.187 E25.0402
G1 X220.375 Y195.187 E25.3370
G1 X220.375 Y188.837 E25.6538
G1 X213.625 Y188.837 E25.9906
G1 X213.625 Y195.187 E26.3074
G1 X207.676 Y195.187 E26.6042
G1 X207.676 Y188.837 E26.9210
G1 X200.925 Y188.837 E27.2578
G1 X200.925 Y195.187 E27.5746
G1 X194.975 Y195.187 E27.8714
G1 X194.975 Y188.837 E28.1882
G1 X188.225 Y188.837 E28.5250
G1 X188.225 Y195.187 E28.8418
G1 X182.275 Y195.187 E29.1386
G1 X182.275 Y188.837 E29.4554
G1 X175.525 Y188.837 E29.7922
G1 X175.525 Y195.187 E30.1090
G1 X169.575 Y195.187 E30.4058
G1 X169.575 Y188.837 E30.7226
G1 X162.825 Y188.837 E31.0594
G1 X162.825 Y195.187 E31.3762
G1 X156.876 Y195.187 E31.6730
G1 X156.876 Y163.436 E33.2570
G1 X112.025 Y163.436 E35.4947
G1 X112.025 Y195.187 E37.0787
G1 X106.076 Y195.187 E37.3755
G1 X106.076 Y188.837 E37.6923
G1 X99.325 Y188.837 E38.0291
G1 X99.325 Y195.187 E38.3459
G1 X93.375 Y195.187 E38.6427
G1 X93.375 Y188.837 E38.9595
G1 X86.625 Y188.837 E39.2963
G1 X86.625 Y195.187 E39.6131
G1 X80.675 Y195.187 E39.9099
G1 X80.675 Y188.837 E40.2267
G1 X73.925 Y188.837 E40.5635
G1 X73.925 Y195.187 E40.8803
G1 X67.975 Y195.187 E41.1771
G1 X67.975 Y188.837 E41.4939
G1 X61.225 Y188.837 E41.8307
G1 X61.225 Y195.187 E42.1475
G1 X55.276 Y195.187 E42.4443
G1 X55.276 Y188.837 E42.7611
G1 X48.525 Y188.837 E43.0979
G1 X48.525 Y195.187 E43.4147
G1 X42.575 Y195.187 E43.7115
G1 X42.575 Y188.837 E44.0284
G1 X35.825 Y188.837 E44.3651
G1 X35.825 Y195.187 E44.6820
G1 X29.875 Y195.187 E44.9788
G1 X29.875 Y188.837 E45.2956
G1 X23.125 Y188.837 E45.6324
G1 X23.125 Y195.187 E45.9492
G1 X17.175 Y195.187 E46.2460
G1 X17.175 Y182.887 E46.8596
G1 X23.525 Y182.887 E47.1764
G1 X23.525 Y176.137 E47.5132
G1 X17.175 Y176.137 E47.8300
G1 X17.175 Y170.187 E48.1268
G1 X23.525 Y170.187 E48.4436
G1 X23.525 Y163.436 E48.7804
G1 X17.175 Y163.436 E49.0972
G1 X17.175 Y157.487 E49.3940
G1 X23.525 Y157.487 E49.7108
G1 X23.525 Y150.736 E50.0476
G1 X17.175 Y150.736 E50.3644
G1 X17.175 Y144.787 E50.6612
G1 X23.525 Y144.787 E50.9780
G1 X23.525 Y138.037 E51.3148
G1 X17.175 Y138.037 E51.6316
G1 X17.175 Y132.087 E51.9284
G1 X23.525 Y132.087 E52.2452
G1 X23.525 Y125.337 E52.5820
G1 X17.175 Y125.337 E52.8988
G1 X17.175 Y119.387 E53.1956
G1 X23.525 Y119.387 E53.5124
G1 X23.525 Y113.037 E53.8292
G1 X239.025 Y113.037 E64.5805
G1 X239.025 Y119.327 E64.8944
G0 X239.025 Y120.127 F5400
;segType:Loop
G0 X240.125 Y119.787
G1 X244.975 Y119.787 E65.1363 F2400
G1 X244.975 Y124.937 E65.3932
G1 X238.625 Y124.937 E65.7100
G1 X238.625 Y132.487 E66.0867
G1 X244.975 Y132.487 E66.4035
G1 X244.975 Y137.637 E66.6604
G1 X238.625 Y137.637 E66.9772
G1 X238.625 Y145.187 E67.3539
G1 X244.975 Y145.187 E67.6707
G1 X244.975 Y150.336 E67.9276
G1 X238.625 Y150.336 E68.2444
G1 X238.625 Y157.887 E68.6211
G1 X244.975 Y157.887 E68.9379
G1 X244.975 Y163.036 E69.1948
G1 X238.625 Y163.036 E69.5116
G1 X238.625 Y170.587 E69.8884
G1 X244.975 Y170.587 E70.2052
G1 X244.975 Y175.737 E70.4620
G1 X238.625 Y175.737 E70.7788
G1 X238.625 Y183.287 E71.1556
G1 X244.975 Y183.287 E71.4724
G1 X244.975 Y188.437 E71.7293
G1 X238.625 Y188.437 E72.0461
G1 X238.625 Y194.787 E72.3629
G1 X233.475 Y194.787 E72.6198
G1 X233.475 Y188.437 E72.9366
G1 X225.925 Y188.437 E73.3133
G1 X225.925 Y194.787 E73.6301
G1 X220.775 Y194.787 E73.8870
G1 X220.775 Y188.437 E74.2038
G1 X213.225 Y188.437 E74.5805
G1 X213.225 Y194.787 E74.8973
G1 X208.076 Y194.787 E75.1542
G1 X208.076 Y188.437 E75.4710
G1 X200.525 Y188.437 E75.8477
G1 X200.525 Y194.787 E76.1645
G1 X195.375 Y194.787 E76.4214
G1 X195.375 Y188.437 E76.7382
G1 X187.825 Y188.437 E77.1149
G1 X187.825 Y194.787 E77.4317
G1 X182.675 Y194.787 E77.6886
G1 X182.675 Y188.437 E78.0054
G1 X175.125 Y188.437 E78.3821
G1 X175.125 Y194.787 E78.6989
G1 X169.975 Y194.787 E78.9558
G1 X169.975 Y188.437 E79.2726
G1 X162.425 Y188.437 E79.6493
G1 X162.425 Y194.787 E79.9661
G1 X157.276 Y194.787 E80.2230
G1 X157.276 Y163.036 E81.8071
G1 X111.625 Y163.036 E84.0846
G1 X111.625 Y194.787 E85.6686
G1 X106.476 Y194.787 E85.9255
G1 X106.476 Y188.437 E86.2423
G1 X98.925 Y188.437 E86.6190
G1 X98.925 Y194.787 E86.9358
G1 X93.775 Y194.787 E87.1927
G1 X93.775 Y188.437 E87.5095
G1 X86.225 Y188.437 E87.8862
G1 X86.225 Y194.787 E88.2030
G1 X81.075 Y194.787 E88.4599
G1 X81.075 Y188.437 E88.7767
G1 X73.525 Y188.437 E89.1534
G1 X73.525 Y194.787 E89.4702
G1 X68.375 Y194.787 E89.7271
G1 X68.375 Y188.437 E90.0439
G1 X60.825 Y188.437 E90.4206
G1 X60.825 Y194.787 E90.7374
G1 X55.676 Y194.787 E90.9943
G1 X55.676 Y188.437 E91.3111
G1 X48.125 Y188.437 E91.6878
G1 X48.125 Y194.787 E92.0046
G1 X42.975 Y194.787 E92.2615
G1 X42.975 Y188.437 E92.5783
G1 X35.425 Y188.437 E92.9551
G1 X35.425 Y194.787 E93.2719
G1 X30.275 Y194.787 E93.5287
G1 X30.275 Y188.437 E93.8455
G1 X22.725 Y188.437 E94.2223
G1 X22.725 Y194.787 E94.5391
G1 X17.575 Y194.787 E94.7959
G1 X17.575 Y183.287 E95.3696
G1 X23.925 Y183.287 E95.6864
G1 X23.925 Y175.737 E96.0632
G1 X17.575 Y175.737 E96.3800
G1 X17.575 Y170.587 E96.6368
G1 X23.925 Y170.587 E96.9536
G1 X23.925 Y163.036 E97.3304
G1 X17.575 Y163.036 E97.6472
G1 X17.575 Y157.887 E97.9041
G1 X23.925 Y157.887 E98.2209
G1 X23.925 Y150.336 E98.5976
G1 X17.575 Y150.336 E98.9144
G1 X17.575 Y145.187 E99.1713
G1 X23.925 Y145.187 E99.4881
G1 X23.925 Y137.637 E99.8648
G1 X17.575 Y137.637 E100.1816
G1 X17.575 Y132.487 E100.4385
G1 X23.925 Y132.487 E100.7553
G1 X23.925 Y124.937 E101.1320
G1 X17.575 Y124.937 E101.4488
G1 X17.575 Y119.787 E101.7057
G1 X23.925 Y119.787 E102.0225
G1 X23.925 Y113.437 E102.3393
G1 X238.625 Y113.437 E113.0507
G1 X238.625 Y119.787 E113.3675
G1 X239.925 Y119.787 E113.4323
G0 X239.925 Y119.787 F5400
G0 X238.625 Y119.787
G0 X238.625 Y118.649
G0 X238.625 Y118.649
G0 X238.254 Y118.324
;segType:HShell
G0 X238.264 Y118.333
G1 X233.729 Y113.797 E113.7524 F2400
G0 X234.294 Y113.797 F5400
G1 X238.264 Y117.767 E114.0325 F2400
G0 X238.264 Y117.202 F5400
G1 X234.860 Y113.797 E114.2727 F2400
G0 X235.426 Y113.797 F5400
G1 X238.265 Y116.636 E114.4730 F2400
G0 X238.264 Y116.070 F5400
G1 X235.991 Y113.797 E114.6333 F2400
G0 X236.557 Y113.797 F5400
G1 X238.265 Y115.505 E114.7538 F2400
G0 X238.264 Y114.939 F5400
G1 X237.123 Y113.797 E114.8344 F2400
G0 X237.689 Y113.797 F5400
G1 X238.265 Y114.373 E114.8750 F2400
G0 X219.587 Y113.797 F5400
G1 X238.264 Y132.475 E116.1928 F2400
G0 X238.264 Y131.910 F5400
G1 X220.152 Y113.797 E117.4707 F2400
G0 X220.718 Y113.797 F5400
G1 X238.264 Y131.344 E118.7087 F2400
G0 X238.264 Y130.778 F5400
G1 X221.284 Y113.797 E119.9068 F2400
G0 X221.849 Y113.797 F5400
G1 X238.264 Y130.212 E121.0650 F2400
G0 X238.264 Y129.647 F5400
G1 X222.415 Y113.797 E122.1833 F2400
G0 X222.981 Y113.797 F5400
G1 X238.264 Y129.081 E123.2616 F2400
G0 X238.264 Y128.515 F5400
G1 X223.546 Y113.797 E124.3001 F2400
G0 X224.112 Y113.797 F5400
G1 X238.264 Y127.950 E125.2986 F2400
G0 X238.264 Y127.384 F5400
G1 X224.678 Y113.797 E126.2572 F2400
G0 X225.243 Y113.797 F5400
G1 X238.264 Y126.818 E127.1759 F2400
G0 X238.264 Y126.253 F5400
G1 X225.809 Y113.797 E128.0547 F2400
G0 X226.375 Y113.797 F5400
G1 X238.264 Y125.687 E128.8936 F2400
G0 X238.264 Y125.121 F5400
G1 X226.940 Y113.797 E129.6926 F2400
G0 X227.506 Y113.797 F5400
G1 X238.285 Y124.576 E130.4531 F2400
G0 X238.851 Y124.576 F5400
G1 X228.072 Y113.797 E131.2136 F2400
G0 X228.638 Y113.797 F5400
G1 X239.417 Y124.576 E131.9741 F2400
G0 X239.982 Y124.576 F5400
G1 X229.203 Y113.797 E132.7347 F2400
G0 X229.769 Y113.797 F5400
G1 X240.548 Y124.576 E133.4952 F2400
G0 X241.114 Y124.576 F5400
G1 X230.335 Y113.797 E134.2557 F2400
G0 X230.900 Y113.797 F5400
G1 X241.679 Y124.576 E135.0163 F2400
G0 X242.245 Y124.576 F5400
G1 X231.466 Y113.797 E135.7768 F2400
G0 X232.032 Y113.797 F5400
G1 X238.264 Y120.030 E136.2165 F2400
G0 X238.382 Y120.148 F5400
G1 X242.811 Y124.576 E136.5290 F2400
G0 X243.377 Y124.576 F5400
G1 X238.948 Y120.148 E136.8415 F2400
G0 X239.513 Y120.148 F5400
G1 X243.942 Y124.576 E137.1540 F2400
G0 X244.508 Y124.576 F5400
G1 X240.079 Y120.148 E137.4665 F2400
G0 X240.645 Y120.148 F5400
G1 X244.614 Y124.117 E137.7466 F2400
G0 X244.614 Y123.552 F5400
G1 X241.210 Y120.148 E137.9867 F2400
G0 X241.776 Y120.148 F5400
G1 X244.614 Y122.986 E138.1870 F2400
G0 X244.614 Y122.420 F5400
G1 X242.342 Y120.148 E138.3474 F2400
G0 X242.907 Y120.148 F5400
G1 X244.614 Y121.855 E138.4678 F2400
G0 X244.614 Y121.289 F5400
G1 X243.473 Y120.148 E138.5483 F2400
G0 X244.039 Y120.148 F5400
G1 X244.614 Y120.723 E138.5889 F2400
G0 X244.503 Y124.937 F5400
G0 X238.625 Y124.937
G0 X238.625 Y132.487
G0 X244.303 Y132.487
G0 X244.303 Y132.487
G0 X244.293 Y132.861
G0 X244.294 Y132.848
G1 X244.614 Y133.168 E138.6116 F2400
G0 X244.614 Y133.734 F5400
G1 X243.728 Y132.847 E138.6741 F2400
G0 X243.162 Y132.847 F5400
G1 X244.614 Y134.300 E138.7766 F2400
G0 X244.614 Y134.865 F5400
G1 X242.597 Y132.848 E138.9189 F2400
G0 X242.031 Y132.847 F5400
G1 X244.614 Y135.431 E139.1012 F2400
G0 X244.614 Y135.997 F5400
G1 X241.465 Y132.848 E139.3234 F2400
G0 X240.900 Y132.848 F5400
G1 X244.614 Y136.562 E139.5855 F2400
G0 X244.614 Y137.128 F5400
G1 X240.334 Y132.848 E139.8875 F2400
G0 X239.768 Y132.848 F5400
G1 X244.197 Y137.276 E140.2000 F2400
G0 X243.631 Y137.276 F5400
G1 X239.202 Y132.848 E140.5125 F2400
G0 X238.637 Y132.848 F5400
G1 X243.066 Y137.276 E140.8250 F2400
G0 X242.500 Y137.276 F5400
G1 X219.021 Y113.797 E142.4816 F2400
G0 X218.455 Y113.797 F5400
G1 X241.934 Y137.276 E144.1382 F2400
G0 X241.369 Y137.276 F5400
G1 X217.890 Y113.797 E145.7947 F2400
G0 X217.324 Y113.797 F5400
G1 X240.803 Y137.276 E147.4513 F2400
G0 X240.237 Y137.276 F5400
G1 X216.758 Y113.797 E149.1079 F2400
G0 X216.192 Y113.797 F5400
G1 X239.672 Y137.276 E150.7645 F2400
G0 X239.106 Y137.276 F5400
G1 X215.627 Y113.797 E152.4211 F2400
G0 X215.061 Y113.797 F5400
G1 X238.540 Y137.276 E154.0777 F2400
G0 X238.264 Y137.566 F5400
G1 X214.495 Y113.797 E155.7547 F2400
G0 X213.930 Y113.797 F5400
G1 X238.264 Y138.132 E157.4717 F2400
G0 X238.264 Y138.698 F5400
G1 X213.364 Y113.797 E159.2285 F2400
G0 X212.798 Y113.797 F5400
G1 X238.264 Y139.263 E161.0253 F2400
G0 X238.264 Y139.829 F5400
G1 X212.233 Y113.797 E162.8620 F2400
G0 X211.667 Y113.797 F5400
G1 X238.264 Y140.395 E164.7386 F2400
G0 X238.264 Y140.960 F5400
G1 X211.101 Y113.797 E166.6551 F2400
G0 X210.536 Y113.797 F5400
G1 X238.264 Y141.526 E168.6115 F2400
G0 X238.264 Y142.092 F5400
G1 X209.970 Y113.797 E170.6078 F2400
G0 X209.404 Y113.797 F5400
G1 X238.264 Y142.658 E172.6441 F2400
G0 X238.264 Y143.223 F5400
G1 X208.839 Y113.797 E174.7202 F2400
G0 X208.273 Y113.797 F5400
G1 X238.264 Y143.789 E176.8363 F2400
G0 X238.264 Y144.355 F5400
G1 X207.707 Y113.797 E178.9923 F2400
G0 X207.142 Y113.797 F5400
G1 X238.264 Y144.920 E181.1882 F2400
G0 X238.264 Y145.486 F5400
G1 X206.576 Y113.797 E183.4240 F2400
G0 X206.010 Y113.797 F5400
G1 X242.189 Y149.976 E185.9766 F2400
G0 X241.624 Y149.976 F5400
G1 X205.444 Y113.797 E188.5292 F2400
G0 X204.879 Y113.797 F5400
G1 X241.058 Y149.976 E191.0819 F2400
G0 X240.492 Y149.976 F5400
G1 X204.313 Y113.797 E193.6345 F2400
G0 X203.747 Y113.797 F5400
G1 X239.926 Y149.976 E196.1871 F2400
G0 X239.361 Y149.976 F5400
G1 X203.182 Y113.797 E198.7398 F2400
G0 X202.616 Y113.797 F5400
G1 X238.795 Y149.976 E201.2924 F2400
G0 X238.264 Y150.011 F5400
G1 X202.050 Y113.797 E203.8475 F2400
G0 X201.485 Y113.797 F5400
G1 X238.264 Y150.577 E206.4425 F2400
G0 X238.264 Y151.143 F5400
G1 X200.919 Y113.797 E209.0774 F2400
G0 X200.353 Y113.797 F5400
G1 X238.264 Y151.709 E211.7523 F2400
G0 X238.264 Y152.274 F5400
G1 X199.788 Y113.797 E214.4670 F2400
G0 X199.222 Y113.797 F5400
G1 X238.264 Y152.840 E217.2217 F2400
G0 X238.264 Y153.406 F5400
G1 X198.656 Y113.797 E220.0163 F2400
G0 X198.091 Y113.797 F5400
G1 X238.264 Y153.971 E222.8508 F2400
G0 X238.264 Y154.537 F5400
G1 X197.525 Y113.797 E225.7252 F2400
G0 X196.959 Y113.797 F5400
G1 X238.264 Y155.103 E228.6395 F2400
G0 X238.264 Y155.668 F5400
G1 X196.394 Y113.797 E231.5937 F2400
G0 X195.828 Y113.797 F5400
G1 X238.264 Y156.234 E234.5878 F2400
G0 X238.264 Y156.800 F5400
G1 X195.262 Y113.797 E237.6219 F2400
G0 X194.696 Y113.797 F5400
G1 X238.264 Y157.365 E240.6958 F2400
G0 X238.264 Y157.931 F5400
G1 X194.131 Y113.797 E243.8097 F2400
G0 X159.624 Y113.797 F5400
G1 X238.264 Y192.438 E249.3582 F2400
G0 X238.264 Y191.872 F5400
G1 X160.190 Y113.797 E254.8668 F2400
G0 X160.755 Y113.797 F5400
G1 X238.264 Y191.306 E260.3355 F2400
G0 X238.264 Y190.741 F5400
G1 X161.321 Y113.797 E265.7643 F2400
G0 X161.887 Y113.797 F5400
G1 X238.264 Y190.175 E271.1531 F2400
G0 X238.264 Y189.609 F5400
G1 X162.452 Y113.797 E276.5021 F2400
G0 X163.018 Y113.797 F5400
G1 X238.264 Y189.044 E281.8111 F2400
G0 X238.264 Y188.478 F5400
G1 X163.584 Y113.797 E287.0802 F2400
G0 X164.149 Y113.797 F5400
G1 X238.429 Y188.076 E292.3210 F2400
G0 X238.994 Y188.076 F5400
G1 X164.715 Y113.797 E297.5618 F2400
G0 X165.281 Y113.797 F5400
G1 X239.560 Y188.076 E302.8026 F2400
G0 X240.126 Y188.076 F5400
G1 X165.846 Y113.797 E308.0434 F2400
G0 X166.412 Y113.797 F5400
G1 X240.691 Y188.076 E313.2842 F2400
G0 X241.257 Y188.076 F5400
G1 X166.978 Y113.797 E318.5249 F2400
G0 X167.544 Y113.797 F5400
G1 X241.823 Y188.076 E323.7657 F2400
G0 X242.388 Y188.076 F5400
G1 X168.109 Y113.797 E329.0065 F2400
G0 X168.675 Y113.797 F5400
G1 X238.264 Y183.387 E333.9164 F2400
G0 X238.264 Y182.821 F5400
G1 X169.241 Y113.797 E338.7864 F2400
G0 X169.806 Y113.797 F5400
G1 X238.264 Y182.256 E343.6165 F2400
G0 X238.264 Y181.690 F5400
G1 X170.372 Y113.797 E348.4067 F2400
G0 X170.938 Y113.797 F5400
G1 X238.264 Y181.124 E353.1570 F2400
G0 X238.264 Y180.558 F5400
G1 X171.503 Y113.797 E357.8674 F2400
G0 X172.069 Y113.797 F5400
G1 X238.264 Y179.993 E362.5378 F2400
G0 X238.264 Y179.427 F5400
G1 X172.635 Y113.797 E367.1683 F2400
G0 X173.200 Y113.797 F5400
G1 X238.264 Y178.861 E371.7589 F2400
G0 X238.264 Y178.296 F5400
G1 X173.766 Y113.797 E376.3096 F2400
G0 X174.332 Y113.797 F5400
G1 X238.264 Y177.730 E380.8204 F2400
G0 X238.264 Y177.164 F5400
G1 X174.897 Y113.797 E385.2913 F2400
G0 X175.463 Y113.797 F5400
G1 X238.264 Y176.599 E389.7223 F2400
G0 X238.264 Y176.033 F5400
G1 X176.029 Y113.797 E394.1134 F2400
G0 X176.595 Y113.797 F5400
G1 X238.264 Y175.467 E398.4645 F2400
G0 X238.739 Y175.376 F5400
G1 X177.160 Y113.797 E402.8092 F2400
G0 X177.726 Y113.797 F5400
G1 X239.305 Y175.376 E407.1540 F2400
G0 X239.871 Y175.376 F5400
G1 X178.292 Y113.797 E411.4988 F2400
G0 X178.857 Y113.797 F5400
G1 X240.436 Y175.376 E415.8435 F2400
G0 X241.002 Y175.376 F5400
G1 X179.423 Y113.797 E420.1883 F2400
G0 X179.989 Y113.797 F5400
G1 X241.568 Y175.376 E424.5330 F2400
G0 X242.133 Y175.376 F5400
G1 X180.554 Y113.797 E428.8777 F2400
G0 X181.120 Y113.797 F5400
G1 X238.264 Y170.942 E432.9096 F2400
G0 X238.264 Y170.376 F5400
G1 X181.686 Y113.797 E436.9015 F2400
G0 X182.251 Y113.797 F5400
G1 X238.264 Y169.810 E440.8535 F2400
G0 X238.264 Y169.245 F5400
G1 X182.817 Y113.797 E444.7656 F2400
G0 X183.383 Y113.797 F5400
G1 X238.265 Y168.679 E448.6378 F2400
G0 X238.265 Y168.113 F5400
G1 X183.948 Y113.797 E452.4701 F2400
G0 X184.514 Y113.797 F5400
G1 X238.265 Y167.548 E456.2625 F2400
G0 X238.265 Y166.982 F5400
G1 X185.080 Y113.797 E460.0150 F2400
G0 X185.645 Y113.797 F5400
G1 X238.265 Y166.416 E463.7276 F2400
G0 X238.265 Y165.851 F5400
G1 X186.211 Y113.797 E467.4002 F2400
G0 X186.777 Y113.797 F5400
G1 X238.265 Y165.285 E471.0329 F2400
G0 X238.265 Y164.719 F5400
G1 X187.343 Y113.797 E474.6258 F2400
G0 X187.908 Y113.797 F5400
G1 X238.265 Y164.154 E478.1787 F2400
G0 X238.265 Y163.588 F5400
G1 X188.474 Y113.797 E481.6917 F2400
G0 X189.040 Y113.797 F5400
G1 X238.265 Y163.022 E485.1648 F2400
G0 X238.484 Y162.676 F5400
G1 X189.605 Y113.797 E488.6134 F2400
G0 X190.171 Y113.797 F5400
G1 X239.050 Y162.676 E492.0621 F2400
G0 X239.616 Y162.676 F5400
G1 X190.737 Y113.797 E495.5108 F2400
G0 X191.302 Y113.797 F5400
G1 X240.181 Y162.676 E498.9594 F2400
G0 X240.747 Y162.676 F5400
G1 X191.868 Y113.797 E502.4081 F2400
G0 X192.434 Y113.797 F5400
G1 X241.313 Y162.676 E505.8568 F2400
G0 X241.878 Y162.676 F5400
G1 X192.999 Y113.797 E509.3054 F2400
G0 X193.565 Y113.797 F5400
G1 X242.444 Y162.676 E512.7541 F2400
G0 X243.010 Y162.676 F5400
G1 X238.581 Y158.247 E513.0666 F2400
G0 X239.147 Y158.247 F5400
G1 X243.575 Y162.676 E513.3791 F2400
G0 X244.141 Y162.676 F5400
G1 X239.712 Y158.247 E513.6916 F2400
G0 X240.278 Y158.247 F5400
G1 X244.614 Y162.584 E513.9976 F2400
G0 X244.614 Y162.018 F5400
G1 X240.844 Y158.247 E514.2636 F2400
G0 X241.409 Y158.247 F5400
G1 X244.614 Y161.453 E514.4898 F2400
G0 X244.614 Y160.887 F5400
G1 X241.975 Y158.247 E514.6760 F2400
G0 X242.541 Y158.247 F5400
G1 X244.614 Y160.321 E514.8223 F2400
G0 X244.614 Y159.756 F5400
G1 X243.106 Y158.247 E514.9287 F2400
G0 X243.672 Y158.247 F5400
G1 X244.614 Y159.190 E514.9952 F2400
G0 X244.614 Y158.624 F5400
G1 X244.238 Y158.247 E515.0218 F2400
G0 X244.308 Y163.036 F5400
G0 X238.625 Y163.036
G0 X238.625 Y170.587
G0 X244.418 Y170.587
G0 X244.418 Y170.587
G0 X244.493 Y175.737
G0 X244.493 Y175.737
G0 X238.625 Y175.737
G0 X238.625 Y183.287
G0 X244.603 Y183.287
G0 X244.603 Y183.287
G0 X244.615 Y184.093
G0 X244.614 Y184.080
G1 X244.182 Y183.648 E515.0523 F2400
G0 X243.616 Y183.648 F5400
G1 X244.614 Y184.646 E515.1228 F2400
G0 X244.614 Y185.211 F5400
G1 X243.051 Y183.648 E515.2331 F2400
G0 X242.485 Y183.648 F5400
G1 X244.614 Y185.777 E515.3834 F2400
G0 X244.614 Y186.343 F5400
G1 X241.919 Y183.648 E515.5736 F2400
G0 X241.354 Y183.648 F5400
G1 X244.614 Y186.908 E515.8036 F2400
G0 X244.614 Y187.474 F5400
G1 X240.788 Y183.648 E516.0736 F2400
G0 X240.222 Y183.648 F5400
G1 X244.614 Y188.040 E516.3834 F2400
G0 X244.085 Y188.076 F5400
G1 X239.656 Y183.648 E516.6959 F2400
G0 X239.091 Y183.647 F5400
G1 X243.520 Y188.076 E517.0084 F2400
G0 X242.954 Y188.076 F5400
G1 X238.525 Y183.647 E517.3209 F2400
G0 X233.836 Y193.666 F5400
G1 X234.596 Y194.426 E517.3746 F2400
G0 X235.162 Y194.426 F5400
G1 X233.836 Y193.100 E517.4682 F2400
G0 X233.836 Y192.534 F5400
G1 X235.728 Y194.426 E517.6016 F2400
G0 X236.293 Y194.426 F5400
G1 X233.836 Y191.969 E517.7750 F2400
G0 X233.836 Y191.403 F5400
G1 X236.859 Y194.426 E517.9884 F2400
G0 X237.425 Y194.426 F5400
G1 X233.835 Y190.837 E518.2416 F2400
G0 X233.836 Y190.272 F5400
G1 X237.990 Y194.426 E518.5348 F2400
G0 X238.264 Y194.135 F5400
G1 X233.835 Y189.706 E518.8473 F2400
G0 X233.835 Y189.140 F5400
G1 X238.264 Y193.569 E519.1598 F2400
G0 X238.264 Y193.004 F5400
G1 X233.835 Y188.575 E519.4723 F2400
G0 X233.337 Y188.076 F5400
G1 X159.058 Y113.797 E524.7130 F2400
G0 X158.493 Y113.797 F5400
G1 X232.772 Y188.076 E529.9538 F2400
G0 X232.206 Y188.076 F5400
G1 X157.927 Y113.797 E535.1946 F2400
G0 X157.361 Y113.797 F5400
G1 X231.640 Y188.076 E540.4354 F2400
G0 X231.075 Y188.076 F5400
G1 X156.796 Y113.797 E545.6762 F2400
G0 X156.230 Y113.797 F5400
G1 X230.509 Y188.076 E550.9170 F2400
G0 X229.943 Y188.076 F5400
G1 X155.664 Y113.797 E556.1577 F2400
G0 X155.098 Y113.797 F5400
G1 X229.378 Y188.076 E561.3985 F2400
G0 X228.812 Y188.076 F5400
G1 X154.533 Y113.797 E566.6393 F2400
G0 X153.967 Y113.797 F5400
G1 X228.246 Y188.076 E571.8801 F2400
G0 X227.681 Y188.076 F5400
G1 X153.401 Y113.797 E577.1209 F2400
G0 X152.836 Y113.797 F5400
G1 X227.115 Y188.076 E582.3617 F2400
G0 X226.549 Y188.076 F5400
G1 X152.270 Y113.797 E587.6024 F2400
G0 X151.704 Y113.797 F5400
G1 X225.983 Y188.076 E592.8432 F2400
G0 X225.564 Y188.223 F5400
G1 X151.139 Y113.797 E598.0944 F2400
G0 X150.573 Y113.797 F5400
G1 X225.564 Y188.789 E603.3855 F2400
G0 X225.564 Y189.355 F5400
G1 X150.007 Y113.797 E608.7165 F2400
G0 X149.442 Y113.797 F5400
G1 X225.564 Y189.920 E614.0873 F2400
G0 X225.565 Y190.486 F5400
G1 X148.876 Y113.797 E619.4981 F2400
G0 X148.310 Y113.797 F5400
G1 X225.565 Y191.052 E624.9488 F2400
G0 X225.565 Y191.617 F5400
G1 X147.745 Y113.797 E630.4394 F2400
G0 X147.179 Y113.797 F5400
G1 X225.565 Y192.183 E635.9699 F2400
G0 X225.565 Y192.749 F5400
G1 X221.136 Y188.320 E636.2824 F2400
G0 X221.136 Y188.885 F5400
G1 X225.565 Y193.314 E636.5949 F2400
G0 X225.565 Y193.880 F5400
G1 X221.136 Y189.451 E636.9074 F2400
G0 X221.136 Y190.017 F5400
G1 X225.545 Y194.426 E637.2185 F2400
G0 X224.980 Y194.426 F5400
G1 X221.136 Y190.582 E637.4897 F2400
G0 X221.136 Y191.148 F5400
G1 X224.414 Y194.426 E637.7210 F2400
G0 X223.848 Y194.426 F5400
G1 X221.136 Y191.714 E637.9124 F2400
G0 X221.136 Y192.280 F5400
G1 X223.282 Y194.426 E638.0639 F2400
G0 X222.717 Y194.426 F5400
G1 X221.136 Y192.845 E638.1755 F2400
G0 X221.136 Y193.411 F5400
G1 X222.151 Y194.426 E638.2472 F2400
G0 X221.585 Y194.426 F5400
G1 X221.136 Y193.977 E638.2789 F2400
G0 X220.775 Y193.969 F5400
G0 X220.775 Y188.437
G0 X213.225 Y188.437
G0 X213.225 Y193.818
G0 X213.225 Y193.818
G0 X208.422 Y193.721
G0 X208.436 Y193.722
G1 X209.140 Y194.426 E638.3286 F2400
G0 X209.706 Y194.426 F5400
G1 X208.436 Y193.156 E638.4182 F2400
G0 X208.436 Y192.590 F5400
G1 X210.272 Y194.426 E638.5478 F2400
G0 X210.837 Y194.426 F5400
G1 X208.436 Y192.025 E638.7172 F2400
G0 X208.436 Y191.459 F5400
G1 X211.403 Y194.426 E638.9265 F2400
G0 X211.969 Y194.426 F5400
G1 X208.436 Y190.893 E639.1758 F2400
G0 X208.436 Y190.328 F5400
G1 X212.534 Y194.426 E639.4650 F2400
G0 X212.865 Y194.191 F5400
G1 X208.436 Y189.762 E639.7775 F2400
G0 X208.436 Y189.196 F5400
G1 X212.865 Y193.625 E640.0900 F2400
G0 X212.865 Y193.059 F5400
G1 X208.436 Y188.631 E640.4025 F2400
G0 X208.076 Y188.812 F5400
G0 X208.076 Y188.437
G0 X200.525 Y188.437
G0 X200.525 Y192.623
G0 X200.525 Y192.623
G0 X200.153 Y192.810
G0 X200.164 Y192.804
G1 X195.735 Y188.375 E640.7150 F2400
G0 X195.735 Y188.941 F5400
G1 X200.164 Y193.370 E641.0275 F2400
G0 X200.164 Y193.936 F5400
G1 X195.735 Y189.507 E641.3400 F2400
G0 X195.735 Y190.073 F5400
G1 X200.089 Y194.426 E641.6472 F2400
G0 X199.524 Y194.426 F5400
G1 X195.735 Y190.638 E641.9145 F2400
G0 X195.735 Y191.204 F5400
G1 X198.958 Y194.426 E642.1418 F2400
G0 X198.392 Y194.426 F5400
G1 X195.735 Y191.770 E642.3292 F2400
G0 X195.735 Y192.335 F5400
G1 X197.827 Y194.426 E642.4768 F2400
G0 X197.261 Y194.426 F5400
G1 X195.735 Y192.901 E642.5844 F2400
G0 X195.735 Y193.467 F5400
G1 X196.695 Y194.426 E642.6521 F2400
G0 X196.130 Y194.426 F5400
G1 X195.735 Y194.032 E642.6799 F2400
G0 X195.375 Y193.968 F5400
G0 X195.375 Y188.437
G0 X187.825 Y188.437
G0 X187.825 Y192.614
G0 X187.825 Y192.614
G0 X187.451 Y192.547
G0 X187.464 Y192.550
G1 X183.036 Y188.121 E642.9924 F2400
G0 X183.036 Y188.686 F5400
G1 X187.464 Y193.115 E643.3049 F2400
G0 X187.464 Y193.681 F5400
G1 X183.036 Y189.252 E643.6174 F2400
G0 X183.036 Y189.818 F5400
G1 X187.464 Y194.247 E643.9299 F2400
G0 X187.079 Y194.426 F5400
G1 X183.036 Y190.383 E644.2152 F2400
G0 X183.036 Y190.949 F5400
G1 X186.513 Y194.426 E644.4605 F2400
G0 X185.947 Y194.426 F5400
G1 X183.036 Y191.515 E644.6660 F2400
G0 X183.036 Y192.080 F5400
G1 X185.382 Y194.426 E644.8315 F2400
G0 X184.816 Y194.426 F5400
G1 X183.036 Y192.646 E644.9571 F2400
G0 X183.036 Y193.212 F5400
G1 X184.250 Y194.426 E645.0428 F2400
G0 X183.684 Y194.426 F5400
G1 X183.036 Y193.777 E645.0886 F2400
G0 X182.675 Y193.778 F5400
G0 X182.675 Y188.437
G0 X175.125 Y188.437
G0 X175.125 Y193.795
G0 X175.125 Y193.795
G0 X169.975 Y193.806
G0 X169.975 Y193.806
G0 X169.975 Y188.437
G0 X162.425 Y188.437
G0 X162.425 Y193.823
G0 X162.425 Y193.823
G0 X157.622 Y193.833
G0 X157.636 Y193.833
G1 X158.229 Y194.426 E645.1304 F2400
G0 X158.794 Y194.426 F5400
G1 X157.636 Y193.268 E645.2121 F2400
G0 X157.636 Y192.702 F5400
G1 X159.360 Y194.426 E645.3338 F2400
G0 X159.926 Y194.426 F5400
G1 X157.636 Y192.136 E645.4953 F2400
G0 X157.636 Y191.571 F5400
G1 X160.491 Y194.426 E645.6968 F2400
G0 X161.057 Y194.426 F5400
G1 X157.636 Y191.005 E645.9382 F2400
G0 X157.636 Y190.439 F5400
G1 X161.623 Y194.426 E646.2195 F2400
G0 X162.065 Y194.303 F5400
G1 X157.636 Y189.874 E646.5320 F2400
G0 X157.636 Y189.308 F5400
G1 X162.065 Y193.737 E646.8445 F2400
G0 X162.065 Y193.171 F5400
G1 X157.636 Y188.742 E647.1570 F2400
G0 X157.636 Y188.177 F5400
G1 X162.065 Y192.605 E647.4695 F2400
G0 X162.065 Y192.040 F5400
G1 X157.636 Y187.611 E647.7820 F2400
G0 X157.636 Y187.045 F5400
G1 X162.065 Y191.474 E648.0945 F2400
G0 X162.065 Y190.908 F5400
G1 X157.636 Y186.480 E648.4070 F2400
G0 X157.636 Y185.914 F5400
G1 X162.065 Y190.343 E648.7195 F2400
G0 X162.065 Y189.777 F5400
G1 X157.636 Y185.348 E649.0320 F2400
G0 X157.636 Y184.782 F5400
G1 X162.065 Y189.211 E649.3445 F2400
G0 X162.065 Y188.646 F5400
G1 X157.636 Y184.217 E649.6570 F2400
G0 X157.636 Y183.651 F5400
G1 X162.065 Y188.080 E649.9695 F2400
G0 X162.627 Y188.076 F5400
G1 X157.636 Y183.085 E650.3216 F2400
G0 X157.636 Y182.520 F5400
G1 X163.192 Y188.076 E650.7136 F2400
G0 X163.758 Y188.076 F5400
G1 X157.636 Y181.954 E651.1456 F2400
G0 X157.636 Y181.388 F5400
G1 X164.324 Y188.076 E651.6175 F2400
G0 X164.889 Y188.076 F5400
G1 X157.636 Y180.823 E652.1292 F2400
G0 X157.636 Y180.257 F5400
G1 X165.455 Y188.076 E652.6809 F2400
G0 X166.021 Y188.076 F5400
G1 X157.636 Y179.691 E653.2725 F2400
G0 X157.636 Y179.126 F5400
G1 X166.586 Y188.076 E653.9041 F2400
G0 X167.152 Y188.076 F5400
G1 X157.636 Y178.560 E654.5755 F2400
G0 X157.636 Y177.994 F5400
G1 X167.718 Y188.076 E655.2869 F2400
G0 X168.284 Y188.076 F5400
G1 X157.636 Y177.429 E656.0382 F2400
G0 X157.636 Y176.863 F5400
G1 X168.849 Y188.076 E656.8294 F2400
G0 X169.415 Y188.076 F5400
G1 X157.636 Y176.297 E657.6605 F2400
G0 X157.636 Y175.732 F5400
G1 X169.981 Y188.076 E658.5315 F2400
G0 X170.336 Y194.088 F5400
G1 X170.674 Y194.426 E658.5553 F2400
G0 X171.239 Y194.426 F5400
G1 X170.336 Y193.523 E658.6191 F2400
G0 X170.336 Y192.957 F5400
G1 X171.805 Y194.426 E658.7228 F2400
G0 X172.371 Y194.426 F5400
G1 X170.336 Y192.391 E658.8664 F2400
G0 X170.336 Y191.826 F5400
G1 X172.936 Y194.426 E659.0499 F2400
G0 X173.502 Y194.426 F5400
G1 X170.336 Y191.260 E659.2733 F2400
G0 X170.336 Y190.694 F5400
G1 X174.068 Y194.426 E659.5366 F2400
G0 X174.633 Y194.426 F5400
G1 X170.336 Y190.129 E659.8398 F2400
G0 X170.336 Y189.563 F5400
G1 X174.765 Y193.992 E660.1523 F2400
G0 X174.765 Y193.426 F5400
G1 X170.336 Y188.997 E660.4648 F2400
G0 X170.336 Y188.431 F5400
G1 X174.765 Y192.860 E660.7773 F2400
G0 X174.765 Y192.295 F5400
G1 X157.636 Y175.166 E661.9859 F2400
G0 X157.636 Y174.600 F5400
G1 X174.765 Y191.729 E663.1944 F2400
G0 X174.765 Y191.163 F5400
G1 X157.636 Y174.034 E664.4030 F2400
G0 X157.636 Y173.469 F5400
G1 X174.765 Y190.598 E665.6115 F2400
G0 X174.765 Y190.032 F5400
G1 X157.636 Y172.903 E666.8201 F2400
G0 X157.636 Y172.337 F5400
G1 X174.765 Y189.466 E668.0287 F2400
G0 X174.765 Y188.901 F5400
G1 X157.636 Y171.772 E669.2372 F2400
G0 X157.636 Y171.206 F5400
G1 X174.765 Y188.335 E670.4458 F2400
G0 X175.072 Y188.076 F5400
G1 X157.636 Y170.640 E671.6760 F2400
G0 X157.636 Y170.075 F5400
G1 X175.637 Y188.076 E672.9461 F2400
G0 X176.203 Y188.076 F5400
G1 X157.636 Y169.509 E674.2562 F2400
G0 X157.636 Y168.943 F5400
G1 X176.769 Y188.076 E675.6061 F2400
G0 X177.335 Y188.076 F5400
G1 X157.636 Y168.378 E676.9959 F2400
G0 X157.636 Y167.812 F5400
G1 X177.900 Y188.076 E678.4257 F2400
G0 X178.466 Y188.076 F5400
G1 X157.636 Y167.246 E679.8953 F2400
G0 X157.636 Y166.681 F5400
G1 X179.032 Y188.076 E681.4049 F2400
G0 X179.597 Y188.076 F5400
G1 X157.636 Y166.115 E682.9544 F2400
G0 X157.636 Y165.549 F5400
G1 X180.163 Y188.076 E684.5438 F2400
G0 X180.729 Y188.076 F5400
G1 X157.636 Y164.983 E686.1732 F2400
G0 X157.636 Y164.418 F5400
G1 X181.294 Y188.076 E687.8424 F2400
G0 X181.860 Y188.076 F5400
G1 X157.636 Y163.852 E689.5516 F2400
G0 X157.636 Y163.286 F5400
G1 X182.426 Y188.076 E691.3007 F2400
G0 X182.991 Y188.076 F5400
G1 X157.636 Y162.721 E693.0897 F2400
G0 X157.001 Y163.036 F5400
G0 X111.625 Y163.036
G0 X111.625 Y185.591
G0 X111.625 Y185.591
G0 X106.612 Y188.082
G0 X106.624 Y188.076
G1 X32.345 Y113.797 E698.3305 F2400
G0 X31.779 Y113.797 F5400
G1 X106.058 Y188.076 E703.5713 F2400
G0 X105.492 Y188.076 F5400
G1 X31.213 Y113.797 E708.8120 F2400
G0 X30.648 Y113.797 F5400
G1 X104.927 Y188.076 E714.0528 F2400
G0 X104.361 Y188.076 F5400
G1 X30.082 Y113.797 E719.2936 F2400
G0 X29.516 Y113.797 F5400
G1 X103.795 Y188.076 E724.5344 F2400
G0 X103.230 Y188.076 F5400
G1 X28.951 Y113.797 E729.7752 F2400
G0 X28.385 Y113.797 F5400
G1 X102.664 Y188.076 E735.0160 F2400
G0 X102.098 Y188.076 F5400
G1 X27.819 Y113.797 E740.2567 F2400
G0 X27.254 Y113.797 F5400
G1 X101.533 Y188.076 E745.4975 F2400
G0 X100.967 Y188.076 F5400
G1 X26.688 Y113.797 E750.7383 F2400
G0 X26.122 Y113.797 F5400
G1 X100.401 Y188.076 E755.9791 F2400
G0 X99.836 Y188.076 F5400
G1 X25.557 Y113.797 E761.2199 F2400
G0 X24.991 Y113.797 F5400
G1 X99.270 Y188.076 E766.4607 F2400
G0 X98.704 Y188.076 F5400
G1 X24.425 Y113.797 E771.7014 F2400
G0 X24.286 Y114.223 F5400
G1 X98.565 Y188.503 E776.9422 F2400
G0 X98.565 Y189.068 F5400
G1 X24.286 Y114.789 E782.1830 F2400
G0 X24.286 Y115.355 F5400
G1 X98.565 Y189.634 E787.4238 F2400
G0 X98.565 Y190.200 F5400
G1 X24.286 Y115.921 E792.6646 F2400
G0 X24.286 Y116.486 F5400
G1 X98.565 Y190.765 E797.9054 F2400
G0 X98.565 Y191.331 F5400
G1 X24.286 Y117.052 E803.1461 F2400
G0 X24.286 Y117.618 F5400
G1 X98.565 Y191.897 E808.3869 F2400
G0 X98.565 Y192.462 F5400
G1 X24.286 Y118.183 E813.6277 F2400
G0 X23.925 Y119.502 F5400
G0 X23.848 Y119.787
G0 X23.848 Y119.787
G0 X22.442 Y124.937
G0 X22.442 Y124.937
G0 X23.925 Y124.937
G0 X23.925 Y132.487
G0 X20.381 Y132.487
G0 X20.381 Y132.487
G0 X20.279 Y132.860
G0 X20.282 Y132.848
G1 X75.511 Y188.076 E817.5244 F2400
G0 X76.077 Y188.076 F5400
G1 X20.848 Y132.848 E821.4210 F2400
G0 X21.414 Y132.848 F5400
G1 X76.642 Y188.076 E825.3177 F2400
G0 X77.208 Y188.076 F5400
G1 X21.979 Y132.848 E829.2144 F2400
G0 X22.545 Y132.848 F5400
G1 X77.774 Y188.076 E833.1110 F2400
G0 X78.340 Y188.076 F5400
G1 X23.111 Y132.847 E837.0077 F2400
G0 X23.676 Y132.848 F5400
G1 X78.905 Y188.076 E840.9044 F2400
G0 X79.471 Y188.076 F5400
G1 X24.242 Y132.848 E844.8010 F2400
G0 X24.286 Y132.325 F5400
G1 X80.037 Y188.076 E848.7346 F2400
G0 X80.602 Y188.076 F5400
G1 X24.286 Y131.760 E852.7080 F2400
G0 X24.286 Y131.194 F5400
G1 X81.168 Y188.076 E856.7214 F2400
G0 X68.723 Y188.076 F5400
G1 X24.286 Y143.639 E859.8567 F2400
G0 X24.286 Y144.205 F5400
G1 X68.157 Y188.076 E862.9521 F2400
G0 X67.592 Y188.076 F5400
G1 X24.286 Y144.770 E866.0076 F2400
G0 X24.286 Y145.336 F5400
G1 X67.026 Y188.076 E869.0231 F2400
G0 X66.460 Y188.076 F5400
G1 X23.931 Y145.547 E872.0238 F2400
G0 X23.365 Y145.547 F5400
G1 X65.894 Y188.076 E875.0245 F2400
G0 X65.329 Y188.076 F5400
G1 X22.800 Y145.547 E878.0251 F2400
G0 X22.234 Y145.547 F5400
G1 X64.763 Y188.076 E881.0258 F2400
G0 X64.197 Y188.076 F5400
G1 X21.668 Y145.547 E884.0265 F2400
G0 X21.103 Y145.547 F5400
G1 X63.632 Y188.076 E887.0272 F2400
G0 X63.066 Y188.076 F5400
G1 X20.537 Y145.547 E890.0278 F2400
G0 X19.971 Y145.547 F5400
G1 X62.500 Y188.076 E893.0285 F2400
G0 X61.935 Y188.076 F5400
G1 X24.286 Y150.427 E895.6849 F2400
G0 X24.286 Y150.993 F5400
G1 X61.369 Y188.076 E898.3013 F2400
G0 X60.803 Y188.076 F5400
G1 X24.286 Y151.559 E900.8779 F2400
G0 X24.286 Y152.124 F5400
G1 X60.465 Y188.303 E903.4305 F2400
G0 X60.465 Y188.869 F5400
G1 X24.286 Y152.690 E905.9831 F2400
G0 X24.286 Y153.256 F5400
G1 X60.465 Y189.435 E908.5357 F2400
G0 X60.465 Y190.000 F5400
G1 X24.286 Y153.821 E911.0883 F2400
G0 X24.286 Y154.387 F5400
G1 X60.465 Y190.566 E913.6409 F2400
G0 X60.465 Y191.132 F5400
G1 X24.286 Y154.953 E916.1935 F2400
G0 X24.286 Y155.519 F5400
G1 X60.465 Y191.698 E918.7462 F2400
G0 X60.465 Y192.263 F5400
G1 X24.286 Y156.084 E921.2988 F2400
G0 X24.286 Y156.650 F5400
G1 X55.712 Y188.076 E923.5161 F2400
G0 X55.146 Y188.076 F5400
G1 X24.286 Y157.216 E925.6935 F2400
G0 X24.286 Y157.781 F5400
G1 X54.581 Y188.076 E927.8310 F2400
G0 X54.015 Y188.076 F5400
G1 X24.186 Y158.247 E929.9356 F2400
G0 X23.620 Y158.247 F5400
G1 X53.449 Y188.076 E932.0402 F2400
G0 X52.884 Y188.076 F5400
G1 X23.055 Y158.247 E934.1448 F2400
G0 X22.489 Y158.247 F5400
G1 X52.318 Y188.076 E936.2495 F2400
G0 X51.752 Y188.076 F5400
G1 X21.923 Y158.247 E938.3541 F2400
G0 X21.358 Y158.247 F5400
G1 X51.187 Y188.076 E940.4587 F2400
G0 X50.621 Y188.076 F5400
G1 X20.792 Y158.247 E942.5633 F2400
G0 X20.226 Y158.247 F5400
G1 X50.055 Y188.076 E944.6679 F2400
G0 X49.490 Y188.076 F5400
G1 X24.286 Y162.872 E946.4462 F2400
G0 X24.286 Y163.438 F5400
G1 X48.924 Y188.076 E948.1845 F2400
G0 X48.358 Y188.076 F5400
G1 X24.286 Y164.004 E949.8829 F2400
G0 X24.286 Y164.569 F5400
G1 X47.793 Y188.076 E951.5415 F2400
G0 X47.765 Y188.614 F5400
G1 X24.286 Y165.135 E953.1981 F2400
G0 X24.286 Y165.701 F5400
G1 X47.765 Y189.180 E954.8546 F2400
G0 X47.765 Y189.746 F5400
G1 X24.286 Y166.267 E956.5112 F2400
G0 X24.286 Y166.832 F5400
G1 X47.765 Y190.311 E958.1677 F2400
G0 X47.765 Y190.877 F5400
G1 X24.286 Y167.398 E959.8243 F2400
G0 X24.286 Y167.964 F5400
G1 X47.765 Y191.443 E961.4808 F2400
G0 X47.765 Y192.008 F5400
G1 X24.286 Y168.529 E963.1374 F2400
G0 X24.286 Y169.095 F5400
G1 X43.267 Y188.076 E964.4766 F2400
G0 X42.701 Y188.076 F5400
G1 X24.286 Y169.661 E965.7759 F2400
G0 X24.286 Y170.226 F5400
G1 X42.136 Y188.076 E967.0353 F2400
G0 X41.570 Y188.076 F5400
G1 X24.286 Y170.792 E968.2548 F2400
G0 X23.875 Y170.948 F5400
G1 X41.004 Y188.076 E969.4634 F2400
G0 X40.439 Y188.076 F5400
G1 X23.310 Y170.948 E970.6719 F2400
G0 X22.744 Y170.948 F5400
G1 X39.873 Y188.076 E971.8805 F2400
G0 X39.307 Y188.076 F5400
G1 X22.178 Y170.948 E973.0891 F2400
G0 X21.613 Y170.948 F5400
G1 X38.742 Y188.076 E974.2976 F2400
G0 X38.176 Y188.076 F5400
G1 X21.047 Y170.948 E975.5062 F2400
G0 X20.481 Y170.948 F5400
G1 X37.610 Y188.076 E976.7147 F2400
G0 X37.045 Y188.076 F5400
G1 X19.916 Y170.948 E977.9233 F2400
G0 X19.350 Y170.948 F5400
G1 X23.779 Y175.376 E978.2358 F2400
G0 X23.213 Y175.376 F5400
G1 X18.784 Y170.948 E978.5483 F2400
G0 X18.219 Y170.948 F5400
G1 X22.648 Y175.376 E978.8608 F2400
G0 X22.082 Y175.376 F5400
G1 X17.936 Y171.230 E979.1533 F2400
G0 X17.936 Y171.796 F5400
G1 X21.516 Y175.376 E979.4059 F2400
G0 X20.950 Y175.376 F5400
G1 X17.936 Y172.362 E979.6187 F2400
G0 X17.936 Y172.927 F5400
G1 X20.385 Y175.376 E979.7914 F2400
G0 X19.819 Y175.376 F5400
G1 X17.936 Y173.493 E979.9243 F2400
G0 X17.936 Y174.059 F5400
G1 X19.253 Y175.376 E980.0173 F2400
G0 X18.688 Y175.376 F5400
G1 X17.936 Y174.624 E980.0703 F2400
G0 X24.286 Y175.883 F5400
G1 X36.479 Y188.076 E980.9306 F2400
G0 X35.913 Y188.076 F5400
G1 X24.286 Y176.449 E981.7510 F2400
G0 X24.286 Y177.015 F5400
G1 X35.347 Y188.076 E982.5314 F2400
G0 X35.064 Y188.359 F5400
G1 X24.286 Y177.580 E983.2919 F2400
G0 X24.286 Y178.146 F5400
G1 X35.064 Y188.925 E984.0524 F2400
G0 X35.064 Y189.490 F5400
G1 X24.286 Y178.712 E984.8129 F2400
G0 X24.286 Y179.277 F5400
G1 X35.064 Y190.056 E985.5734 F2400
G0 X35.064 Y190.622 F5400
G1 X24.286 Y179.843 E986.3339 F2400
G0 X24.286 Y180.409 F5400
G1 X35.064 Y191.188 E987.0944 F2400
G0 X35.064 Y191.753 F5400
G1 X24.286 Y180.974 E987.8549 F2400
G0 X24.286 Y181.540 F5400
G1 X35.064 Y192.319 E988.6154 F2400
G0 X35.064 Y192.885 F5400
G1 X30.636 Y188.456 E988.9279 F2400
G0 X30.636 Y189.021 F5400
G1 X35.064 Y193.450 E989.2404 F2400
G0 X35.064 Y194.016 F5400
G1 X30.636 Y189.587 E989.5529 F2400
G0 X30.636 Y190.153 F5400
G1 X34.909 Y194.426 E989.8544 F2400
G0 X34.344 Y194.426 F5400
G1 X30.636 Y190.718 E990.1160 F2400
G0 X30.636 Y191.284 F5400
G1 X33.778 Y194.426 E990.3377 F2400
G0 X33.212 Y194.426 F5400
G1 X30.636 Y191.850 E990.5195 F2400
G0 X30.636 Y192.415 F5400
G1 X32.646 Y194.426 E990.6614 F2400
G0 X32.081 Y194.426 F5400
G1 X30.636 Y192.981 E990.7634 F2400
G0 X30.636 Y193.547 F5400
G1 X31.515 Y194.426 E990.8254 F2400
G0 X30.949 Y194.426 F5400
G1 X30.636 Y194.113 E990.8476 F2400
G0 X30.275 Y194.105 F5400
G0 X30.275 Y188.437
G0 X22.725 Y188.437
G0 X22.725 Y193.954
G0 X22.725 Y193.954
G0 X17.922 Y193.857
G0 X17.936 Y193.858
G1 X18.504 Y194.426 E990.8877 F2400
G0 X19.070 Y194.426 F5400
G1 X17.936 Y193.292 E990.9677 F2400
G0 X17.936 Y192.726 F5400
G1 X19.636 Y194.426 E991.0876 F2400
G0 X20.201 Y194.426 F5400
G1 X17.936 Y192.161 E991.2475 F2400
G0 X17.936 Y191.595 F5400
G1 X20.767 Y194.426 E991.4473 F2400
G0 X21.333 Y194.426 F5400
G1 X17.936 Y191.029 E991.6870 F2400
G0 X17.936 Y190.464 F5400
G1 X21.898 Y194.426 E991.9666 F2400
G0 X22.365 Y194.327 F5400
G1 X17.936 Y189.898 E992.2791 F2400
G0 X17.936 Y189.332 F5400
G1 X22.365 Y193.761 E992.5916 F2400
G0 X22.365 Y193.195 F5400
G1 X17.936 Y188.767 E992.9041 F2400
G0 X17.936 Y188.201 F5400
G1 X22.365 Y192.630 E993.2166 F2400
G0 X22.365 Y192.064 F5400
G1 X17.936 Y187.635 E993.5291 F2400
G0 X17.936 Y187.069 F5400
G1 X22.365 Y191.498 E993.8416 F2400
G0 X22.365 Y190.933 F5400
G1 X17.936 Y186.504 E994.1541 F2400
G0 X17.936 Y185.938 F5400
G1 X22.365 Y190.367 E994.4666 F2400
G0 X22.365 Y189.801 F5400
G1 X17.936 Y185.372 E994.7791 F2400
G0 X17.936 Y184.807 F5400
G1 X22.365 Y189.236 E995.0916 F2400
G0 X22.365 Y188.670 F5400
G1 X17.936 Y184.241 E995.4041 F2400
G0 X17.936 Y183.675 F5400
G1 X22.365 Y188.104 E995.7166 F2400
G0 X22.902 Y188.076 F5400
G1 X18.473 Y183.648 E996.0291 F2400
G0 X19.039 Y183.648 F5400
G1 X23.468 Y188.076 E996.3416 F2400
G0 X24.034 Y188.076 F5400
G1 X19.605 Y183.648 E996.6541 F2400
G0 X20.171 Y183.648 F5400
G1 X24.599 Y188.076 E996.9666 F2400
G0 X25.165 Y188.076 F5400
G1 X20.736 Y183.648 E997.2791 F2400
G0 X21.302 Y183.648 F5400
G1 X25.731 Y188.076 E997.5916 F2400
G0 X26.296 Y188.076 F5400
G1 X21.868 Y183.648 E997.9041 F2400
G0 X22.433 Y183.648 F5400
G1 X26.862 Y188.076 E998.2166 F2400
G0 X27.428 Y188.076 F5400
G1 X22.999 Y183.648 E998.5291 F2400
G0 X23.565 Y183.648 F5400
G1 X27.994 Y188.076 E998.8416 F2400
G0 X28.559 Y188.076 F5400
G1 X24.130 Y183.648 E999.1541 F2400
G0 X24.286 Y183.237 F5400
G1 X29.125 Y188.076 E999.4955 F2400
G0 X29.691 Y188.076 F5400
G1 X24.286 Y182.671 E999.8768 F2400
G0 X24.286 Y182.106 F5400
G1 X30.256 Y188.076 E1000.2981 F2400
G0 X35.425 Y190.339 F5400
G0 X35.425 Y188.437
G0 X42.975 Y188.437
G0 X42.975 Y193.644
G0 X42.975 Y193.644
G0 X43.348 Y193.807
G0 X43.335 Y193.802
G1 X43.960 Y194.426 E1000.3422 F2400
G0 X44.526 Y194.426 F5400
G1 X43.335 Y193.236 E1000.4261 F2400
G0 X43.335 Y192.670 F5400
G1 X45.092 Y194.426 E1000.5500 F2400
G0 X45.657 Y194.426 F5400
G1 X43.335 Y192.105 E1000.7139 F2400
G0 X43.335 Y191.539 F5400
G1 X46.223 Y194.426 E1000.9176 F2400
G0 X46.789 Y194.426 F5400
G1 X43.335 Y190.973 E1001.1613 F2400
G0 X43.335 Y190.408 F5400
G1 X47.354 Y194.426 E1001.4448 F2400
G0 X47.765 Y194.271 F5400
G1 X43.335 Y189.842 E1001.7573 F2400
G0 X43.335 Y189.276 F5400
G1 X47.765 Y193.705 E1002.0698 F2400
G0 X47.765 Y193.140 F5400
G1 X43.335 Y188.711 E1002.3823 F2400
G0 X43.335 Y188.145 F5400
G1 X47.765 Y192.574 E1002.6948 F2400
G0 X48.125 Y192.639 F5400
G0 X48.125 Y188.437
G0 X55.676 Y188.437
G0 X55.676 Y193.992
G0 X55.676 Y193.992
G0 X56.049 Y194.059
G0 X56.036 Y194.057
G1 X56.405 Y194.426 E1002.7209 F2400
G0 X56.971 Y194.426 F5400
G1 X56.036 Y193.491 E1002.7869 F2400
G0 X56.036 Y192.925 F5400
G1 X57.537 Y194.426 E1002.8928 F2400
G0 X58.102 Y194.426 F5400
G1 X56.036 Y192.360 E1003.0386 F2400
G0 X56.036 Y191.794 F5400
G1 X58.668 Y194.426 E1003.2243 F2400
G0 X59.234 Y194.426 F5400
G1 X56.036 Y191.228 E1003.4500 F2400
G0 X56.036 Y190.663 F5400
G1 X59.799 Y194.426 E1003.7155 F2400
G0 X60.365 Y194.426 F5400
G1 X56.036 Y190.097 E1004.0210 F2400
G0 X56.036 Y189.531 F5400
G1 X60.465 Y193.960 E1004.3335 F2400
G0 X60.465 Y193.395 F5400
G1 X56.036 Y188.966 E1004.6460 F2400
G0 X56.036 Y188.400 F5400
G1 X60.465 Y192.829 E1004.9585 F2400
G0 X24.089 Y162.676 F5400
G1 X19.661 Y158.247 E1005.2710 F2400
G0 X19.095 Y158.247 F5400
G1 X23.524 Y162.676 E1005.5835 F2400
G0 X22.958 Y162.676 F5400
G1 X18.529 Y158.247 E1005.8960 F2400
G0 X17.964 Y158.247 F5400
G1 X22.392 Y162.676 E1006.2085 F2400
G0 X21.827 Y162.676 F5400
G1 X17.936 Y158.785 E1006.4830 F2400
G0 X17.936 Y159.351 F5400
G1 X21.261 Y162.676 E1006.7177 F2400
G0 X20.695 Y162.676 F5400
G1 X17.936 Y159.917 E1006.9124 F2400
G0 X17.936 Y160.482 F5400
G1 X20.130 Y162.676 E1007.0671 F2400
G0 X19.564 Y162.676 F5400
G1 X17.936 Y161.048 E1007.1820 F2400
G0 X17.936 Y161.614 F5400
G1 X18.998 Y162.676 E1007.2570 F2400
G0 X18.433 Y162.676 F5400
G1 X17.936 Y162.179 E1007.2921 F2400
G0 X17.936 Y157.887 F5400
G0 X23.925 Y157.887
G0 X23.925 Y150.336
G0 X17.936 Y150.336
G0 X17.936 Y150.336
G0 X17.936 Y149.155
G0 X17.936 Y149.169
G1 X18.743 Y149.976 E1007.3491 F2400
G0 X19.309 Y149.976 F5400
G1 X17.936 Y148.603 E1007.4460 F2400
G0 X17.936 Y148.037 F5400
G1 X19.875 Y149.976 E1007.5828 F2400
G0 X20.440 Y149.976 F5400
G1 X17.936 Y147.471 E1007.7596 F2400
G0 X17.936 Y146.906 F5400
G1 X21.006 Y149.976 E1007.9763 F2400
G0 X21.572 Y149.976 F5400
G1 X17.936 Y146.340 E1008.2328 F2400
G0 X17.936 Y145.774 F5400
G1 X22.138 Y149.976 E1008.5292 F2400
G0 X22.703 Y149.976 F5400
G1 X18.274 Y145.547 E1008.8417 F2400
G0 X18.840 Y145.547 F5400
G1 X23.269 Y149.976 E1009.1542 F2400
G0 X23.835 Y149.976 F5400
G1 X19.406 Y145.547 E1009.4667 F2400
G0 X19.346 Y145.187 F5400
G0 X23.925 Y145.187
G0 X23.925 Y137.637
G0 X18.088 Y137.637
G0 X18.088 Y137.637
G0 X17.933 Y136.710
G0 X17.936 Y136.723
G1 X18.489 Y137.276 E1009.5057 F2400
G0 X19.054 Y137.276 F5400
G1 X17.936 Y136.158 E1009.5847 F2400
G0 X17.936 Y135.592 F5400
G1 X19.620 Y137.276 E1009.7035 F2400
G0 X20.186 Y137.276 F5400
G1 X17.936 Y135.026 E1009.8622 F2400
G0 X17.936 Y134.461 F5400
G1 X20.751 Y137.276 E1010.0609 F2400
G0 X21.317 Y137.276 F5400
G1 X17.936 Y133.895 E1010.2995 F2400
G0 X17.936 Y133.329 F5400
G1 X21.883 Y137.276 E1010.5780 F2400
G0 X22.448 Y137.276 F5400
G1 X18.019 Y132.848 E1010.8905 F2400
G0 X18.585 Y132.848 F5400
G1 X23.014 Y137.276 E1011.2030 F2400
G0 X23.580 Y137.276 F5400
G1 X19.151 Y132.848 E1011.5155 F2400
G0 X19.717 Y132.848 F5400
G1 X24.145 Y137.276 E1011.8280 F2400
G0 X24.286 Y137.417 F5400
G1 X74.945 Y188.076 E1015.4023 F2400
G0 X74.380 Y188.076 F5400
G1 X24.286 Y137.982 E1018.9368 F2400
G0 X24.286 Y138.548 F5400
G1 X73.814 Y188.076 E1022.4313 F2400
G0 X73.248 Y188.076 F5400
G1 X24.286 Y139.114 E1025.8859 F2400
G0 X24.286 Y139.679 F5400
G1 X73.165 Y188.558 E1029.3346 F2400
G0 X73.165 Y189.124 F5400
G1 X24.286 Y140.245 E1032.7833 F2400
G0 X24.286 Y140.811 F5400
G1 X73.165 Y189.690 E1036.2321 F2400
G0 X73.165 Y190.255 F5400
G1 X24.286 Y141.376 E1039.6808 F2400
G0 X24.286 Y141.942 F5400
G1 X73.165 Y190.821 E1043.1295 F2400
G0 X73.165 Y191.387 F5400
G1 X24.286 Y142.508 E1046.5782 F2400
G0 X24.286 Y143.073 F5400
G1 X73.165 Y191.952 E1050.0270 F2400
G0 X73.165 Y192.518 F5400
G1 X68.736 Y188.089 E1050.3395 F2400
G0 X68.736 Y188.655 F5400
G1 X73.165 Y193.084 E1050.6520 F2400
G0 X73.165 Y193.649 F5400
G1 X68.736 Y189.221 E1050.9645 F2400
G0 X68.736 Y189.786 F5400
G1 X73.165 Y194.215 E1051.2770 F2400
G0 X72.810 Y194.426 F5400
G1 X68.736 Y190.352 E1051.5645 F2400
G0 X68.736 Y190.918 F5400
G1 X72.244 Y194.426 E1051.8120 F2400
G0 X71.679 Y194.426 F5400
G1 X68.736 Y191.483 E1052.0197 F2400
G0 X68.736 Y192.049 F5400
G1 X71.113 Y194.426 E1052.1874 F2400
G0 X70.547 Y194.426 F5400
G1 X68.736 Y192.615 E1052.3152 F2400
G0 X68.736 Y193.180 F5400
G1 X69.982 Y194.426 E1052.4031 F2400
G0 X69.416 Y194.426 F5400
G1 X68.736 Y193.746 E1052.4510 F2400
G0 X73.525 Y193.842 F5400
G0 X73.525 Y188.437
G0 X81.075 Y188.437
G0 X81.075 Y193.994
G0 X81.075 Y193.994
G0 X81.449 Y194.001
G0 X81.436 Y194.001
G1 X81.861 Y194.426 E1052.4811 F2400
G0 X82.427 Y194.426 F5400
G1 X81.436 Y193.435 E1052.5510 F2400
G0 X81.436 Y192.869 F5400
G1 X82.992 Y194.426 E1052.6609 F2400
G0 X83.558 Y194.426 F5400
G1 X81.436 Y192.304 E1052.8107 F2400
G0 X81.436 Y191.738 F5400
G1 X84.124 Y194.426 E1053.0004 F2400
G0 X84.690 Y194.426 F5400
G1 X81.436 Y191.172 E1053.2300 F2400
G0 X81.436 Y190.607 F5400
G1 X85.255 Y194.426 E1053.4995 F2400
G0 X85.821 Y194.426 F5400
G1 X81.436 Y190.041 E1053.8090 F2400
G0 X81.436 Y189.475 F5400
G1 X85.864 Y193.904 E1054.1215 F2400
G0 X85.864 Y193.339 F5400
G1 X81.436 Y188.910 E1054.4340 F2400
G0 X81.436 Y188.344 F5400
G1 X85.864 Y192.773 E1054.7465 F2400
G0 X85.864 Y192.207 F5400
G1 X24.286 Y130.628 E1059.0912 F2400
G0 X24.286 Y130.063 F5400
G1 X85.864 Y191.642 E1063.4359 F2400
G0 X85.864 Y191.076 F5400
G1 X24.286 Y129.497 E1067.7806 F2400
G0 X24.286 Y128.931 F5400
G1 X85.864 Y190.510 E1072.1254 F2400
G0 X85.864 Y189.944 F5400
G1 X24.286 Y128.366 E1076.4701 F2400
G0 X24.286 Y127.800 F5400
G1 X85.864 Y189.379 E1080.8148 F2400
G0 X85.864 Y188.813 F5400
G1 X24.286 Y127.234 E1085.1595 F2400
G0 X24.286 Y126.669 F5400
G1 X85.864 Y188.247 E1089.5043 F2400
G0 X86.259 Y188.076 F5400
G1 X24.286 Y126.103 E1093.8768 F2400
G0 X24.286 Y125.537 F5400
G1 X86.825 Y188.076 E1098.2893 F2400
G0 X87.391 Y188.076 F5400
G1 X24.286 Y124.971 E1102.7417 F2400
G0 X23.891 Y124.576 F5400
G1 X19.462 Y120.148 E1103.0542 F2400
G0 X18.896 Y120.148 F5400
G1 X23.325 Y124.576 E1103.3667 F2400
G0 X22.759 Y124.576 F5400
G1 X18.330 Y120.148 E1103.6792 F2400
G0 X17.936 Y120.319 F5400
G1 X22.194 Y124.576 E1103.9796 F2400
G0 X21.628 Y124.576 F5400
G1 X17.936 Y120.884 E1104.2401 F2400
G0 X17.936 Y121.450 F5400
G1 X21.062 Y124.576 E1104.4607 F2400
G0 X20.496 Y124.576 F5400
G1 X17.936 Y122.016 E1104.6414 F2400
G0 X17.936 Y122.581 F5400
G1 X19.931 Y124.576 E1104.7821 F2400
G0 X19.365 Y124.576 F5400
G1 X17.936 Y123.147 E1104.8829 F2400
G0 X17.936 Y123.713 F5400
G1 X18.799 Y124.576 E1104.9438 F2400
G0 X18.234 Y124.576 F5400
G1 X17.936 Y124.278 E1104.9648 F2400
G0 X20.027 Y120.148 F5400
G1 X87.956 Y188.076 E1109.7576 F2400
G0 X88.522 Y188.076 F5400
G1 X20.593 Y120.148 E1114.5503 F2400
G0 X21.159 Y120.148 F5400
G1 X89.088 Y188.076 E1119.3430 F2400
G0 X89.653 Y188.076 F5400
G1 X21.724 Y120.148 E1124.1357 F2400
G0 X22.290 Y120.148 F5400
G1 X90.219 Y188.076 E1128.9285 F2400
G0 X90.785 Y188.076 F5400
G1 X22.856 Y120.148 E1133.7212 F2400
G0 X23.421 Y120.148 F5400
G1 X91.350 Y188.076 E1138.5139 F2400
G0 X91.916 Y188.076 F5400
G1 X23.987 Y120.148 E1143.3066 F2400
G0 X24.286 Y119.880 F5400
G1 X92.482 Y188.076 E1148.1183 F2400
G0 X93.047 Y188.076 F5400
G1 X24.286 Y119.315 E1152.9698 F2400
G0 X24.286 Y118.749 F5400
G1 X93.613 Y188.076 E1157.8613 F2400
G0 X94.135 Y188.599 F5400
G1 X98.565 Y193.028 E1158.1738 F2400
G0 X98.565 Y193.594 F5400
G1 X94.135 Y189.165 E1158.4863 F2400
G0 X94.135 Y189.730 F5400
G1 X98.565 Y194.159 E1158.7988 F2400
G0 X98.266 Y194.426 F5400
G1 X94.135 Y190.296 E1159.0902 F2400
G0 X94.135 Y190.862 F5400
G1 X97.700 Y194.426 E1159.3417 F2400
G0 X97.135 Y194.426 F5400
G1 X94.135 Y191.427 E1159.5532 F2400
G0 X94.135 Y191.993 F5400
G1 X96.569 Y194.426 E1159.7249 F2400
G0 X96.003 Y194.426 F5400
G1 X94.135 Y192.559 E1159.8567 F2400
G0 X94.135 Y193.124 F5400
G1 X95.438 Y194.426 E1159.9486 F2400
G0 X94.872 Y194.426 F5400
G1 X94.135 Y193.690 E1160.0006 F2400
G0 X98.925 Y193.786 F5400
G0 X98.925 Y188.437
G0 X106.476 Y188.437
G0 X106.476 Y193.938
G0 X106.476 Y193.938
G0 X106.849 Y193.945
G0 X106.836 Y193.945
G1 X107.317 Y194.426 E1160.0345 F2400
G0 X107.883 Y194.426 F5400
G1 X106.836 Y193.379 E1160.1084 F2400
G0 X106.836 Y192.814 F5400
G1 X108.448 Y194.426 E1160.2222 F2400
G0 X109.014 Y194.426 F5400
G1 X106.836 Y192.248 E1160.3759 F2400
G0 X106.836 Y191.682 F5400
G1 X109.580 Y194.426 E1160.5695 F2400
G0 X110.145 Y194.426 F5400
G1 X106.836 Y191.117 E1160.8030 F2400
G0 X106.836 Y190.551 F5400
G1 X110.711 Y194.426 E1161.0764 F2400
G0 X111.265 Y194.414 F5400
G1 X106.836 Y189.985 E1161.3889 F2400
G0 X106.836 Y189.420 F5400
G1 X111.265 Y193.849 E1161.7014 F2400
G0 X111.265 Y193.283 F5400
G1 X106.836 Y188.854 E1162.0139 F2400
G0 X106.836 Y188.288 F5400
G1 X111.265 Y192.717 E1162.3264 F2400
G0 X111.265 Y192.151 F5400
G1 X32.910 Y113.797 E1167.8547 F2400
G0 X33.476 Y113.797 F5400
G1 X111.265 Y191.586 E1173.3431 F2400
G0 X111.265 Y191.020 F5400
G1 X34.042 Y113.797 E1178.7916 F2400
G0 X34.607 Y113.797 F5400
G1 X111.265 Y190.454 E1184.2002 F2400
G0 X111.265 Y189.889 F5400
G1 X35.173 Y113.797 E1189.5688 F2400
G0 X35.739 Y113.797 F5400
G1 X111.265 Y189.323 E1194.8976 F2400
G0 X111.265 Y188.757 F5400
G1 X36.305 Y113.797 E1200.1864 F2400
G0 X36.870 Y113.797 F5400
G1 X111.265 Y188.192 E1205.4353 F2400
G0 X111.265 Y187.626 F5400
G1 X37.436 Y113.797 E1210.6443 F2400
G0 X38.002 Y113.797 F5400
G1 X111.265 Y187.060 E1215.8134 F2400
G0 X111.265 Y186.495 F5400
G1 X38.567 Y113.797 E1220.9425 F2400
G0 X39.133 Y113.797 F5400
G1 X111.265 Y185.929 E1226.0317 F2400
G0 X111.265 Y185.363 F5400
G1 X39.699 Y113.797 E1231.0811 F2400
G0 X40.264 Y113.797 F5400
G1 X111.265 Y184.798 E1236.0905 F2400
G0 X111.265 Y184.232 F5400
G1 X40.830 Y113.797 E1241.0599 F2400
G0 X41.396 Y113.797 F5400
G1 X111.265 Y183.666 E1245.9895 F2400
G0 X111.265 Y183.101 F5400
G1 X41.961 Y113.797 E1250.8793 F2400
G0 X42.527 Y113.797 F5400
G1 X111.265 Y182.535 E1255.7291 F2400
G0 X111.265 Y181.969 F5400
G1 X43.093 Y113.797 E1260.5391 F2400
G0 X43.658 Y113.797 F5400
G1 X111.265 Y181.403 E1265.3091 F2400
G0 X111.265 Y180.838 F5400
G1 X44.224 Y113.797 E1270.0392 F2400
G0 X44.790 Y113.797 F5400
G1 X111.265 Y180.272 E1274.7294 F2400
G0 X111.265 Y179.706 F5400
G1 X45.356 Y113.797 E1279.3796 F2400
G0 X45.921 Y113.797 F5400
G1 X111.265 Y179.141 E1283.9900 F2400
G0 X111.265 Y178.575 F5400
G1 X46.487 Y113.797 E1288.5604 F2400
G0 X47.053 Y113.797 F5400
G1 X111.265 Y178.009 E1293.0909 F2400
G0 X111.265 Y177.444 F5400
G1 X47.618 Y113.797 E1297.5815 F2400
G0 X48.184 Y113.797 F5400
G1 X111.265 Y176.878 E1302.0322 F2400
G0 X111.265 Y176.312 F5400
G1 X48.750 Y113.797 E1306.4430 F2400
G0 X49.315 Y113.797 F5400
G1 X111.265 Y175.747 E1310.8138 F2400
G0 X111.265 Y175.181 F5400
G1 X49.881 Y113.797 E1315.1448 F2400
G0 X50.447 Y113.797 F5400
G1 X111.265 Y174.615 E1319.4358 F2400
G0 X111.265 Y174.050 F5400
G1 X51.012 Y113.797 E1323.6869 F2400
G0 X51.578 Y113.797 F5400
G1 X111.265 Y173.484 E1327.8981 F2400
G0 X111.265 Y172.918 F5400
G1 X52.144 Y113.797 E1332.0693 F2400
G0 X52.709 Y113.797 F5400
G1 X111.265 Y172.353 E1336.2007 F2400
G0 X111.265 Y171.787 F5400
G1 X53.275 Y113.797 E1340.2921 F2400
G0 X53.841 Y113.797 F5400
G1 X111.265 Y171.221 E1344.3436 F2400
G0 X111.265 Y170.655 F5400
G1 X54.406 Y113.797 E1348.3552 F2400
G0 X54.972 Y113.797 F5400
G1 X111.265 Y170.090 E1352.3269 F2400
G0 X111.265 Y169.524 F5400
G1 X55.538 Y113.797 E1356.2587 F2400
G0 X56.104 Y113.797 F5400
G1 X111.265 Y168.958 E1360.1506 F2400
G0 X111.265 Y168.393 F5400
G1 X56.669 Y113.797 E1364.0027 F2400
G0 X57.235 Y113.797 F5400
G1 X111.265 Y167.827 E1367.8148 F2400
G0 X111.265 Y167.261 F5400
G1 X57.801 Y113.797 E1371.5870 F2400
G0 X58.366 Y113.797 F5400
G1 X111.265 Y166.696 E1375.3193 F2400
G0 X111.265 Y166.130 F5400
G1 X58.932 Y113.797 E1379.0117 F2400
G0 X59.498 Y113.797 F5400
G1 X111.265 Y165.564 E1382.6642 F2400
G0 X111.265 Y164.999 F5400
G1 X60.063 Y113.797 E1386.2767 F2400
G0 X60.629 Y113.797 F5400
G1 X111.265 Y164.433 E1389.8494 F2400
G0 X111.265 Y163.867 F5400
G1 X61.195 Y113.797 E1393.3821 F2400
G0 X61.760 Y113.797 F5400
G1 X111.265 Y163.302 E1396.8749 F2400
G0 X111.265 Y162.736 F5400
G1 X62.326 Y113.797 E1400.3278 F2400
G0 X62.892 Y113.797 F5400
G1 X111.771 Y162.676 E1403.7765 F2400
G0 X112.336 Y162.676 F5400
G1 X63.457 Y113.797 E1407.2252 F2400
G0 X64.023 Y113.797 F5400
G1 X112.902 Y162.676 E1410.6740 F2400
G0 X113.468 Y162.676 F5400
G1 X64.589 Y113.797 E1414.1227 F2400
G0 X65.154 Y113.797 F5400
G1 X114.033 Y162.676 E1417.5714 F2400
G0 X114.599 Y162.676 F5400
G1 X65.720 Y113.797 E1421.0201 F2400
G0 X66.286 Y113.797 F5400
G1 X115.165 Y162.676 E1424.4689 F2400
G0 X115.730 Y162.676 F5400
G1 X66.852 Y113.797 E1427.9176 F2400
G0 X67.417 Y113.797 F5400
G1 X116.296 Y162.676 E1431.3663 F2400
G0 X116.862 Y162.676 F5400
G1 X67.983 Y113.797 E1434.8151 F2400
G0 X68.549 Y113.797 F5400
G1 X117.428 Y162.676 E1438.2638 F2400
G0 X117.993 Y162.676 F5400
G1 X69.114 Y113.797 E1441.7125 F2400
G0 X69.680 Y113.797 F5400
G1 X118.559 Y162.676 E1445.1613 F2400
G0 X119.125 Y162.676 F5400
G1 X70.246 Y113.797 E1448.6100 F2400
G0 X70.811 Y113.797 F5400
G1 X119.690 Y162.676 E1452.0587 F2400
G0 X120.256 Y162.676 F5400
G1 X71.377 Y113.797 E1455.5074 F2400
G0 X71.943 Y113.797 F5400
G1 X120.822 Y162.676 E1458.9562 F2400
G0 X121.387 Y162.676 F5400
G1 X72.508 Y113.797 E1462.4049 F2400
G0 X73.074 Y113.797 F5400
G1 X121.953 Y162.676 E1465.8536 F2400
G0 X122.519 Y162.676 F5400
G1 X73.640 Y113.797 E1469.3024 F2400
G0 X74.205 Y113.797 F5400
G1 X123.084 Y162.676 E1472.7511 F2400
G0 X123.650 Y162.676 F5400
G1 X74.771 Y113.797 E1476.1998 F2400
G0 X75.337 Y113.797 F5400
G1 X124.216 Y162.676 E1479.6486 F2400
G0 X124.781 Y162.676 F5400
G1 X75.903 Y113.797 E1483.0973 F2400
G0 X76.468 Y113.797 F5400
G1 X125.347 Y162.676 E1486.5460 F2400
G0 X125.913 Y162.676 F5400
G1 X77.034 Y113.797 E1489.9948 F2400
G0 X77.600 Y113.797 F5400
G1 X126.479 Y162.676 E1493.4435 F2400
G0 X127.044 Y162.676 F5400
G1 X78.165 Y113.797 E1496.8922 F2400
G0 X78.731 Y113.797 F5400
G1 X127.610 Y162.676 E1500.3409 F2400
G0 X128.176 Y162.676 F5400
G1 X79.297 Y113.797 E1503.7897 F2400
G0 X79.862 Y113.797 F5400
G1 X128.741 Y162.676 E1507.2384 F2400
G0 X129.307 Y162.676 F5400
G1 X80.428 Y113.797 E1510.6871 F2400
G0 X80.994 Y113.797 F5400
G1 X129.873 Y162.676 E1514.1359 F2400
G0 X130.438 Y162.676 F5400
G1 X81.559 Y113.797 E1517.5846 F2400
G0 X82.125 Y113.797 F5400
G1 X131.004 Y162.676 E1521.0333 F2400
G0 X131.570 Y162.676 F5400
G1 X82.691 Y113.797 E1524.4821 F2400
G0 X83.256 Y113.797 F5400
G1 X132.135 Y162.676 E1527.9308 F2400
G0 X132.701 Y162.676 F5400
G1 X83.822 Y113.797 E1531.3795 F2400
G0 X84.388 Y113.797 F5400
G1 X133.267 Y162.676 E1534.8282 F2400
G0 X133.832 Y162.676 F5400
G1 X84.953 Y113.797 E1538.2770 F2400
G0 X85.519 Y113.797 F5400
G1 X134.398 Y162.676 E1541.7257 F2400
G0 X134.964 Y162.676 F5400
G1 X86.085 Y113.797 E1545.1744 F2400
G0 X86.651 Y113.797 F5400
G1 X135.529 Y162.676 E1548.6232 F2400
G0 X136.095 Y162.676 F5400
G1 X87.216 Y113.797 E1552.0719 F2400
G0 X87.782 Y113.797 F5400
G1 X136.661 Y162.676 E1555.5206 F2400
G0 X137.227 Y162.676 F5400
G1 X88.348 Y113.797 E1558.9694 F2400
G0 X88.913 Y113.797 F5400
G1 X137.792 Y162.676 E1562.4181 F2400
G0 X138.358 Y162.676 F5400
G1 X89.479 Y113.797 E1565.8668 F2400
G0 X90.045 Y113.797 F5400
G1 X138.924 Y162.676 E1569.3156 F2400
G0 X139.489 Y162.676 F5400
G1 X90.610 Y113.797 E1572.7643 F2400
G0 X91.176 Y113.797 F5400
G1 X140.055 Y162.676 E1576.2130 F2400
G0 X140.621 Y162.676 F5400
G1 X91.742 Y113.797 E1579.6617 F2400
G0 X92.307 Y113.797 F5400
G1 X141.186 Y162.676 E1583.1105 F2400
G0 X141.752 Y162.676 F5400
G1 X92.873 Y113.797 E1586.5592 F2400
G0 X93.439 Y113.797 F5400
G1 X142.318 Y162.676 E1590.0079 F2400
G0 X142.883 Y162.676 F5400
G1 X94.004 Y113.797 E1593.4567 F2400
G0 X94.570 Y113.797 F5400
G1 X143.449 Y162.676 E1596.9054 F2400
G0 X144.015 Y162.676 F5400
G1 X95.136 Y113.797 E1600.3541 F2400
G0 X95.702 Y113.797 F5400
G1 X144.580 Y162.676 E1603.8029 F2400
G0 X145.146 Y162.676 F5400
G1 X96.267 Y113.797 E1607.2516 F2400
G0 X96.833 Y113.797 F5400
G1 X145.712 Y162.676 E1610.7003 F2400
G0 X146.278 Y162.676 F5400
G1 X97.399 Y113.797 E1614.1490 F2400
G0 X97.964 Y113.797 F5400
G1 X146.843 Y162.676 E1617.5978 F2400
G0 X147.409 Y162.676 F5400
G1 X98.530 Y113.797 E1621.0465 F2400
G0 X99.096 Y113.797 F5400
G1 X147.975 Y162.676 E1624.4952 F2400
G0 X148.540 Y162.676 F5400
G1 X99.661 Y113.797 E1627.9440 F2400
G0 X100.227 Y113.797 F5400
G1 X149.106 Y162.676 E1631.3927 F2400
G0 X149.672 Y162.676 F5400
G1 X100.793 Y113.797 E1634.8414 F2400
G0 X101.358 Y113.797 F5400
G1 X150.237 Y162.676 E1638.2902 F2400
G0 X150.803 Y162.676 F5400
G1 X101.924 Y113.797 E1641.7389 F2400
G0 X102.490 Y113.797 F5400
G1 X151.369 Y162.676 E1645.1876 F2400
G0 X151.934 Y162.676 F5400
G1 X103.055 Y113.797 E1648.6364 F2400
G0 X103.621 Y113.797 F5400
G1 X152.500 Y162.676 E1652.0851 F2400
G0 X153.066 Y162.676 F5400
G1 X104.187 Y113.797 E1655.5338 F2400
G0 X104.752 Y113.797 F5400
G1 X153.631 Y162.676 E1658.9825 F2400
G0 X154.197 Y162.676 F5400
G1 X105.318 Y113.797 E1662.4313 F2400
G0 X105.884 Y113.797 F5400
G1 X154.763 Y162.676 E1665.8800 F2400
G0 X155.328 Y162.676 F5400
G1 X106.450 Y113.797 E1669.3287 F2400
G0 X107.015 Y113.797 F5400
G1 X155.894 Y162.676 E1672.7775 F2400
G0 X156.460 Y162.676 F5400
G1 X107.581 Y113.797 E1676.2262 F2400
G0 X108.147 Y113.797 F5400
G1 X157.026 Y162.676 E1679.6750 F2400
G0 X157.591 Y162.676 F5400
G1 X108.712 Y113.797 E1683.1236 F2400
G0 X109.278 Y113.797 F5400
G1 X187.464 Y191.984 E1688.6402 F2400
G0 X187.464 Y191.418 F5400
G1 X109.844 Y113.797 E1694.1166 F2400
G0 X110.409 Y113.797 F5400
G1 X187.464 Y190.852 E1699.5534 F2400
G0 X187.464 Y190.287 F5400
G1 X110.975 Y113.797 E1704.9500 F2400
G0 X111.541 Y113.797 F5400
G1 X187.464 Y189.721 E1710.3068 F2400
G0 X187.464 Y189.155 F5400
G1 X112.106 Y113.797 E1715.6238 F2400
G0 X112.672 Y113.797 F5400
G1 X187.464 Y188.590 E1720.9008 F2400
G0 X187.517 Y188.076 F5400
G1 X113.238 Y113.797 E1726.1416 F2400
G0 X113.803 Y113.797 F5400
G1 X188.083 Y188.076 E1731.3824 F2400
G0 X188.648 Y188.076 F5400
G1 X114.369 Y113.797 E1736.6232 F2400
G0 X114.935 Y113.797 F5400
G1 X189.214 Y188.076 E1741.8642 F2400
G0 X189.780 Y188.076 F5400
G1 X115.500 Y113.797 E1747.1050 F2400
G0 X116.066 Y113.797 F5400
G1 X190.345 Y188.076 E1752.3458 F2400
G0 X190.911 Y188.076 F5400
G1 X116.632 Y113.797 E1757.5866 F2400
G0 X117.198 Y113.797 F5400
G1 X191.477 Y188.076 E1762.8276 F2400
G0 X192.042 Y188.076 F5400
G1 X117.763 Y113.797 E1768.0684 F2400
G0 X118.329 Y113.797 F5400
G1 X192.608 Y188.076 E1773.3092 F2400
G0 X193.174 Y188.076 F5400
G1 X118.895 Y113.797 E1778.5500 F2400
G0 X119.460 Y113.797 F5400
G1 X193.739 Y188.076 E1783.7908 F2400
G0 X194.305 Y188.076 F5400
G1 X120.026 Y113.797 E1789.0318 F2400
G0 X120.592 Y113.797 F5400
G1 X194.871 Y188.076 E1794.2726 F2400
G0 X195.436 Y188.076 F5400
G1 X121.157 Y113.797 E1799.5134 F2400
G0 X121.723 Y113.797 F5400
G1 X200.164 Y192.239 E1805.0478 F2400
G0 X200.164 Y191.673 F5400
G1 X122.289 Y113.797 E1810.5424 F2400
G0 X122.854 Y113.797 F5400
G1 X200.164 Y191.107 E1815.9970 F2400
G0 X200.164 Y190.542 F5400
G1 X123.420 Y113.797 E1821.4116 F2400
G0 X123.986 Y113.797 F5400
G1 X200.164 Y189.976 E1826.7864 F2400
G0 X200.164 Y189.410 F5400
G1 X124.551 Y113.797 E1832.1214 F2400
G0 X125.117 Y113.797 F5400
G1 X200.164 Y188.845 E1837.4164 F2400
G0 X200.164 Y188.279 F5400
G1 X125.683 Y113.797 E1842.6716 F2400
G0 X126.249 Y113.797 F5400
G1 X200.528 Y188.076 E1847.9124 F2400
G0 X201.093 Y188.076 F5400
G1 X126.814 Y113.797 E1853.1532 F2400
G0 X127.380 Y113.797 F5400
G1 X201.659 Y188.076 E1858.3940 F2400
G0 X202.225 Y188.076 F5400
G1 X127.946 Y113.797 E1863.6348 F2400
G0 X128.511 Y113.797 F5400
G1 X202.790 Y188.076 E1868.8758 F2400
G0 X203.356 Y188.076 F5400
G1 X129.077 Y113.797 E1874.1166 F2400
G0 X129.643 Y113.797 F5400
G1 X203.922 Y188.076 E1879.3574 F2400
G0 X204.487 Y188.076 F5400
G1 X130.208 Y113.797 E1884.5982 F2400
G0 X130.774 Y113.797 F5400
G1 X205.053 Y188.076 E1889.8392 F2400
G0 X205.619 Y188.076 F5400
G1 X131.340 Y113.797 E1895.0800 F2400
G0 X131.905 Y113.797 F5400
G1 X206.184 Y188.076 E1900.3208 F2400
G0 X206.750 Y188.076 F5400
G1 X132.471 Y113.797 E1905.5616 F2400
G0 X133.037 Y113.797 F5400
G1 X207.316 Y188.076 E1910.8024 F2400
G0 X207.882 Y188.076 F5400
G1 X133.602 Y113.797 E1916.0434 F2400
G0 X134.168 Y113.797 F5400
G1 X212.865 Y192.494 E1921.5958 F2400
G0 X212.865 Y191.928 F5400
G1 X134.734 Y113.797 E1927.1084 F2400
G0 X135.299 Y113.797 F5400
G1 X212.865 Y191.362 E1932.5810 F2400
G0 X212.865 Y190.797 F5400
G1 X135.865 Y113.797 E1938.0138 F2400
G0 X136.431 Y113.797 F5400
G1 X212.865 Y190.231 E1943.4066 F2400
G0 X212.865 Y189.665 F5400
G1 X136.997 Y113.797 E1948.7596 F2400
G0 X137.562 Y113.797 F5400
G1 X212.865 Y189.100 E1954.0726 F2400
G0 X212.865 Y188.534 F5400
G1 X138.128 Y113.797 E1959.3456 F2400
G0 X138.694 Y113.797 F5400
G1 X212.973 Y188.076 E1964.5864 F2400
G0 X213.538 Y188.076 F5400
G1 X139.259 Y113.797 E1969.8272 F2400
G0 X139.825 Y113.797 F5400
G1 X214.104 Y188.076 E1975.0682 F2400
G0 X214.670 Y188.076 F5400
G1 X140.391 Y113.797 E1980.3090 F2400
G0 X140.956 Y113.797 F5400
G1 X215.235 Y188.076 E1985.5498 F2400
G0 X215.801 Y188.076 F5400
G1 X141.522 Y113.797 E1990.7906 F2400
G0 X142.088 Y113.797 F5400
G1 X216.367 Y188.076 E1996.0314 F2400
G0 X216.933 Y188.076 F5400
G1 X142.653 Y113.797 E2001.2724 F2400
G0 X143.219 Y113.797 F5400
G1 X217.498 Y188.076 E2006.5132 F2400
G0 X218.064 Y188.076 F5400
G1 X143.785 Y113.797 E2011.7540 F2400
G0 X144.350 Y113.797 F5400
G1 X218.630 Y188.076 E2016.9948 F2400
G0 X219.195 Y188.076 F5400
G1 X144.916 Y113.797 E2022.2358 F2400
G0 X145.482 Y113.797 F5400
G1 X219.761 Y188.076 E2027.4766 F2400
G0 X220.327 Y188.076 F5400
G1 X146.047 Y113.797 E2032.7174 F2400
G0 X146.613 Y113.797 F5400
G1 X220.892 Y188.076 E2037.9582 F2400
G0 X238.270 Y170.948 F5400
G1 X242.699 Y175.376 E2038.2708 F2400
G0 X243.265 Y175.376 F5400
G1 X238.836 Y170.948 E2038.5832 F2400
G0 X239.402 Y170.948 F5400
G1 X243.830 Y175.376 E2038.8958 F2400
G0 X244.396 Y175.376 F5400
G1 X239.967 Y170.948 E2039.2082 F2400
G0 X240.533 Y170.948 F5400
G1 X244.614 Y175.029 E2039.4962 F2400
G0 X244.614 Y174.463 F5400
G1 X241.099 Y170.948 E2039.7442 F2400
G0 X241.664 Y170.948 F5400
G1 X244.614 Y173.898 E2039.9524 F2400
G0 X244.614 Y173.332 F5400
G1 X242.230 Y170.948 E2040.1206 F2400
G0 X242.796 Y170.948 F5400
G1 X244.614 Y172.766 E2040.2490 F2400
G0 X244.614 Y172.201 F5400
G1 X243.361 Y170.948 E2040.3372 F2400
G0 X243.927 Y170.948 F5400
G1 X244.614 Y171.635 E2040.3858 F2400
G0 X244.614 Y170.587 F5400
G0 X238.625 Y170.587
G0 X238.625 Y163.036
G0 X244.614 Y163.036
G0 X244.614 Y163.036
G0 X244.614 Y157.887
G0 X244.614 Y157.887
G0 X238.625 Y157.887
G0 X238.625 Y150.336
G0 X244.614 Y150.336
G0 X244.614 Y150.336
G0 X244.614 Y146.166
G0 X244.614 Y146.179
G1 X243.983 Y145.547 E2040.4302 F2400
G0 X243.417 Y145.547 F5400
G1 X244.614 Y146.745 E2040.5148 F2400
G0 X244.614 Y147.310 F5400
G1 X242.851 Y145.547 E2040.6392 F2400
G0 X242.286 Y145.547 F5400
G1 X244.614 Y147.876 E2040.8034 F2400
G0 X244.614 Y148.442 F5400
G1 X241.720 Y145.547 E2041.0076 F2400
G0 X241.154 Y145.547 F5400
G1 X244.614 Y149.007 E2041.2518 F2400
G0 X244.614 Y149.573 F5400
G1 X240.589 Y145.547 E2041.5358 F2400
G0 X240.023 Y145.547 F5400
G1 X244.452 Y149.976 E2041.8484 F2400
G0 X243.886 Y149.976 F5400
G1 X239.457 Y145.547 E2042.1608 F2400
G0 X238.892 Y145.547 F5400
G1 X243.321 Y149.976 E2042.4734 F2400
G0 X242.755 Y149.976 F5400
G1 X238.326 Y145.547 E2042.7858 F2400
G0 F3000 E2041.7858
G0 X241.568 Y26.036 F5400
G0 F3000 E2042.7858
G1 X230.789 Y15.257 E2043.5464 F2400
G0 X231.355 Y15.257 F5400
G1 X237.253 Y21.155 E2043.9626 F2400
;segType:Perimeter
G0 X237.273 Y20.847 F5400
G1 X238.073 Y20.847 E2044.0024 F1439
G1 X244.363 Y20.847 E2044.3162
G1 X244.363 Y26.796 E2044.6130
G1 X238.013 Y26.796 E2044.9298
G1 X238.013 Y33.547 E2045.2666
G1 X244.363 Y33.547 E2045.5834
G1 X244.363 Y39.496 E2045.8802
G1 X238.013 Y39.496 E2046.1968
G1 X238.013 Y46.247 E2046.5336
G1 X244.363 Y46.247 E2046.8504
G1 X244.363 Y52.196 E2047.1474
G1 X238.013 Y52.196 E2047.4642
G1 X238.013 Y58.947 E2047.8010
G1 X244.363 Y58.947 E2048.1176
G1 X244.363 Y64.896 E2048.4146
G1 X238.013 Y64.896 E2048.7314
G1 X238.013 Y71.647 E2049.0684
G1 X244.363 Y71.647 E2049.3852
G1 X244.363 Y77.596 E2049.6822
G1 X238.013 Y77.596 E2049.9990
G1 X238.013 Y84.347 E2050.3360
G1 X244.363 Y84.347 E2050.6528
G1 X244.363 Y90.296 E2050.9498
G1 X238.013 Y90.296 E2051.2666
G1 X238.013 Y96.646 E2051.5834
G1 X232.064 Y96.646 E2051.8804
G1 X232.064 Y90.296 E2052.1972
G1 X225.313 Y90.296 E2052.5342
G1 X225.313 Y96.646 E2052.8510
G1 X219.364 Y96.646 E2053.1480
G1 X219.364 Y90.296 E2053.4648
G1 X212.613 Y90.296 E2053.8018
G1 X212.613 Y96.646 E2054.1186
G1 X206.664 Y96.646 E2054.4156
G1 X206.664 Y90.296 E2054.7324
G1 X199.913 Y90.296 E2055.0694
G1 X199.913 Y96.646 E2055.3862
G1 X193.964 Y96.646 E2055.6832
G1 X193.964 Y90.296 E2056.0000
G1 X187.213 Y90.296 E2056.3370
G1 X187.213 Y96.646 E2056.6538
G1 X181.264 Y96.646 E2056.9506
G1 X181.264 Y90.296 E2057.2676
G1 X174.513 Y90.296 E2057.6044
G1 X174.513 Y96.646 E2057.9214
G1 X168.564 Y96.646 E2058.2182
G1 X168.564 Y90.296 E2058.5352
G1 X161.813 Y90.296 E2058.8720
G1 X161.813 Y96.646 E2059.1890
G1 X155.864 Y96.646 E2059.4858
G1 X155.864 Y90.296 E2059.8028
G1 X149.113 Y90.296 E2060.1396
G1 X149.113 Y96.646 E2060.4566
G1 X143.164 Y96.646 E2060.7534
G1 X143.164 Y90.296 E2061.0704
G1 X136.413 Y90.296 E2061.4072
G1 X136.413 Y96.646 E2061.7242
G1 X130.464 Y96.646 E2062.0210
G1 X130.464 Y90.296 E2062.3378
G1 X123.713 Y90.296 E2062.6748
G1 X123.713 Y96.646 E2062.9916
G1 X117.764 Y96.646 E2063.2886
G1 X117.764 Y90.296 E2063.6054
G1 X111.013 Y90.296 E2063.9424
G1 X111.013 Y96.646 E2064.2592
G1 X105.064 Y96.646 E2064.5562
G1 X105.064 Y90.296 E2064.8730
G1 X98.313 Y90.296 E2065.2100
G1 X98.313 Y96.646 E2065.5268
G1 X92.364 Y96.646 E2065.8238
G1 X92.364 Y90.296 E2066.1406
G1 X85.613 Y90.296 E2066.4776
G1 X85.613 Y96.646 E2066.7944
G1 X79.664 Y96.646 E2067.0914
G1 X79.664 Y90.296 E2067.4082
G1 X72.913 Y90.296 E2067.7452
G1 X72.913 Y96.646 E2068.0620
G1 X66.964 Y96.646 E2068.3588
G1 X66.964 Y90.296 E2068.6758
G1 X60.213 Y90.296 E2069.0126
G1 X60.213 Y96.646 E2069.3296
G1 X54.264 Y96.646 E2069.6264
G1 X54.264 Y90.296 E2069.9434
G1 X47.513 Y90.296 E2070.2802
G1 X47.513 Y96.646 E2070.5972
G1 X41.564 Y96.646 E2070.8940
G1 X41.564 Y90.296 E2071.2110
G1 X34.813 Y90.296 E2071.5478
G1 X34.813 Y96.646 E2071.8648
G1 X28.864 Y96.646 E2072.1616
G1 X28.864 Y90.296 E2072.4786
G1 X22.113 Y90.296 E2072.8154
G1 X22.113 Y96.646 E2073.1324
G1 X16.164 Y96.646 E2073.4292
G1 X16.164 Y84.347 E2074.0428
G1 X22.514 Y84.347 E2074.3596
G1 X22.514 Y77.596 E2074.6966
G1 X16.164 Y77.596 E2075.0134
G1 X16.164 Y71.647 E2075.3104
G1 X22.514 Y71.647 E2075.6272
G1 X22.514 Y64.896 E2075.9642
G1 X16.164 Y64.896 E2076.2810
G1 X16.164 Y58.947 E2076.5778
G1 X22.514 Y58.947 E2076.8948
G1 X22.514 Y52.196 E2077.2316
G1 X16.164 Y52.196 E2077.5486
G1 X16.164 Y46.247 E2077.8454
G1 X22.514 Y46.247 E2078.1624
G1 X22.514 Y39.496 E2078.4992
G1 X16.164 Y39.496 E2078.8162
G1 X16.164 Y33.547 E2079.1130
G1 X22.514 Y33.547 E2079.4300
G1 X22.514 Y26.796 E2079.7668
G1 X16.164 Y26.796 E2080.0838
G1 X16.164 Y20.847 E2080.3806
G1 X22.514 Y20.847 E2080.6976
G1 X22.514 Y14.497 E2081.0144
G1 X238.013 Y14.497 E2091.7656
G1 X238.013 Y20.787 E2092.0794
G0 X238.013 Y21.587 F5400
;segType:Loop
G0 X239.113 Y21.247
G1 X243.963 Y21.247 E2092.3212 F2400
G1 X243.963 Y26.396 E2092.5782
G1 X237.613 Y26.396 E2092.8950
G1 X237.613 Y33.947 E2093.2718
G1 X243.963 Y33.947 E2093.5886
G1 X243.963 Y39.096 E2093.8454
G1 X237.613 Y39.096 E2094.1624
G1 X237.613 Y46.647 E2094.5390
G1 X243.963 Y46.647 E2094.8560
G1 X243.963 Y51.796 E2095.1128
G1 X237.613 Y51.796 E2095.4296
G1 X237.613 Y59.347 E2095.8064
G1 X243.963 Y59.347 E2096.1232
G1 X243.963 Y64.496 E2096.3802
G1 X237.613 Y64.496 E2096.6970
G1 X237.613 Y72.047 E2097.0738
G1 X243.963 Y72.047 E2097.3906
G1 X243.963 Y77.196 E2097.6474
G1 X237.613 Y77.196 E2097.9644
G1 X237.613 Y84.747 E2098.3410
G1 X243.963 Y84.747 E2098.6580
G1 X243.963 Y89.896 E2098.9148
G1 X237.613 Y89.896 E2099.2316
G1 X237.613 Y96.246 E2099.5486
G1 X232.464 Y96.246 E2099.8054
G1 X232.464 Y89.896 E2100.1224
G1 X224.913 Y89.896 E2100.4990
G1 X224.913 Y96.246 E2100.8160
G1 X219.764 Y96.246 E2101.0728
G1 X219.764 Y89.896 E2101.3896
G1 X212.213 Y89.896 E2101.7664
G1 X212.213 Y96.246 E2102.0832
G1 X207.064 Y96.246 E2102.3400
G1 X207.064 Y89.896 E2102.6570
G1 X199.513 Y89.896 E2103.0336
G1 X199.513 Y96.246 E2103.3506
G1 X194.364 Y96.246 E2103.6074
G1 X194.364 Y89.896 E2103.9244
G1 X186.813 Y89.896 E2104.3010
G1 X186.813 Y96.246 E2104.6180
G1 X181.664 Y96.246 E2104.8748
G1 X181.664 Y89.896 E2105.1916
G1 X174.113 Y89.896 E2105.5684
G1 X174.113 Y96.246 E2105.8852
G1 X168.964 Y96.246 E2106.1420
G1 X168.964 Y89.896 E2106.4590
G1 X161.413 Y89.896 E2106.8356
G1 X161.413 Y96.246 E2107.1526
G1 X156.264 Y96.246 E2107.4094
G1 X156.264 Y89.896 E2107.7264
G1 X148.713 Y89.896 E2108.1030
G1 X148.713 Y96.246 E2108.4200
G1 X143.564 Y96.246 E2108.6768
G1 X143.564 Y89.896 E2108.9936
G1 X136.013 Y89.896 E2109.3704
G1 X136.013 Y96.246 E2109.6872
G1 X130.864 Y96.246 E2109.9440
G1 X130.864 Y89.896 E2110.2610
G1 X123.313 Y89.896 E2110.6376
G1 X123.313 Y96.246 E2110.9546
G1 X118.164 Y96.246 E2111.2114
G1 X118.164 Y89.896 E2111.5284
G1 X110.613 Y89.896 E2111.9050
G1 X110.613 Y96.246 E2112.2220
G1 X105.464 Y96.246 E2112.4788
G1 X105.464 Y89.896 E2112.7956
G1 X97.913 Y89.896 E2113.1724
G1 X97.913 Y96.246 E2113.4892
G1 X92.764 Y96.246 E2113.7460
G1 X92.764 Y89.896 E2114.0630
G1 X85.213 Y89.896 E2114.4396
G1 X85.213 Y96.246 E2114.7566
G1 X80.064 Y96.246 E2115.0134
G1 X80.064 Y89.896 E2115.3304
G1 X72.513 Y89.896 E2115.7070
G1 X72.513 Y96.246 E2116.0240
G1 X67.364 Y96.246 E2116.2808
G1 X67.364 Y89.896 E2116.5976
G1 X59.813 Y89.896 E2116.9744
G1 X59.813 Y96.246 E2117.2912
G1 X54.664 Y96.246 E2117.5480
G1 X54.664 Y89.896 E2117.8650
G1 X47.113 Y89.896 E2118.2416
G1 X47.113 Y96.246 E2118.5586
G1 X41.964 Y96.246 E2118.8154
G1 X41.964 Y89.896 E2119.1324
G1 X34.413 Y89.896 E2119.5090
G1 X34.413 Y96.246 E2119.8260
G1 X29.264 Y96.246 E2120.0828
G1 X29.264 Y89.896 E2120.3996
G1 X21.713 Y89.896 E2120.7764
G1 X21.713 Y96.246 E2121.0932
G1 X16.564 Y96.246 E2121.3500
G1 X16.564 Y84.747 E2121.9238
G1 X22.914 Y84.747 E2122.2408
G1 X22.914 Y77.196 E2122.6174
G1 X16.564 Y77.196 E2122.9344
G1 X16.564 Y72.047 E2123.1912
G1 X22.914 Y72.047 E2123.5080
G1 X22.914 Y64.496 E2123.8848
G1 X16.564 Y64.496 E2124.2016
G1 X16.564 Y59.347 E2124.4584
G1 X22.914 Y59.347 E2124.7754
G1 X22.914 Y51.796 E2125.1520
G1 X16.564 Y51.796 E2125.4690
G1 X16.564 Y46.647 E2125.7258
G1 X22.914 Y46.647 E2126.0428
G1 X22.914 Y39.096 E2126.4194
G1 X16.564 Y39.096 E2126.7364
G1 X16.564 Y33.947 E2126.9932
G1 X22.914 Y33.947 E2127.3100
G1 X22.914 Y26.396 E2127.6868
G1 X16.564 Y26.396 E2128.0036
G1 X16.564 Y21.247 E2128.2604
G1 X22.914 Y21.247 E2128.5774
G1 X22.914 Y14.897 E2128.8942
G1 X237.613 Y14.897 E2139.6058
G1 X237.613 Y21.247 E2139.9226
G1 X238.913 Y21.247 E2139.9876
;segType:HShell
G0 X237.253 Y20.589 F5400
G1 X231.921 Y15.257 E2140.3638 F2400
G0 X232.486 Y15.257 F5400
G1 X237.253 Y20.024 E2140.7002 F2400
G0 X237.253 Y19.458 F5400
G1 X233.052 Y15.257 E2140.9966 F2400
G0 X233.618 Y15.257 F5400
G1 X237.253 Y18.892 E2141.2532 F2400
G0 X237.253 Y18.327 F5400
G1 X234.183 Y15.257 E2141.4698 F2400
G0 X234.749 Y15.257 F5400
G1 X237.253 Y17.761 E2141.6464 F2400
G0 X237.253 Y17.195 F5400
G1 X235.315 Y15.257 E2141.7832 F2400
G0 X235.881 Y15.257 F5400
G1 X237.253 Y16.630 E2141.8802 F2400
G0 X237.253 Y16.064 F5400
G1 X236.446 Y15.257 E2141.9370 F2400
G0 X230.224 Y15.257 F5400
G1 X241.003 Y26.036 E2142.6976 F2400
G0 X240.437 Y26.036 F5400
G1 X229.658 Y15.257 E2143.4580 F2400
G0 X229.092 Y15.257 F5400
G1 X239.871 Y26.036 E2144.2186 F2400
G0 X239.306 Y26.036 F5400
G1 X228.527 Y15.257 E2144.9790 F2400
G0 X227.961 Y15.257 F5400
G1 X238.740 Y26.036 E2145.7396 F2400
G0 X238.174 Y26.036 F5400
G1 X227.395 Y15.257 E2146.5000 F2400
G0 X226.830 Y15.257 F5400
G1 X237.609 Y26.036 E2147.2604 F2400
G0 X237.253 Y26.246 F5400
G1 X226.264 Y15.257 E2148.0358 F2400
G0 X225.698 Y15.257 F5400
G1 X237.253 Y26.812 E2148.8510 F2400
G0 X237.253 Y27.378 F5400
G1 X225.133 Y15.257 E2149.7062 F2400
G0 X224.567 Y15.257 F5400
G1 X237.253 Y27.943 E2150.6014 F2400
G0 X237.253 Y28.509 F5400
G1 X224.001 Y15.257 E2151.5364 F2400
G0 X223.435 Y15.257 F5400
G1 X237.253 Y29.075 E2152.5112 F2400
G0 X237.253 Y29.640 F5400
G1 X222.870 Y15.257 E2153.5262 F2400
G0 X222.304 Y15.257 F5400
G1 X237.253 Y30.206 E2154.5808 F2400
G0 X237.253 Y30.772 F5400
G1 X221.738 Y15.257 E2155.6756 F2400
G0 X221.173 Y15.257 F5400
G1 X237.253 Y31.337 E2156.8100 F2400
G0 X237.253 Y31.903 F5400
G1 X220.607 Y15.257 E2157.9846 F2400
G0 X220.041 Y15.257 F5400
G1 X237.253 Y32.469 E2159.1990 F2400
G0 X237.253 Y33.034 F5400
G1 X219.476 Y15.257 E2160.4534 F2400
G0 X218.910 Y15.257 F5400
G1 X237.253 Y33.600 E2161.7476 F2400
G0 X237.253 Y34.166 F5400
G1 X218.344 Y15.257 E2163.0818 F2400
G0 X217.779 Y15.257 F5400
G1 X241.257 Y38.736 E2164.7382 F2400
G0 X240.692 Y38.736 F5400
G1 X217.213 Y15.257 E2166.3948 F2400
G0 X216.647 Y15.257 F5400
G1 X240.126 Y38.736 E2168.0512 F2400
G0 X239.560 Y38.736 F5400
G1 X216.082 Y15.257 E2169.7078 F2400
G0 X215.516 Y15.257 F5400
G1 X238.995 Y38.736 E2171.3642 F2400
G0 X238.429 Y38.736 F5400
G1 X214.950 Y15.257 E2173.0208 F2400
G0 X214.385 Y15.257 F5400
G1 X237.863 Y38.736 E2174.6772 F2400
G0 X237.298 Y38.736 F5400
G1 X213.819 Y15.257 E2176.3338 F2400
G0 X213.253 Y15.257 F5400
G1 X237.253 Y39.257 E2178.0270 F2400
G0 X237.253 Y39.823 F5400
G1 X212.687 Y15.257 E2179.7602 F2400
G0 X212.122 Y15.257 F5400
G1 X237.253 Y40.388 E2181.5334 F2400
G0 X237.253 Y40.954 F5400
G1 X211.556 Y15.257 E2183.3464 F2400
G0 X210.990 Y15.257 F5400
G1 X237.253 Y41.520 E2185.1994 F2400
G0 X237.253 Y42.085 F5400
G1 X210.425 Y15.257 E2187.0922 F2400
G0 X209.859 Y15.257 F5400
G1 X237.253 Y42.651 E2189.0252 F2400
G0 X237.253 Y43.217 F5400
G1 X209.293 Y15.257 E2190.9978 F2400
G0 X208.728 Y15.257 F5400
G1 X237.253 Y43.782 E2193.0104 F2400
G0 X237.253 Y44.348 F5400
G1 X208.162 Y15.257 E2195.0630 F2400
G0 X207.596 Y15.257 F5400
G1 X237.253 Y44.914 E2197.1556 F2400
G0 X237.253 Y45.480 F5400
G1 X207.031 Y15.257 E2199.2878 F2400
G0 X206.465 Y15.257 F5400
G1 X237.253 Y46.045 E2201.4602 F2400
G0 X237.253 Y46.611 F5400
G1 X205.899 Y15.257 E2203.6724 F2400
G0 X180.443 Y15.257 F5400
G1 X237.253 Y72.067 E2207.6806 F2400
G0 X237.253 Y71.501 F5400
G1 X181.009 Y15.257 E2211.6490 F2400
G0 X181.575 Y15.257 F5400
G1 X237.253 Y70.935 E2215.5774 F2400
G0 X237.253 Y70.370 F5400
G1 X182.140 Y15.257 E2219.4658 F2400
G0 X182.706 Y15.257 F5400
G1 X237.253 Y69.804 E2223.3144 F2400
G0 X237.253 Y69.238 F5400
G1 X183.272 Y15.257 E2227.1230 F2400
G0 X183.838 Y15.257 F5400
G1 X237.253 Y68.673 E2230.8918 F2400
G0 X237.253 Y68.107 F5400
G1 X184.403 Y15.257 E2234.6206 F2400
G0 X184.969 Y15.257 F5400
G1 X237.253 Y67.541 E2238.3096 F2400
G0 X237.253 Y66.976 F5400
G1 X185.535 Y15.257 E2241.9584 F2400
G0 X186.100 Y15.257 F5400
G1 X237.253 Y66.410 E2245.5676 F2400
G0 X237.253 Y65.844 F5400
G1 X186.666 Y15.257 E2249.1368 F2400
G0 X187.232 Y15.257 F5400
G1 X237.253 Y65.279 E2252.6660 F2400
G0 X237.253 Y64.713 F5400
G1 X187.797 Y15.257 E2256.1552 F2400
G0 X188.363 Y15.257 F5400
G1 X237.253 Y64.147 E2259.6048 F2400
G0 X237.808 Y64.136 F5400
G1 X188.929 Y15.257 E2263.0534 F2400
G0 X189.494 Y15.257 F5400
G1 X238.373 Y64.136 E2266.5022 F2400
G0 X238.939 Y64.136 F5400
G1 X190.060 Y15.257 E2269.9510 F2400
G0 X190.626 Y15.257 F5400
G1 X239.505 Y64.136 E2273.3996 F2400
G0 X240.070 Y64.136 F5400
G1 X191.191 Y15.257 E2276.8484 F2400
G0 X191.757 Y15.257 F5400
G1 X240.636 Y64.136 E2280.2972 F2400
G0 X241.202 Y64.136 F5400
G1 X192.323 Y15.257 E2283.7458 F2400
G0 X192.888 Y15.257 F5400
G1 X237.253 Y59.622 E2286.8760 F2400
G0 X237.253 Y59.056 F5400
G1 X193.454 Y15.257 E2289.9664 F2400
G0 X194.020 Y15.257 F5400
G1 X237.253 Y58.490 E2293.0166 F2400
G0 X237.253 Y57.925 F5400
G1 X194.586 Y15.257 E2296.0270 F2400
G0 X195.151 Y15.257 F5400
G1 X237.253 Y57.359 E2298.9976 F2400
G0 X237.253 Y56.793 F5400
G1 X195.717 Y15.257 E2301.9282 F2400
G0 X196.283 Y15.257 F5400
G1 X237.253 Y56.228 E2304.8188 F2400
G0 X237.253 Y55.662 F5400
G1 X196.848 Y15.257 E2307.6696 F2400
G0 X197.414 Y15.257 F5400
G1 X237.253 Y55.096 E2310.4804 F2400
G0 X237.253 Y54.530 F5400
G1 X197.980 Y15.257 E2313.2514 F2400
G0 X198.545 Y15.257 F5400
G1 X237.253 Y53.965 E2315.9824 F2400
G0 X237.253 Y53.399 F5400
G1 X199.111 Y15.257 E2318.6736 F2400
G0 X199.677 Y15.257 F5400
G1 X237.253 Y52.833 E2321.3248 F2400
G0 X237.253 Y52.268 F5400
G1 X200.242 Y15.257 E2323.9360 F2400
G0 X200.808 Y15.257 F5400
G1 X237.253 Y51.702 E2326.5074 F2400
G0 X237.553 Y51.436 F5400
G1 X201.374 Y15.257 E2329.0600 F2400
G0 X201.939 Y15.257 F5400
G1 X238.119 Y51.436 E2331.6128 F2400
G0 X238.684 Y51.436 F5400
G1 X202.505 Y15.257 E2334.1656 F2400
G0 X203.071 Y15.257 F5400
G1 X239.250 Y51.436 E2336.7182 F2400
G0 X239.816 Y51.436 F5400
G1 X203.636 Y15.257 E2339.2710 F2400
G0 X204.202 Y15.257 F5400
G1 X240.381 Y51.436 E2341.8238 F2400
G0 X240.947 Y51.436 F5400
G1 X204.768 Y15.257 E2344.3764 F2400
G0 X205.334 Y15.257 F5400
G1 X241.513 Y51.436 E2346.9292 F2400
G0 X242.078 Y51.436 F5400
G1 X237.649 Y47.007 E2347.2416 F2400
G0 X238.215 Y47.007 F5400
G1 X242.644 Y51.436 E2347.5542 F2400
G0 X243.210 Y51.436 F5400
G1 X238.781 Y47.007 E2347.8666 F2400
G0 X239.346 Y47.007 F5400
G1 X243.603 Y51.264 E2348.1670 F2400
G0 X243.603 Y50.698 F5400
G1 X239.912 Y47.007 E2348.4274 F2400
G0 X240.478 Y47.007 F5400
G1 X243.603 Y50.132 E2348.6480 F2400
G0 X243.603 Y49.567 F5400
G1 X241.043 Y47.007 E2348.8286 F2400
G0 X241.609 Y47.007 F5400
G1 X243.603 Y49.001 E2348.9692 F2400
G0 X243.603 Y48.435 F5400
G1 X242.175 Y47.007 E2349.0700 F2400
G0 X242.740 Y47.007 F5400
G1 X243.603 Y47.870 E2349.1308 F2400
G0 X243.603 Y47.304 F5400
G1 X243.306 Y47.007 E2349.1518 F2400
G0 X243.295 Y51.796 F5400
G0 X237.613 Y51.796
G0 X237.613 Y59.347
G0 X243.279 Y59.347
G0 X243.279 Y59.347
G0 X243.268 Y64.496
G0 X243.268 Y64.496
G0 X237.613 Y64.496
G0 X237.613 Y72.047
G0 X243.251 Y72.047
G0 X243.251 Y72.047
G0 X243.250 Y72.420
G0 X243.250 Y72.407
G1 X243.603 Y72.760 E2349.1768 F2400
G0 X243.603 Y73.326 F5400
G1 X242.685 Y72.407 E2349.2414 F2400
G0 X242.119 Y72.407 F5400
G1 X243.603 Y73.891 E2349.3462 F2400
G0 X243.603 Y74.457 F5400
G1 X241.553 Y72.407 E2349.4908 F2400
G0 X240.988 Y72.407 F5400
G1 X243.603 Y75.023 E2349.6752 F2400
G0 X243.603 Y75.588 F5400
G1 X240.422 Y72.407 E2349.8996 F2400
G0 X239.856 Y72.407 F5400
G1 X243.603 Y76.154 E2350.1640 F2400
G0 X243.603 Y76.720 F5400
G1 X239.290 Y72.407 E2350.4682 F2400
G0 X238.725 Y72.407 F5400
G1 X243.154 Y76.836 E2350.7808 F2400
G0 X242.588 Y76.836 F5400
G1 X238.159 Y72.407 E2351.0932 F2400
G0 X237.593 Y72.407 F5400
G1 X242.022 Y76.836 E2351.4058 F2400
G0 X241.457 Y76.836 F5400
G1 X179.878 Y15.257 E2355.7504 F2400
G0 X179.312 Y15.257 F5400
G1 X240.891 Y76.836 E2360.0952 F2400
G0 X240.325 Y76.836 F5400
G1 X178.746 Y15.257 E2364.4400 F2400
G0 X178.181 Y15.257 F5400
G1 X239.760 Y76.836 E2368.7846 F2400
G0 X239.194 Y76.836 F5400
G1 X177.615 Y15.257 E2373.1294 F2400
G0 X177.049 Y15.257 F5400
G1 X238.628 Y76.836 E2377.4742 F2400
G0 X238.063 Y76.836 F5400
G1 X176.484 Y15.257 E2381.8188 F2400
G0 X175.918 Y15.257 F5400
G1 X237.497 Y76.836 E2386.1636 F2400
G0 X237.253 Y77.158 F5400
G1 X175.352 Y15.257 E2390.5310 F2400
G0 X174.787 Y15.257 F5400
G1 X237.253 Y77.724 E2394.9382 F2400
G0 X237.253 Y78.289 F5400
G1 X174.221 Y15.257 E2399.3854 F2400
G0 X173.655 Y15.257 F5400
G1 X237.253 Y78.855 E2403.8726 F2400
G0 X237.253 Y79.421 F5400
G1 X173.090 Y15.257 E2408.3996 F2400
G0 X172.524 Y15.257 F5400
G1 X237.253 Y79.986 E2412.9666 F2400
G0 X237.253 Y80.552 F5400
G1 X171.958 Y15.257 E2417.5734 F2400
G0 X171.392 Y15.257 F5400
G1 X237.253 Y81.118 E2422.2202 F2400
G0 X237.253 Y81.683 F5400
G1 X170.827 Y15.257 E2426.9070 F2400
G0 X170.261 Y15.257 F5400
G1 X237.253 Y82.249 E2431.6336 F2400
G0 X237.253 Y82.815 F5400
G1 X169.695 Y15.257 E2436.4002 F2400
G0 X169.130 Y15.257 F5400
G1 X237.253 Y83.380 E2441.2066 F2400
G0 X237.253 Y83.946 F5400
G1 X168.564 Y15.257 E2446.0530 F2400
G0 X167.998 Y15.257 F5400
G1 X237.253 Y84.512 E2450.9392 F2400
G0 X237.253 Y85.078 F5400
G1 X167.433 Y15.257 E2455.8654 F2400
G0 X166.867 Y15.257 F5400
G1 X241.146 Y89.536 E2461.1062 F2400
G0 X240.580 Y89.536 F5400
G1 X166.301 Y15.257 E2466.3470 F2400
G0 X165.736 Y15.257 F5400
G1 X240.014 Y89.536 E2471.5876 F2400
G0 X239.449 Y89.536 F5400
G1 X165.170 Y15.257 E2476.8284 F2400
G0 X164.604 Y15.257 F5400
G1 X238.883 Y89.536 E2482.0690 F2400
G0 X238.317 Y89.536 F5400
G1 X164.039 Y15.257 E2487.3098 F2400
G0 X163.473 Y15.257 F5400
G1 X237.752 Y89.536 E2492.5506 F2400
G0 X237.253 Y89.603 F5400
G1 X162.907 Y15.257 E2497.7962 F2400
G0 X162.341 Y15.257 F5400
G1 X237.253 Y90.169 E2503.0816 F2400
G0 X237.253 Y90.734 F5400
G1 X161.776 Y15.257 E2508.4070 F2400
G0 X161.210 Y15.257 F5400
G1 X237.253 Y91.300 E2513.7722 F2400
G0 X237.253 Y91.866 F5400
G1 X160.644 Y15.257 E2519.1772 F2400
G0 X160.079 Y15.257 F5400
G1 X237.253 Y92.431 E2524.6224 F2400
G0 X237.253 Y92.997 F5400
G1 X159.513 Y15.257 E2530.1072 F2400
G0 X158.947 Y15.257 F5400
G1 X237.253 Y93.563 E2535.6320 F2400
G0 X237.253 Y94.128 F5400
G1 X232.824 Y89.700 E2535.9446 F2400
G0 X232.824 Y90.265 F5400
G1 X237.253 Y94.694 E2536.2570 F2400
G0 X237.253 Y95.260 F5400
G1 X232.824 Y90.831 E2536.5696 F2400
G0 X232.824 Y91.397 F5400
G1 X237.253 Y95.826 E2536.8820 F2400
G0 X236.748 Y95.886 F5400
G1 X232.824 Y91.962 E2537.1590 F2400
G0 X232.824 Y92.528 F5400
G1 X236.182 Y95.886 E2537.3958 F2400
G0 X235.616 Y95.886 F5400
G1 X232.824 Y93.094 E2537.5928 F2400
G0 X232.824 Y93.659 F5400
G1 X235.051 Y95.886 E2537.7498 F2400
G0 X234.485 Y95.886 F5400
G1 X232.824 Y94.225 E2537.8670 F2400
G0 X232.824 Y94.791 F5400
G1 X233.919 Y95.886 E2537.9444 F2400
G0 X233.354 Y95.886 F5400
G1 X232.824 Y95.356 E2537.9816 F2400
G0 X232.464 Y95.205 F5400
G0 X232.464 Y89.896
G0 X224.913 Y89.896
G0 X224.913 Y92.026
G0 X224.913 Y92.026
G0 X220.112 Y90.005
G0 X220.124 Y90.010
G1 X224.553 Y94.439 E2538.2942 F2400
G0 X224.553 Y95.005 F5400
G1 X220.124 Y90.576 E2538.6066 F2400
G0 X220.124 Y91.142 F5400
G1 X224.553 Y95.571 E2538.9192 F2400
G0 X224.303 Y95.886 F5400
G1 X220.124 Y91.707 E2539.2142 F2400
G0 X220.124 Y92.273 F5400
G1 X223.737 Y95.886 E2539.4690 F2400
G0 X223.171 Y95.886 F5400
G1 X220.124 Y92.839 E2539.6840 F2400
G0 X220.124 Y93.405 F5400
G1 X222.606 Y95.886 E2539.8592 F2400
G0 X222.040 Y95.886 F5400
G1 X220.124 Y93.970 E2539.9944 F2400
G0 X220.124 Y94.536 F5400
G1 X221.474 Y95.886 E2540.0896 F2400
G0 X220.909 Y95.886 F5400
G1 X220.124 Y95.102 E2540.1450 F2400
G0 X219.764 Y95.110 F5400
G0 X219.764 Y89.896
G0 X212.213 Y89.896
G0 X212.213 Y95.295
G0 X212.213 Y95.295
G0 X207.411 Y95.412
G0 X207.424 Y95.412
G1 X207.898 Y95.886 E2540.1784 F2400
G0 X208.463 Y95.886 F5400
G1 X207.424 Y94.846 E2540.2518 F2400
G0 X207.424 Y94.281 F5400
G1 X209.029 Y95.886 E2540.3650 F2400
G0 X209.595 Y95.886 F5400
G1 X207.424 Y93.715 E2540.5180 F2400
G0 X207.424 Y93.149 F5400
G1 X210.161 Y95.886 E2540.7112 F2400
G0 X210.726 Y95.886 F5400
G1 X207.424 Y92.584 E2540.9440 F2400
G0 X207.424 Y92.018 F5400
G1 X211.292 Y95.886 E2541.2170 F2400
G0 X211.853 Y95.882 F5400
G1 X207.424 Y91.452 E2541.5296 F2400
G0 X207.424 Y90.887 F5400
G1 X211.853 Y95.316 E2541.8420 F2400
G0 X211.853 Y94.750 F5400
G1 X207.424 Y90.321 E2542.1546 F2400
G0 X207.424 Y89.755 F5400
G1 X211.853 Y94.184 E2542.4670 F2400
G0 X211.853 Y93.619 F5400
G1 X133.492 Y15.257 E2547.9958 F2400
G0 X134.057 Y15.257 F5400
G1 X211.853 Y93.053 E2553.4848 F2400
G0 X211.853 Y92.487 F5400
G1 X134.623 Y15.257 E2558.9338 F2400
G0 X135.189 Y15.257 F5400
G1 X211.853 Y91.922 E2564.3430 F2400
G0 X211.853 Y91.356 F5400
G1 X135.754 Y15.257 E2569.7122 F2400
G0 X136.320 Y15.257 F5400
G1 X211.853 Y90.790 E2575.0416 F2400
G0 X211.853 Y90.225 F5400
G1 X136.886 Y15.257 E2580.3308 F2400
G0 X137.451 Y15.257 F5400
G1 X211.853 Y89.659 E2585.5804 F2400
G0 X212.296 Y89.536 F5400
G1 X138.017 Y15.257 E2590.8210 F2400
G0 X138.583 Y15.257 F5400
G1 X212.862 Y89.536 E2596.0618 F2400
G0 X213.427 Y89.536 F5400
G1 X139.148 Y15.257 E2601.3024 F2400
G0 X139.714 Y15.257 F5400
G1 X213.993 Y89.536 E2606.5432 F2400
G0 X214.559 Y89.536 F5400
G1 X140.280 Y15.257 E2611.7840 F2400
G0 X140.845 Y15.257 F5400
G1 X215.124 Y89.536 E2617.0246 F2400
G0 X215.690 Y89.536 F5400
G1 X141.411 Y15.257 E2622.2654 F2400
G0 X141.977 Y15.257 F5400
G1 X216.256 Y89.536 E2627.5062 F2400
G0 X216.821 Y89.536 F5400
G1 X142.542 Y15.257 E2632.7468 F2400
G0 X143.108 Y15.257 F5400
G1 X217.387 Y89.536 E2637.9876 F2400
G0 X217.953 Y89.536 F5400
G1 X143.674 Y15.257 E2643.2282 F2400
G0 X144.240 Y15.257 F5400
G1 X218.518 Y89.536 E2648.4690 F2400
G0 X219.084 Y89.536 F5400
G1 X144.805 Y15.257 E2653.7098 F2400
G0 X145.371 Y15.257 F5400
G1 X219.650 Y89.536 E2658.9504 F2400
G0 X194.724 Y90.066 F5400
G1 X199.153 Y94.495 E2659.2630 F2400
G0 X199.153 Y95.061 F5400
G1 X194.724 Y90.632 E2659.5754 F2400
G0 X194.724 Y91.197 F5400
G1 X199.153 Y95.626 E2659.8880 F2400
G0 X198.847 Y95.886 F5400
G1 X194.724 Y91.763 E2660.1788 F2400
G0 X194.724 Y92.329 F5400
G1 X198.281 Y95.886 E2660.4296 F2400
G0 X197.715 Y95.886 F5400
G1 X194.724 Y92.895 E2660.6408 F2400
G0 X194.724 Y93.460 F5400
G1 X197.150 Y95.886 E2660.8120 F2400
G0 X196.584 Y95.886 F5400
G1 X194.724 Y94.026 E2660.9434 F2400
G0 X194.724 Y94.592 F5400
G1 X196.018 Y95.886 E2661.0346 F2400
G0 X195.453 Y95.886 F5400
G1 X194.724 Y95.157 E2661.0862 F2400
G0 X194.364 Y95.078 F5400
G0 X194.364 Y89.896
G0 X186.813 Y89.896
G0 X186.813 Y93.408
G0 X186.813 Y93.408
G0 X181.664 Y92.269
G0 X181.664 Y92.269
G0 X181.664 Y89.896
G0 X174.113 Y89.896
G0 X174.113 Y90.600
G0 X174.113 Y90.600
G0 X169.291 Y89.533
G0 X169.304 Y89.536
G1 X95.025 Y15.257 E2666.3270 F2400
G0 X94.459 Y15.257 F5400
G1 X168.738 Y89.536 E2671.5676 F2400
G0 X168.172 Y89.536 F5400
G1 X93.894 Y15.257 E2676.8084 F2400
G0 X93.328 Y15.257 F5400
G1 X167.607 Y89.536 E2682.0490 F2400
G0 X167.041 Y89.536 F5400
G1 X92.762 Y15.257 E2687.2898 F2400
G0 X92.196 Y15.257 F5400
G1 X166.475 Y89.536 E2692.5306 F2400
G0 X165.910 Y89.536 F5400
G1 X91.631 Y15.257 E2697.7712 F2400
G0 X91.065 Y15.257 F5400
G1 X165.344 Y89.536 E2703.0120 F2400
G0 X164.778 Y89.536 F5400
G1 X90.499 Y15.257 E2708.2526 F2400
G0 X89.934 Y15.257 F5400
G1 X164.213 Y89.536 E2713.4934 F2400
G0 X163.647 Y89.536 F5400
G1 X89.368 Y15.257 E2718.7342 F2400
G0 X88.802 Y15.257 F5400
G1 X163.081 Y89.536 E2723.9748 F2400
G0 X162.516 Y89.536 F5400
G1 X88.237 Y15.257 E2729.2156 F2400
G0 X87.671 Y15.257 F5400
G1 X161.950 Y89.536 E2734.4562 F2400
G0 X161.384 Y89.536 F5400
G1 X87.105 Y15.257 E2739.6970 F2400
G0 X86.540 Y15.257 F5400
G1 X161.053 Y89.771 E2744.9544 F2400
G0 X161.053 Y90.336 F5400
G1 X85.974 Y15.257 E2750.2514 F2400
G0 X85.408 Y15.257 F5400
G1 X161.053 Y90.902 E2755.5886 F2400
G0 X161.053 Y91.468 F5400
G1 X84.843 Y15.257 E2760.9656 F2400
G0 X84.277 Y15.257 F5400
G1 X161.053 Y92.033 E2766.3826 F2400
G0 X161.053 Y92.599 F5400
G1 X83.711 Y15.257 E2771.8394 F2400
G0 X83.146 Y15.257 F5400
G1 X161.053 Y93.165 E2777.3362 F2400
G0 X161.053 Y93.730 F5400
G1 X82.580 Y15.257 E2782.8728 F2400
G0 X82.014 Y15.257 F5400
G1 X156.293 Y89.536 E2788.1136 F2400
G0 X155.727 Y89.536 F5400
G1 X81.448 Y15.257 E2793.3542 F2400
G0 X80.883 Y15.257 F5400
G1 X155.162 Y89.536 E2798.5950 F2400
G0 X154.596 Y89.536 F5400
G1 X80.317 Y15.257 E2803.8356 F2400
G0 X79.751 Y15.257 F5400
G1 X154.030 Y89.536 E2809.0764 F2400
G0 X153.465 Y89.536 F5400
G1 X79.186 Y15.257 E2814.3172 F2400
G0 X78.620 Y15.257 F5400
G1 X152.899 Y89.536 E2819.5578 F2400
G0 X152.333 Y89.536 F5400
G1 X78.054 Y15.257 E2824.7986 F2400
G0 X77.489 Y15.257 F5400
G1 X151.768 Y89.536 E2830.0394 F2400
G0 X151.202 Y89.536 F5400
G1 X76.923 Y15.257 E2835.2800 F2400
G0 X76.357 Y15.257 F5400
G1 X150.636 Y89.536 E2840.5208 F2400
G0 X150.070 Y89.536 F5400
G1 X75.792 Y15.257 E2845.7614 F2400
G0 X75.226 Y15.257 F5400
G1 X149.505 Y89.536 E2851.0022 F2400
G0 X148.939 Y89.536 F5400
G1 X74.660 Y15.257 E2856.2430 F2400
G0 X74.095 Y15.257 F5400
G1 X148.373 Y89.536 E2861.4836 F2400
G0 X148.353 Y90.081 F5400
G1 X73.529 Y15.257 E2866.7630 F2400
G0 X72.963 Y15.257 F5400
G1 X148.353 Y90.647 E2872.0820 F2400
G0 X148.353 Y91.213 F5400
G1 X72.398 Y15.257 E2877.4412 F2400
G0 X71.832 Y15.257 F5400
G1 X148.353 Y91.778 E2882.8400 F2400
G0 X148.353 Y92.344 F5400
G1 X71.266 Y15.257 E2888.2790 F2400
G0 X70.700 Y15.257 F5400
G1 X148.353 Y92.910 E2893.7578 F2400
G0 X148.353 Y93.475 F5400
G1 X70.135 Y15.257 E2899.2766 F2400
G0 X69.569 Y15.257 F5400
G1 X143.848 Y89.536 E2904.5174 F2400
G0 X143.282 Y89.536 F5400
G1 X69.003 Y15.257 E2909.7580 F2400
G0 X68.438 Y15.257 F5400
G1 X142.717 Y89.536 E2914.9988 F2400
G0 X142.151 Y89.536 F5400
G1 X67.872 Y15.257 E2920.2396 F2400
G0 X67.306 Y15.257 F5400
G1 X141.585 Y89.536 E2925.4802 F2400
G0 X141.019 Y89.536 F5400
G1 X66.741 Y15.257 E2930.7210 F2400
G0 X66.175 Y15.257 F5400
G1 X140.454 Y89.536 E2935.9616 F2400
G0 X139.888 Y89.536 F5400
G1 X65.609 Y15.257 E2941.2024 F2400
G0 X65.044 Y15.257 F5400
G1 X139.322 Y89.536 E2946.4432 F2400
G0 X138.757 Y89.536 F5400
G1 X64.478 Y15.257 E2951.6838 F2400
G0 X63.912 Y15.257 F5400
G1 X138.191 Y89.536 E2956.9246 F2400
G0 X137.625 Y89.536 F5400
G1 X63.347 Y15.257 E2962.1652 F2400
G0 X62.781 Y15.257 F5400
G1 X137.060 Y89.536 E2967.4060 F2400
G0 X136.494 Y89.536 F5400
G1 X62.215 Y15.257 E2972.6468 F2400
G0 X61.649 Y15.257 F5400
G1 X135.928 Y89.536 E2977.8874 F2400
G0 X135.653 Y89.826 F5400
G1 X61.084 Y15.257 E2983.1486 F2400
G0 X60.518 Y15.257 F5400
G1 X135.653 Y90.392 E2988.4500 F2400
G0 X135.653 Y90.958 F5400
G1 X59.952 Y15.257 E2993.7910 F2400
G0 X59.387 Y15.257 F5400
G1 X135.653 Y91.523 E2999.1722 F2400
G0 X135.653 Y92.089 F5400
G1 X58.821 Y15.257 E3004.5930 F2400
G0 X58.255 Y15.257 F5400
G1 X135.653 Y92.655 E3010.0540 F2400
G0 X135.653 Y93.220 F5400
G1 X57.690 Y15.257 E3015.5546 F2400
G0 X57.124 Y15.257 F5400
G1 X135.653 Y93.786 E3021.0952 F2400
G0 X135.653 Y94.352 F5400
G1 X131.224 Y89.923 E3021.4078 F2400
G0 X131.224 Y90.489 F5400
G1 X135.653 Y94.918 E3021.7202 F2400
G0 X135.653 Y95.483 F5400
G1 X131.224 Y91.054 E3022.0328 F2400
G0 X131.224 Y91.620 F5400
G1 X135.490 Y95.886 E3022.3338 F2400
G0 X134.924 Y95.886 F5400
G1 X131.224 Y92.186 E3022.5948 F2400
G0 X131.224 Y92.751 F5400
G1 X134.359 Y95.886 E3022.8160 F2400
G0 X133.793 Y95.886 F5400
G1 X131.224 Y93.317 E3022.9970 F2400
G0 X131.224 Y93.883 F5400
G1 X133.227 Y95.886 E3023.1384 F2400
G0 X132.662 Y95.886 F5400
G1 X131.224 Y94.448 E3023.2398 F2400
G0 X131.224 Y95.014 F5400
G1 X132.096 Y95.886 E3023.3012 F2400
G0 X131.530 Y95.886 F5400
G1 X131.224 Y95.580 E3023.3228 F2400
G0 X130.864 Y95.410 F5400
G0 X130.864 Y89.896
G0 X123.313 Y89.896
G0 X123.313 Y91.854
G0 X123.313 Y91.854
G0 X118.380 Y89.530
G0 X118.392 Y89.536
G1 X44.113 Y15.257 E3028.5634 F2400
G0 X43.548 Y15.257 F5400
G1 X117.826 Y89.536 E3033.8042 F2400
G0 X117.261 Y89.536 F5400
G1 X42.982 Y15.257 E3039.0450 F2400
G0 X42.416 Y15.257 F5400
G1 X116.695 Y89.536 E3044.2856 F2400
G0 X116.129 Y89.536 F5400
G1 X41.851 Y15.257 E3049.5264 F2400
G0 X41.285 Y15.257 F5400
G1 X115.564 Y89.536 E3054.7670 F2400
G0 X114.998 Y89.536 F5400
G1 X40.719 Y15.257 E3060.0078 F2400
G0 X40.153 Y15.257 F5400
G1 X114.432 Y89.536 E3065.2486 F2400
G0 X113.867 Y89.536 F5400
G1 X39.588 Y15.257 E3070.4892 F2400
G0 X39.022 Y15.257 F5400
G1 X113.301 Y89.536 E3075.7300 F2400
G0 X112.735 Y89.536 F5400
G1 X38.456 Y15.257 E3080.9708 F2400
G0 X37.891 Y15.257 F5400
G1 X112.170 Y89.536 E3086.2114 F2400
G0 X111.604 Y89.536 F5400
G1 X37.325 Y15.257 E3091.4522 F2400
G0 X36.759 Y15.257 F5400
G1 X111.038 Y89.536 E3096.6928 F2400
G0 X110.472 Y89.536 F5400
G1 X36.194 Y15.257 E3101.9336 F2400
G0 X35.628 Y15.257 F5400
G1 X110.253 Y89.882 E3107.1988 F2400
G0 X110.253 Y90.448 F5400
G1 X35.062 Y15.257 E3112.5040 F2400
G0 X34.497 Y15.257 F5400
G1 X110.253 Y91.014 E3117.8488 F2400
G0 X110.253 Y91.579 F5400
G1 X33.931 Y15.257 E3123.2338 F2400
G0 X33.365 Y15.257 F5400
G1 X110.253 Y92.145 E3128.6586 F2400
G0 X110.253 Y92.711 F5400
G1 X32.800 Y15.257 E3134.1236 F2400
G0 X32.234 Y15.257 F5400
G1 X110.253 Y93.276 E3139.6282 F2400
G0 X110.253 Y93.842 F5400
G1 X31.668 Y15.257 E3145.1728 F2400
G0 X22.914 Y19.770 F5400
G0 X22.914 Y21.247
G0 X20.049 Y21.247
G0 X20.049 Y21.247
G0 X19.339 Y21.613
G0 X19.351 Y21.607
G1 X87.279 Y89.536 E3149.9656 F2400
G0 X87.845 Y89.536 F5400
G1 X19.916 Y21.607 E3154.7584 F2400
G0 X20.482 Y21.607 F5400
G1 X88.411 Y89.536 E3159.5510 F2400
G0 X88.976 Y89.536 F5400
G1 X21.048 Y21.607 E3164.3438 F2400
G0 X21.613 Y21.607 F5400
G1 X89.542 Y89.536 E3169.1364 F2400
G0 X90.108 Y89.536 F5400
G1 X22.179 Y21.607 E3173.9292 F2400
G0 X22.745 Y21.607 F5400
G1 X90.673 Y89.536 E3178.7220 F2400
G0 X91.239 Y89.536 F5400
G1 X23.274 Y21.571 E3183.5174 F2400
G0 X23.274 Y21.005 F5400
G1 X91.805 Y89.536 E3188.3526 F2400
G0 X92.371 Y89.536 F5400
G1 X23.274 Y20.440 E3193.2278 F2400
G0 X23.274 Y19.874 F5400
G1 X92.936 Y89.536 E3198.1428 F2400
G0 X91.397 Y89.896 F5400
G0 X85.213 Y89.896
G0 X85.213 Y91.344
G0 X85.213 Y91.344
G0 X80.064 Y92.549
G0 X80.064 Y92.549
G0 X80.064 Y89.896
G0 X72.513 Y89.896
G0 X72.513 Y94.316
G0 X72.513 Y94.316
G0 X67.711 Y95.440
G0 X67.724 Y95.437
G1 X68.173 Y95.886 E3198.1746 F2400
G0 X68.739 Y95.886 F5400
G1 X67.724 Y94.871 E3198.2460 F2400
G0 X67.724 Y94.305 F5400
G1 X69.305 Y95.886 E3198.3576 F2400
G0 X69.871 Y95.886 F5400
G1 X67.724 Y93.740 E3198.5090 F2400
G0 X67.724 Y93.174 F5400
G1 X70.436 Y95.886 E3198.7004 F2400
G0 X71.002 Y95.886 F5400
G1 X67.724 Y92.608 E3198.9316 F2400
G0 X67.724 Y92.043 F5400
G1 X71.568 Y95.886 E3199.2028 F2400
G0 X72.133 Y95.886 F5400
G1 X67.724 Y91.477 E3199.5140 F2400
G0 X67.724 Y90.911 F5400
G1 X72.153 Y95.340 E3199.8264 F2400
G0 X72.153 Y94.774 F5400
G1 X67.724 Y90.345 E3200.1390 F2400
G0 X67.724 Y89.780 F5400
G1 X72.153 Y94.209 E3200.4514 F2400
G0 X72.153 Y93.643 F5400
G1 X23.274 Y44.764 E3203.9002 F2400
G0 X23.274 Y44.198 F5400
G1 X72.153 Y93.077 E3207.3488 F2400
G0 X72.153 Y92.512 F5400
G1 X23.274 Y43.633 E3210.7976 F2400
G0 X23.274 Y43.067 F5400
G1 X72.153 Y91.946 E3214.2464 F2400
G0 X72.153 Y91.380 F5400
G1 X23.274 Y42.501 E3217.6950 F2400
G0 X23.274 Y41.936 F5400
G1 X72.153 Y90.815 E3221.1438 F2400
G0 X72.153 Y90.249 F5400
G1 X23.274 Y41.370 E3224.5926 F2400
G0 X23.274 Y40.804 F5400
G1 X72.153 Y89.683 E3228.0412 F2400
G0 X72.572 Y89.536 F5400
G1 X23.274 Y40.239 E3231.5196 F2400
G0 X23.274 Y39.673 F5400
G1 X73.137 Y89.536 E3235.0376 F2400
G0 X73.703 Y89.536 F5400
G1 X23.274 Y39.107 E3238.5958 F2400
G0 X22.914 Y39.822 F5400
G0 X22.914 Y46.647
G0 X19.476 Y46.647
G0 X19.476 Y46.647
G0 X19.289 Y47.019
G0 X19.295 Y47.007
G1 X61.824 Y89.536 E3241.5964 F2400
G0 X62.389 Y89.536 F5400
G1 X19.860 Y47.007 E3244.5972 F2400
G0 X20.426 Y47.007 F5400
G1 X62.955 Y89.536 E3247.5980 F2400
G0 X63.521 Y89.536 F5400
G1 X20.992 Y47.007 E3250.5986 F2400
G0 X21.557 Y47.007 F5400
G1 X64.086 Y89.536 E3253.5994 F2400
G0 X64.652 Y89.536 F5400
G1 X22.123 Y47.007 E3256.6000 F2400
G0 X22.689 Y47.007 F5400
G1 X65.218 Y89.536 E3259.6008 F2400
G0 X65.783 Y89.536 F5400
G1 X23.254 Y47.007 E3262.6016 F2400
G0 X23.274 Y46.461 F5400
G1 X66.349 Y89.536 E3265.6406 F2400
G0 X66.915 Y89.536 F5400
G1 X23.274 Y45.895 E3268.7198 F2400
G0 X23.274 Y45.330 F5400
G1 X67.480 Y89.536 E3271.8386 F2400
G0 X55.024 Y90.090 F5400
G1 X59.453 Y94.519 E3272.1512 F2400
G0 X59.453 Y95.085 F5400
G1 X55.024 Y90.656 E3272.4636 F2400
G0 X55.024 Y91.222 F5400
G1 X59.453 Y95.651 E3272.7762 F2400
G0 X59.123 Y95.886 F5400
G1 X55.024 Y91.787 E3273.0652 F2400
G0 X55.024 Y92.353 F5400
G1 X58.557 Y95.886 E3273.3144 F2400
G0 X57.991 Y95.886 F5400
G1 X55.024 Y92.919 E3273.5240 F2400
G0 X55.024 Y93.484 F5400
G1 X57.425 Y95.886 E3273.6934 F2400
G0 X56.860 Y95.886 F5400
G1 X55.024 Y94.050 E3273.8230 F2400
G0 X55.024 Y94.616 F5400
G1 X56.294 Y95.886 E3273.9126 F2400
G0 X55.728 Y95.886 F5400
G1 X55.024 Y95.182 E3273.9624 F2400
G0 X54.664 Y95.142 F5400
G0 X54.664 Y89.896
G0 X47.113 Y89.896
G0 X47.113 Y94.304
G0 X47.113 Y94.304
G0 X46.740 Y94.263
