; GCode generated by CraftWare

G28 X0 Y0
G28 Z0


M104 S215 ;set head temp (no wait)
M190 S60 ;set bed temp (wait)
M109 S215 ;set head temp (wait)
; ------------------------------------
; Layer #0
; ------------------------------------
M106 S0 ;turn off fan
G21 ; mm
G90 ; abs
G92 E0 ;reset extr
G0 F1200 Z0.300
;segType:Skirt
G0 F3000 E-1.0000
G0 X34.546 Y145.252 F5400
G0 F3000 E0.0000
G1 X31.770 Y142.475 E0.1959 F2400
G1 X31.770 Y64.737 E4.0743
G1 X31.836 Y64.274 E4.0976
G1 X34.877 Y61.233 E4.3122
G1 X220.498 Y61.233 E13.5729
G1 X220.901 Y61.290 E13.5931
;segType:HShell
G0 F3000 E12.5931
G0 X97.444 Y140.481 F5400
G0 F3000 E13.5931
G1 X42.215 Y85.252 E17.4898 F2400
;segType:Perimeter
G0 X42.086 Y84.492 F5400
G1 X219.826 Y84.492 E26.3573 F1439
G1 X219.826 Y141.241 E29.1885
G1 X36.077 Y141.241 E38.3558
G1 X36.077 Y65.442 E42.1374
G1 X219.826 Y65.442 E51.3047
G1 X219.826 Y77.741 E51.9183
G1 X42.026 Y77.741 E60.7888
G1 X42.026 Y84.432 E61.1226
G0 X42.026 Y85.232 F5400
;segType:Loop
G0 X43.126 Y84.892
G1 X219.426 Y84.892 E69.9182 F2400
G1 X219.426 Y140.841 E72.7096
G1 X36.477 Y140.841 E81.8369
G1 X36.477 Y65.842 E85.5786
G1 X219.426 Y65.842 E94.7060
G1 X219.426 Y77.341 E95.2797
G1 X41.626 Y77.341 E104.1502
G1 X41.626 Y84.892 E104.5269
G1 X42.926 Y84.892 E104.5917
;segType:HShell
G0 X41.650 Y85.252 F5400
G1 X96.878 Y140.481 E108.4884 F2400
G0 X96.313 Y140.481 F5400
G1 X36.837 Y81.005 E112.6847 F2400
G0 X36.837 Y81.571 F5400
G1 X95.747 Y140.481 E116.8411 F2400
G0 X95.181 Y140.481 F5400
G1 X36.837 Y82.137 E120.9576 F2400
G0 X36.837 Y82.703 F5400
G1 X94.616 Y140.481 E125.0342 F2400
G0 X94.050 Y140.481 F5400
G1 X36.837 Y83.268 E129.0708 F2400
G0 X36.837 Y83.834 F5400
G1 X93.484 Y140.481 E133.0676 F2400
G0 X92.919 Y140.481 F5400
G1 X36.837 Y84.400 E137.0244 F2400
G0 X36.837 Y84.965 F5400
G1 X92.353 Y140.481 E140.9414 F2400
G0 X91.787 Y140.481 F5400
G1 X36.837 Y85.531 E144.8184 F2400
G0 X36.837 Y86.097 F5400
G1 X91.222 Y140.481 E148.6555 F2400
G0 X90.656 Y140.481 F5400
G1 X36.837 Y86.662 E152.4526 F2400
G0 X36.837 Y87.228 F5400
G1 X90.090 Y140.481 E156.2099 F2400
G0 X89.525 Y140.481 F5400
G1 X36.837 Y87.794 E159.9273 F2400
G0 X36.837 Y88.359 F5400
G1 X88.959 Y140.481 E163.6047 F2400
G0 X88.393 Y140.481 F5400
G1 X36.837 Y88.925 E167.2423 F2400
G0 X36.837 Y89.491 F5400
G1 X87.828 Y140.481 E170.8399 F2400
G0 X87.262 Y140.481 F5400
G1 X36.837 Y90.056 E174.3976 F2400
G0 X36.837 Y90.622 F5400
G1 X86.696 Y140.481 E177.9154 F2400
G0 X86.130 Y140.481 F5400
G1 X36.837 Y91.188 E181.3933 F2400
G0 X36.837 Y91.753 F5400
G1 X85.565 Y140.481 E184.8313 F2400
G0 X84.999 Y140.481 F5400
G1 X36.837 Y92.319 E188.2293 F2400
G0 X36.837 Y92.885 F5400
G1 X84.433 Y140.481 E191.5875 F2400
G0 X83.868 Y140.481 F5400
G1 X36.837 Y93.451 E194.9057 F2400
G0 X36.837 Y94.016 F5400
G1 X83.302 Y140.481 E198.1841 F2400
G0 X82.736 Y140.481 F5400
G1 X36.837 Y94.582 E201.4225 F2400
G0 X36.837 Y95.148 F5400
G1 X82.171 Y140.481 E204.6210 F2400
G0 X81.605 Y140.481 F5400
G1 X36.837 Y95.713 E207.7796 F2400
G0 X36.837 Y96.279 F5400
G1 X81.039 Y140.481 E210.8983 F2400
G0 X80.474 Y140.481 F5400
G1 X36.837 Y96.845 E213.9770 F2400
G0 X36.837 Y97.410 F5400
G1 X79.908 Y140.481 E217.0159 F2400
G0 X79.342 Y140.481 F5400
G1 X36.837 Y97.976 E220.0149 F2400
G0 X36.837 Y98.542 F5400
G1 X78.777 Y140.481 E222.9739 F2400
G0 X78.211 Y140.481 F5400
G1 X36.837 Y99.107 E225.8930 F2400
G0 X36.837 Y99.673 F5400
G1 X77.645 Y140.481 E228.7722 F2400
G0 X77.080 Y140.481 F5400
G1 X36.837 Y100.239 E231.6115 F2400
G0 X36.837 Y100.804 F5400
G1 X76.514 Y140.481 E234.4109 F2400
G0 X75.948 Y140.481 F5400
G1 X36.837 Y101.370 E237.1704 F2400
G0 X36.837 Y101.936 F5400
G1 X75.382 Y140.481 E239.8899 F2400
G0 X74.817 Y140.481 F5400
G1 X36.837 Y102.501 E242.5696 F2400
G0 X36.837 Y103.067 F5400
G1 X74.251 Y140.481 E245.2093 F2400
G0 X73.685 Y140.481 F5400
G1 X36.837 Y103.633 E247.8091 F2400
G0 X36.837 Y104.199 F5400
G1 X73.120 Y140.481 E250.3690 F2400
G0 X72.554 Y140.481 F5400
G1 X36.837 Y104.764 E252.8891 F2400
G0 X36.837 Y105.330 F5400
G1 X71.988 Y140.481 E255.3691 F2400
G0 X71.423 Y140.481 F5400
G1 X36.837 Y105.896 E257.8093 F2400
G0 X36.837 Y106.461 F5400
G1 X70.857 Y140.481 E260.2096 F2400
G0 X70.291 Y140.481 F5400
G1 X36.837 Y107.027 E262.5699 F2400
G0 X36.837 Y107.593 F5400
G1 X69.726 Y140.481 E264.8904 F2400
G0 X69.160 Y140.481 F5400
G1 X36.837 Y108.158 E267.1709 F2400
G0 X36.837 Y108.724 F5400
G1 X68.594 Y140.481 E269.4115 F2400
G0 X68.029 Y140.481 F5400
G1 X36.837 Y109.290 E271.6122 F2400
G0 X36.837 Y109.855 F5400
G1 X67.463 Y140.481 E273.7730 F2400
G0 X66.897 Y140.481 F5400
G1 X36.837 Y110.421 E275.8939 F2400
G0 X36.837 Y110.987 F5400
G1 X66.332 Y140.481 E277.9748 F2400
G0 X65.766 Y140.481 F5400
G1 X36.837 Y111.552 E280.0159 F2400
G0 X36.837 Y112.118 F5400
G1 X65.200 Y140.481 E282.0170 F2400
G0 X64.634 Y140.481 F5400
G1 X36.837 Y112.684 E283.9783 F2400
G0 X36.837 Y113.250 F5400
G1 X64.069 Y140.481 E285.8996 F2400
G0 X63.503 Y140.481 F5400
G1 X36.837 Y113.815 E287.7810 F2400
G0 X36.837 Y114.381 F5400
G1 X62.937 Y140.481 E289.6225 F2400
G0 X62.372 Y140.481 F5400
G1 X36.837 Y114.947 E291.4241 F2400
G0 X36.837 Y115.512 F5400
G1 X61.806 Y140.481 E293.1857 F2400
G0 X61.240 Y140.481 F5400
G1 X36.837 Y116.078 E294.9075 F2400
G0 X36.837 Y116.644 F5400
G1 X60.675 Y140.481 E296.5893 F2400
G0 X60.109 Y140.481 F5400
G1 X36.837 Y117.209 E298.2313 F2400
G0 X36.837 Y117.775 F5400
G1 X59.543 Y140.481 E299.8333 F2400
G0 X58.978 Y140.481 F5400
G1 X36.837 Y118.341 E301.3954 F2400
G0 X36.837 Y118.906 F5400
G1 X58.412 Y140.481 E302.9176 F2400
G0 X57.846 Y140.481 F5400
G1 X36.837 Y119.472 E304.3999 F2400
G0 X36.837 Y120.038 F5400
G1 X57.281 Y140.481 E305.8422 F2400
G0 X56.715 Y140.481 F5400
G1 X36.837 Y120.603 E307.2447 F2400
G0 X36.837 Y121.169 F5400
G1 X56.149 Y140.481 E308.6073 F2400
G0 X55.583 Y140.481 F5400
G1 X36.837 Y121.735 E309.9299 F2400
G0 X36.837 Y122.300 F5400
G1 X55.018 Y140.481 E311.2126 F2400
G0 X54.452 Y140.481 F5400
G1 X36.837 Y122.866 E312.4554 F2400
G0 X36.837 Y123.432 F5400
G1 X53.886 Y140.481 E313.6583 F2400
G0 X53.321 Y140.481 F5400
G1 X36.837 Y123.998 E314.8213 F2400
G0 X36.837 Y124.563 F5400
G1 X52.755 Y140.481 E315.9444 F2400
G0 X52.189 Y140.481 F5400
G1 X36.837 Y125.129 E317.0275 F2400
G0 X36.837 Y125.695 F5400
G1 X51.624 Y140.481 E318.0708 F2400
G0 X51.058 Y140.481 F5400
G1 X36.837 Y126.260 E319.0741 F2400
G0 X36.837 Y126.826 F5400
G1 X50.492 Y140.481 E320.0375 F2400
G0 X49.927 Y140.481 F5400
G1 X36.837 Y127.392 E320.9611 F2400
G0 X36.837 Y127.957 F5400
G1 X49.361 Y140.481 E321.8447 F2400
G0 X48.795 Y140.481 F5400
G1 X36.837 Y128.523 E322.6884 F2400
G0 X36.837 Y129.089 F5400
G1 X48.230 Y140.481 E323.4921 F2400
G0 X47.664 Y140.481 F5400
G1 X36.837 Y129.654 E324.2560 F2400
G0 X36.837 Y130.220 F5400
G1 X47.098 Y140.481 E324.9799 F2400
G0 X46.533 Y140.481 F5400
G1 X36.837 Y130.786 E325.6640 F2400
G0 X36.837 Y131.351 F5400
G1 X45.967 Y140.481 E326.3081 F2400
G0 X45.401 Y140.481 F5400
G1 X36.837 Y131.917 E326.9123 F2400
G0 X36.837 Y132.483 F5400
G1 X44.835 Y140.481 E327.4766 F2400
G0 X44.270 Y140.481 F5400
G1 X36.837 Y133.049 E328.0010 F2400
G0 X36.837 Y133.614 F5400
G1 X43.704 Y140.481 E328.4855 F2400
G0 X43.138 Y140.481 F5400
G1 X36.837 Y134.180 E328.9301 F2400
G0 X36.837 Y134.746 F5400
G1 X42.573 Y140.481 E329.3347 F2400
G0 X42.007 Y140.481 F5400
G1 X36.837 Y135.311 E329.6995 F2400
G0 X36.837 Y135.877 F5400
G1 X41.441 Y140.481 E330.0243 F2400
G0 X40.876 Y140.481 F5400
G1 X36.837 Y136.443 E330.3092 F2400
G0 X36.837 Y137.008 F5400
G1 X40.310 Y140.481 E330.5542 F2400
G0 X39.744 Y140.481 F5400
G1 X36.837 Y137.574 E330.7593 F2400
G0 X36.837 Y138.140 F5400
G1 X39.179 Y140.481 E330.9245 F2400
G0 X38.613 Y140.481 F5400
G1 X36.837 Y138.705 E331.0498 F2400
G0 X36.837 Y139.271 F5400
G1 X38.047 Y140.481 E331.1351 F2400
G0 X37.482 Y140.481 F5400
G1 X36.837 Y139.837 E331.1806 F2400
G0 X98.010 Y140.481 F5400
G1 X42.781 Y85.252 E335.0773 F2400
G0 X43.347 Y85.252 F5400
G1 X98.576 Y140.481 E338.9740 F2400
G0 X99.141 Y140.481 F5400
G1 X43.912 Y85.252 E342.8707 F2400
G0 X44.478 Y85.252 F5400
G1 X99.707 Y140.481 E346.7674 F2400
G0 X100.273 Y140.481 F5400
G1 X45.044 Y85.252 E350.6641 F2400
G0 X45.610 Y85.252 F5400
G1 X100.838 Y140.481 E354.5608 F2400
G0 X101.404 Y140.481 F5400
G1 X46.175 Y85.252 E358.4575 F2400
G0 X46.741 Y85.252 F5400
G1 X101.970 Y140.481 E362.3542 F2400
G0 X102.535 Y140.481 F5400
G1 X47.307 Y85.252 E366.2509 F2400
G0 X47.872 Y85.252 F5400
G1 X103.101 Y140.481 E370.1476 F2400
G0 X103.667 Y140.481 F5400
G1 X48.438 Y85.252 E374.0443 F2400
G0 X49.004 Y85.252 F5400
G1 X104.232 Y140.481 E377.9410 F2400
G0 X104.798 Y140.481 F5400
G1 X49.569 Y85.252 E381.8377 F2400
G0 X50.135 Y85.252 F5400
G1 X105.364 Y140.481 E385.7344 F2400
G0 X105.929 Y140.481 F5400
G1 X50.701 Y85.252 E389.6311 F2400
G0 X51.266 Y85.252 F5400
G1 X106.495 Y140.481 E393.5278 F2400
G0 X107.061 Y140.481 F5400
G1 X51.832 Y85.252 E397.4245 F2400
G0 X52.398 Y85.252 F5400
G1 X107.627 Y140.481 E401.3211 F2400
G0 X108.192 Y140.481 F5400
G1 X52.963 Y85.252 E405.2178 F2400
G0 X53.529 Y85.252 F5400
G1 X108.758 Y140.481 E409.1145 F2400
G0 X109.324 Y140.481 F5400
G1 X54.095 Y85.252 E413.0112 F2400
G0 X54.660 Y85.252 F5400
G1 X109.889 Y140.481 E416.9079 F2400
G0 X110.455 Y140.481 F5400
G1 X55.226 Y85.252 E420.8047 F2400
G0 X55.792 Y85.252 F5400
G1 X111.021 Y140.481 E424.7013 F2400
G0 X111.586 Y140.481 F5400
G1 X56.358 Y85.252 E428.5980 F2400
G0 X56.923 Y85.252 F5400
G1 X112.152 Y140.481 E432.4947 F2400
G0 X112.718 Y140.481 F5400
G1 X57.489 Y85.252 E436.3914 F2400
G0 X58.055 Y85.252 F5400
G1 X113.283 Y140.481 E440.2881 F2400
G0 X113.849 Y140.481 F5400
G1 X58.620 Y85.252 E444.1848 F2400
G0 X59.186 Y85.252 F5400
G1 X114.415 Y140.481 E448.0815 F2400
G0 X114.980 Y140.481 F5400
G1 X59.752 Y85.252 E451.9782 F2400
G0 X60.317 Y85.252 F5400
G1 X115.546 Y140.481 E455.8749 F2400
G0 X116.112 Y140.481 F5400
G1 X60.883 Y85.252 E459.7716 F2400
G0 X61.449 Y85.252 F5400
G1 X116.677 Y140.481 E463.6683 F2400
G0 X117.243 Y140.481 F5400
G1 X62.014 Y85.252 E467.5650 F2400
G0 X62.580 Y85.252 F5400
G1 X117.809 Y140.481 E471.4617 F2400
G0 X118.375 Y140.481 F5400
G1 X63.146 Y85.252 E475.3584 F2400
G0 X63.711 Y85.252 F5400
G1 X118.940 Y140.481 E479.2551 F2400
G0 X119.506 Y140.481 F5400
G1 X64.277 Y85.252 E483.1518 F2400
G0 X64.843 Y85.252 F5400
G1 X120.072 Y140.481 E487.0485 F2400
G0 X120.637 Y140.481 F5400
G1 X65.409 Y85.252 E490.9452 F2400
G0 X65.974 Y85.252 F5400
G1 X121.203 Y140.481 E494.8419 F2400
G0 X121.769 Y140.481 F5400
G1 X66.540 Y85.252 E498.7386 F2400
G0 X67.106 Y85.252 F5400
G1 X122.334 Y140.481 E502.6353 F2400
G0 X122.900 Y140.481 F5400
G1 X67.671 Y85.252 E506.5320 F2400
G0 X68.237 Y85.252 F5400
G1 X123.466 Y140.481 E510.4287 F2400
G0 X124.031 Y140.481 F5400
G1 X68.803 Y85.252 E514.3254 F2400
G0 X69.368 Y85.252 F5400
G1 X124.597 Y140.481 E518.2221 F2400
G0 X125.163 Y140.481 F5400
G1 X69.934 Y85.252 E522.1187 F2400
G0 X70.500 Y85.252 F5400
G1 X125.728 Y140.481 E526.0154 F2400
G0 X126.294 Y140.481 F5400
G1 X71.065 Y85.252 E529.9121 F2400
G0 X71.631 Y85.252 F5400
G1 X126.860 Y140.481 E533.8087 F2400
G0 X127.425 Y140.481 F5400
G1 X72.197 Y85.252 E537.7054 F2400
G0 X72.762 Y85.252 F5400
G1 X127.991 Y140.481 E541.6021 F2400
G0 X128.557 Y140.481 F5400
G1 X73.328 Y85.252 E545.4987 F2400
G0 X73.894 Y85.252 F5400
G1 X129.123 Y140.481 E549.3954 F2400
G0 X129.688 Y140.481 F5400
G1 X74.459 Y85.252 E553.2921 F2400
G0 X75.025 Y85.252 F5400
G1 X130.254 Y140.481 E557.1887 F2400
G0 X130.820 Y140.481 F5400
G1 X75.591 Y85.252 E561.0854 F2400
G0 X76.157 Y85.252 F5400
G1 X131.385 Y140.481 E564.9821 F2400
G0 X131.951 Y140.481 F5400
G1 X76.722 Y85.252 E568.8787 F2400
G0 X77.288 Y85.252 F5400
G1 X132.517 Y140.481 E572.7754 F2400
G0 X133.082 Y140.481 F5400
G1 X77.854 Y85.252 E576.6721 F2400
G0 X78.419 Y85.252 F5400
G1 X133.648 Y140.481 E580.5688 F2400
G0 X134.214 Y140.481 F5400
G1 X78.985 Y85.252 E584.4654 F2400
G0 X79.551 Y85.252 F5400
G1 X134.779 Y140.481 E588.3621 F2400
G0 X135.345 Y140.481 F5400
G1 X80.116 Y85.252 E592.2588 F2400
G0 X80.682 Y85.252 F5400
G1 X135.911 Y140.481 E596.1554 F2400
G0 X136.476 Y140.481 F5400
G1 X81.248 Y85.252 E600.0521 F2400
G0 X81.813 Y85.252 F5400
G1 X137.042 Y140.481 E603.9488 F2400
G0 X137.608 Y140.481 F5400
G1 X82.379 Y85.252 E607.8454 F2400
G0 X82.945 Y85.252 F5400
G1 X138.174 Y140.481 E611.7421 F2400
G0 X138.739 Y140.481 F5400
G1 X83.510 Y85.252 E615.6388 F2400
G0 X84.076 Y85.252 F5400
G1 X139.305 Y140.481 E619.5354 F2400
G0 X139.871 Y140.481 F5400
G1 X84.642 Y85.252 E623.4321 F2400
G0 X85.208 Y85.252 F5400
G1 X140.436 Y140.481 E627.3288 F2400
G0 X141.002 Y140.481 F5400
G1 X85.773 Y85.252 E631.2254 F2400
G0 X86.339 Y85.252 F5400
G1 X141.568 Y140.481 E635.1221 F2400
G0 X142.133 Y140.481 F5400
G1 X86.905 Y85.252 E639.0188 F2400
G0 X87.470 Y85.252 F5400
G1 X142.699 Y140.481 E642.9154 F2400
G0 X143.265 Y140.481 F5400
G1 X88.036 Y85.252 E646.8121 F2400
G0 X88.602 Y85.252 F5400
G1 X143.830 Y140.481 E650.7088 F2400
G0 X144.396 Y140.481 F5400
G1 X89.167 Y85.252 E654.6054 F2400
G0 X89.733 Y85.252 F5400
G1 X144.962 Y140.481 E658.5021 F2400
G0 X145.527 Y140.481 F5400
G1 X90.299 Y85.252 E662.3988 F2400
G0 X90.864 Y85.252 F5400
G1 X146.093 Y140.481 E666.2954 F2400
G0 X146.659 Y140.481 F5400
G1 X91.430 Y85.252 E670.1921 F2400
G0 X91.996 Y85.252 F5400
G1 X147.224 Y140.481 E674.0888 F2400
G0 X147.790 Y140.481 F5400
G1 X92.561 Y85.252 E677.9854 F2400
G0 X93.127 Y85.252 F5400
G1 X148.356 Y140.481 E681.8821 F2400
G0 X148.922 Y140.481 F5400
G1 X93.693 Y85.252 E685.7788 F2400
G0 X94.258 Y85.252 F5400
G1 X149.487 Y140.481 E689.6754 F2400
G0 X150.053 Y140.481 F5400
G1 X94.824 Y85.252 E693.5721 F2400
G0 X95.390 Y85.252 F5400
G1 X150.619 Y140.481 E697.4688 F2400
G0 X151.184 Y140.481 F5400
G1 X95.956 Y85.252 E701.3654 F2400
G0 X96.521 Y85.252 F5400
G1 X151.750 Y140.481 E705.2621 F2400
G0 X152.316 Y140.481 F5400
G1 X97.087 Y85.252 E709.1588 F2400
G0 X97.653 Y85.252 F5400
G1 X152.881 Y140.481 E713.0554 F2400
G0 X153.447 Y140.481 F5400
G1 X98.218 Y85.252 E716.9521 F2400
G0 X98.784 Y85.252 F5400
G1 X154.013 Y140.481 E720.8488 F2400
G0 X154.578 Y140.481 F5400
G1 X99.350 Y85.252 E724.7454 F2400
G0 X99.915 Y85.252 F5400
G1 X155.144 Y140.481 E728.6421 F2400
G0 X155.710 Y140.481 F5400
G1 X100.481 Y85.252 E732.5388 F2400
G0 X101.047 Y85.252 F5400
G1 X156.275 Y140.481 E736.4354 F2400
G0 X156.841 Y140.481 F5400
G1 X101.612 Y85.252 E740.3321 F2400
G0 X102.178 Y85.252 F5400
G1 X157.407 Y140.481 E744.2288 F2400
G0 X157.972 Y140.481 F5400
G1 X102.744 Y85.252 E748.1255 F2400
G0 X103.309 Y85.252 F5400
G1 X158.538 Y140.481 E752.0221 F2400
G0 X159.104 Y140.481 F5400
G1 X103.875 Y85.252 E755.9188 F2400
G0 X104.441 Y85.252 F5400
G1 X159.670 Y140.481 E759.8155 F2400
G0 X160.235 Y140.481 F5400
G1 X105.006 Y85.252 E763.7121 F2400
G0 X105.572 Y85.252 F5400
G1 X160.801 Y140.481 E767.6088 F2400
G0 X161.367 Y140.481 F5400
G1 X106.138 Y85.252 E771.5055 F2400
G0 X106.704 Y85.252 F5400
G1 X161.932 Y140.481 E775.4021 F2400
G0 X162.498 Y140.481 F5400
G1 X107.269 Y85.252 E779.2988 F2400
G0 X107.835 Y85.252 F5400
G1 X163.064 Y140.481 E783.1955 F2400
G0 X163.629 Y140.481 F5400
G1 X108.401 Y85.252 E787.0921 F2400
G0 X108.966 Y85.252 F5400
G1 X164.195 Y140.481 E790.9888 F2400
G0 X164.761 Y140.481 F5400
G1 X109.532 Y85.252 E794.8855 F2400
G0 X110.098 Y85.252 F5400
G1 X165.326 Y140.481 E798.7821 F2400
G0 X165.892 Y140.481 F5400
G1 X110.663 Y85.252 E802.6788 F2400
G0 X111.229 Y85.252 F5400
G1 X166.458 Y140.481 E806.5755 F2400
G0 X167.023 Y140.481 F5400
G1 X111.795 Y85.252 E810.4721 F2400
G0 X112.360 Y85.252 F5400
G1 X167.589 Y140.481 E814.3688 F2400
G0 X168.155 Y140.481 F5400
G1 X112.926 Y85.252 E818.2655 F2400
G0 X113.492 Y85.252 F5400
G1 X168.720 Y140.481 E822.1621 F2400
G0 X169.286 Y140.481 F5400
G1 X114.057 Y85.252 E826.0588 F2400
G0 X114.623 Y85.252 F5400
G1 X169.852 Y140.481 E829.9555 F2400
G0 X170.418 Y140.481 F5400
G1 X115.189 Y85.252 E833.8521 F2400
G0 X115.755 Y85.252 F5400
G1 X170.983 Y140.481 E837.7488 F2400
G0 X171.549 Y140.481 F5400
G1 X116.320 Y85.252 E841.6454 F2400
G0 X116.886 Y85.252 F5400
G1 X172.115 Y140.481 E845.5421 F2400
G0 X172.680 Y140.481 F5400
G1 X117.452 Y85.252 E849.4388 F2400
G0 X118.017 Y85.252 F5400
G1 X173.246 Y140.481 E853.3354 F2400
G0 X173.812 Y140.481 F5400
G1 X118.583 Y85.252 E857.2321 F2400
G0 X119.149 Y85.252 F5400
G1 X174.377 Y140.481 E861.1288 F2400
G0 X174.943 Y140.481 F5400
G1 X119.714 Y85.252 E865.0255 F2400
G0 X120.280 Y85.252 F5400
G1 X175.509 Y140.481 E868.9221 F2400
G0 X176.074 Y140.481 F5400
G1 X120.846 Y85.252 E872.8188 F2400
G0 X121.411 Y85.252 F5400
G1 X176.640 Y140.481 E876.7155 F2400
G0 X177.206 Y140.481 F5400
G1 X121.977 Y85.252 E880.6121 F2400
G0 X122.543 Y85.252 F5400
G1 X177.771 Y140.481 E884.5088 F2400
G0 X178.337 Y140.481 F5400
G1 X123.108 Y85.252 E888.4055 F2400
G0 X123.674 Y85.252 F5400
G1 X178.903 Y140.481 E892.3021 F2400
G0 X179.469 Y140.481 F5400
G1 X124.240 Y85.252 E896.1988 F2400
G0 X124.805 Y85.252 F5400
G1 X180.034 Y140.481 E900.0955 F2400
G0 X180.600 Y140.481 F5400
G1 X125.371 Y85.252 E903.9921 F2400
G0 X125.937 Y85.252 F5400
G1 X181.166 Y140.481 E907.8888 F2400
G0 X181.731 Y140.481 F5400
G1 X126.503 Y85.252 E911.7855 F2400
G0 X127.068 Y85.252 F5400
G1 X182.297 Y140.481 E915.6821 F2400
G0 X182.863 Y140.481 F5400
G1 X127.634 Y85.252 E919.5788 F2400
G0 X128.200 Y85.252 F5400
G1 X183.428 Y140.481 E923.4755 F2400
G0 X183.994 Y140.481 F5400
G1 X128.765 Y85.252 E927.3721 F2400
G0 X129.331 Y85.252 F5400
G1 X184.560 Y140.481 E931.2688 F2400
G0 X185.125 Y140.481 F5400
G1 X129.897 Y85.252 E935.1655 F2400
G0 X130.462 Y85.252 F5400
G1 X185.691 Y140.481 E939.0621 F2400
G0 X186.257 Y140.481 F5400
G1 X131.028 Y85.252 E942.9588 F2400
G0 X131.594 Y85.252 F5400
G1 X186.822 Y140.481 E946.8555 F2400
G0 X187.388 Y140.481 F5400
G1 X132.159 Y85.252 E950.7521 F2400
G0 X132.725 Y85.252 F5400
G1 X187.954 Y140.481 E954.6488 F2400
G0 X188.519 Y140.481 F5400
G1 X133.291 Y85.252 E958.5455 F2400
G0 X133.856 Y85.252 F5400
G1 X189.085 Y140.481 E962.4421 F2400
G0 X189.651 Y140.481 F5400
G1 X134.422 Y85.252 E966.3388 F2400
G0 X134.988 Y85.252 F5400
G1 X190.217 Y140.481 E970.2355 F2400
G0 X190.782 Y140.481 F5400
G1 X135.554 Y85.252 E974.1321 F2400
G0 X136.119 Y85.252 F5400
G1 X191.348 Y140.481 E978.0288 F2400
G0 X191.914 Y140.481 F5400
G1 X136.685 Y85.252 E981.9255 F2400
G0 X137.251 Y85.252 F5400
G1 X192.479 Y140.481 E985.8221 F2400
G0 X193.045 Y140.481 F5400
G1 X137.816 Y85.252 E989.7188 F2400
G0 X138.382 Y85.252 F5400
G1 X193.611 Y140.481 E993.6155 F2400
G0 X194.176 Y140.481 F5400
G1 X138.948 Y85.252 E997.5121 F2400
G0 X139.513 Y85.252 F5400
G1 X194.742 Y140.481 E1001.4088 F2400
G0 X195.308 Y140.481 F5400
G1 X140.079 Y85.252 E1005.3055 F2400
G0 X140.645 Y85.252 F5400
G1 X195.873 Y140.481 E1009.2021 F2400
G0 X196.439 Y140.481 F5400
G1 X141.210 Y85.252 E1013.0988 F2400
G0 X141.776 Y85.252 F5400
G1 X197.005 Y140.481 E1016.9955 F2400
G0 X197.570 Y140.481 F5400
G1 X142.342 Y85.252 E1020.8922 F2400
G0 X142.907 Y85.252 F5400
G1 X198.136 Y140.481 E1024.7888 F2400
G0 X198.702 Y140.481 F5400
G1 X143.473 Y85.252 E1028.6855 F2400
G0 X144.039 Y85.252 F5400
G1 X199.267 Y140.481 E1032.5823 F2400
G0 X199.833 Y140.481 F5400
G1 X144.604 Y85.252 E1036.4790 F2400
G0 X145.170 Y85.252 F5400
G1 X200.399 Y140.481 E1040.3757 F2400
G0 X200.965 Y140.481 F5400
G1 X145.736 Y85.252 E1044.2725 F2400
G0 X146.302 Y85.252 F5400
G1 X201.530 Y140.481 E1048.1692 F2400
G0 X202.096 Y140.481 F5400
G1 X146.867 Y85.252 E1052.0659 F2400
G0 X147.433 Y85.252 F5400
G1 X202.662 Y140.481 E1055.9626 F2400
G0 X203.227 Y140.481 F5400
G1 X147.999 Y85.252 E1059.8594 F2400
G0 X148.564 Y85.252 F5400
G1 X203.793 Y140.481 E1063.7561 F2400
G0 X204.359 Y140.481 F5400
G1 X149.130 Y85.252 E1067.6528 F2400
G0 X149.696 Y85.252 F5400
G1 X204.924 Y140.481 E1071.5496 F2400
G0 X205.490 Y140.481 F5400
G1 X150.261 Y85.252 E1075.4463 F2400
G0 X150.827 Y85.252 F5400
G1 X206.056 Y140.481 E1079.3430 F2400
G0 X206.621 Y140.481 F5400
G1 X151.393 Y85.252 E1083.2397 F2400
G0 X151.958 Y85.252 F5400
G1 X207.187 Y140.481 E1087.1365 F2400
G0 X207.753 Y140.481 F5400
G1 X152.524 Y85.252 E1091.0332 F2400
G0 X153.090 Y85.252 F5400
G1 X208.318 Y140.481 E1094.9299 F2400
G0 X208.884 Y140.481 F5400
G1 X153.655 Y85.252 E1098.8267 F2400
G0 X154.221 Y85.252 F5400
G1 X209.450 Y140.481 E1102.7234 F2400
G0 X210.016 Y140.481 F5400
G1 X154.787 Y85.252 E1106.6201 F2400
G0 X155.352 Y85.252 F5400
G1 X210.581 Y140.481 E1110.5168 F2400
G0 X211.147 Y140.481 F5400
G1 X155.918 Y85.252 E1114.4136 F2400
G0 X156.484 Y85.252 F5400
G1 X211.713 Y140.481 E1118.3103 F2400
G0 X212.278 Y140.481 F5400
G1 X157.050 Y85.252 E1122.2070 F2400
G0 X157.615 Y85.252 F5400
G1 X212.844 Y140.481 E1126.1038 F2400
G0 X213.410 Y140.481 F5400
G1 X158.181 Y85.252 E1130.0005 F2400
G0 X158.747 Y85.252 F5400
G1 X213.975 Y140.481 E1133.8972 F2400
G0 X214.541 Y140.481 F5400
G1 X159.312 Y85.252 E1137.7939 F2400
G0 X159.878 Y85.252 F5400
G1 X215.107 Y140.481 E1141.6907 F2400
G0 X215.672 Y140.481 F5400
G1 X160.444 Y85.252 E1145.5874 F2400
G0 X161.009 Y85.252 F5400
G1 X216.238 Y140.481 E1149.4841 F2400
G0 X216.804 Y140.481 F5400
G1 X161.575 Y85.252 E1153.3809 F2400
G0 X162.141 Y85.252 F5400
G1 X217.369 Y140.481 E1157.2776 F2400
G0 X217.935 Y140.481 F5400
G1 X162.706 Y85.252 E1161.1743 F2400
G0 X163.272 Y85.252 F5400
G1 X218.501 Y140.481 E1165.0710 F2400
G0 X219.066 Y140.480 F5400
G1 X163.838 Y85.252 E1168.9677 F2400
G0 X164.403 Y85.252 F5400
G1 X219.066 Y139.915 E1172.8245 F2400
G0 X219.066 Y139.349 F5400
G1 X164.969 Y85.252 E1176.6414 F2400
G0 X165.535 Y85.252 F5400
G1 X219.066 Y138.783 E1180.4183 F2400
G0 X219.066 Y138.218 F5400
G1 X166.101 Y85.252 E1184.1554 F2400
G0 X166.666 Y85.252 F5400
G1 X219.066 Y137.652 E1187.8525 F2400
G0 X219.066 Y137.086 F5400
G1 X167.232 Y85.252 E1191.5098 F2400
G0 X167.798 Y85.252 F5400
G1 X219.066 Y136.521 E1195.1271 F2400
G0 X219.066 Y135.955 F5400
G1 X168.363 Y85.252 E1198.7045 F2400
G0 X168.929 Y85.252 F5400
G1 X219.066 Y135.389 E1202.2419 F2400
G0 X219.066 Y134.824 F5400
G1 X169.495 Y85.252 E1205.7395 F2400
G0 X170.060 Y85.252 F5400
G1 X219.066 Y134.258 E1209.1971 F2400
G0 X219.066 Y133.692 F5400
G1 X170.626 Y85.252 E1212.6149 F2400
G0 X171.192 Y85.252 F5400
G1 X219.066 Y133.127 E1215.9927 F2400
G0 X219.066 Y132.561 F5400
G1 X171.757 Y85.252 E1219.3306 F2400
G0 X172.323 Y85.252 F5400
G1 X219.066 Y131.995 E1222.6285 F2400
G0 X219.066 Y131.429 F5400
G1 X172.889 Y85.252 E1225.8866 F2400
G0 X173.454 Y85.252 F5400
G1 X219.066 Y130.864 E1229.1047 F2400
G0 X219.066 Y130.298 F5400
G1 X174.020 Y85.252 E1232.2830 F2400
G0 X174.586 Y85.252 F5400
G1 X219.066 Y129.732 E1235.4213 F2400
G0 X219.066 Y129.167 F5400
G1 X175.151 Y85.252 E1238.5197 F2400
G0 X175.717 Y85.252 F5400
G1 X219.066 Y128.601 E1241.5781 F2400
G0 X219.066 Y128.035 F5400
G1 X176.283 Y85.252 E1244.5967 F2400
G0 X176.849 Y85.252 F5400
G1 X219.066 Y127.470 E1247.5753 F2400
G0 X219.066 Y126.904 F5400
G1 X177.414 Y85.252 E1250.5140 F2400
G0 X177.980 Y85.252 F5400
G1 X219.066 Y126.338 E1253.4128 F2400
G0 X219.066 Y125.773 F5400
G1 X178.546 Y85.252 E1256.2717 F2400
G0 X179.111 Y85.252 F5400
G1 X219.066 Y125.207 E1259.0908 F2400
G0 X219.066 Y124.641 F5400
G1 X179.677 Y85.252 E1261.8700 F2400
G0 X180.243 Y85.252 F5400
G1 X219.066 Y124.076 E1264.6093 F2400
G0 X219.066 Y123.510 F5400
G1 X180.808 Y85.252 E1267.3086 F2400
G0 X181.374 Y85.252 F5400
G1 X219.066 Y122.944 E1269.9680 F2400
G0 X219.066 Y122.379 F5400
G1 X181.940 Y85.252 E1272.5875 F2400
G0 X182.505 Y85.252 F5400
G1 X219.066 Y121.813 E1275.1671 F2400
G0 X219.066 Y121.247 F5400
G1 X183.071 Y85.252 E1277.7068 F2400
G0 X183.637 Y85.252 F5400
G1 X219.066 Y120.681 E1280.2065 F2400
G0 X219.066 Y120.116 F5400
G1 X184.202 Y85.252 E1282.6664 F2400
G0 X184.768 Y85.252 F5400
G1 X219.066 Y119.550 E1285.0863 F2400
G0 X219.066 Y118.984 F5400
G1 X185.334 Y85.252 E1287.4663 F2400
G0 X185.899 Y85.252 F5400
G1 X219.066 Y118.419 E1289.8064 F2400
G0 X219.066 Y117.853 F5400
G1 X186.465 Y85.252 E1292.1066 F2400
G0 X187.031 Y85.252 F5400
G1 X219.066 Y117.287 E1294.3668 F2400
G0 X219.066 Y116.722 F5400
G1 X187.597 Y85.252 E1296.5872 F2400
G0 X188.162 Y85.252 F5400
G1 X219.066 Y116.156 E1298.7676 F2400
G0 X219.066 Y115.590 F5400
G1 X188.728 Y85.252 E1300.9081 F2400
G0 X189.294 Y85.252 F5400
G1 X219.066 Y115.025 E1303.0087 F2400
G0 X219.066 Y114.459 F5400
G1 X189.859 Y85.252 E1305.0693 F2400
G0 X190.425 Y85.252 F5400
G1 X219.066 Y113.893 E1307.0901 F2400
G0 X219.066 Y113.328 F5400
G1 X190.991 Y85.252 E1309.0709 F2400
G0 X191.556 Y85.252 F5400
G1 X219.066 Y112.762 E1311.0118 F2400
G0 X219.066 Y112.196 F5400
G1 X192.122 Y85.252 E1312.9128 F2400
G0 X192.688 Y85.252 F5400
G1 X219.066 Y111.631 E1314.7739 F2400
G0 X219.066 Y111.065 F5400
G1 X193.253 Y85.252 E1316.5952 F2400
G0 X193.819 Y85.252 F5400
G1 X219.066 Y110.499 E1318.3766 F2400
G0 X219.066 Y109.933 F5400
G1 X194.385 Y85.252 E1320.1180 F2400
G0 X194.950 Y85.252 F5400
G1 X219.066 Y109.368 E1321.8196 F2400
G0 X219.066 Y108.802 F5400
G1 X195.516 Y85.252 E1323.4812 F2400
G0 X196.082 Y85.252 F5400
G1 X219.066 Y108.236 E1325.1029 F2400
G0 X219.066 Y107.671 F5400
G1 X196.647 Y85.252 E1326.6847 F2400
G0 X197.213 Y85.252 F5400
G1 X219.066 Y107.105 E1328.2266 F2400
G0 X219.066 Y106.539 F5400
G1 X197.779 Y85.252 E1329.7285 F2400
G0 X198.345 Y85.252 F5400
G1 X219.066 Y105.974 E1331.1906 F2400
G0 X219.066 Y105.408 F5400
G1 X198.910 Y85.252 E1332.6127 F2400
G0 X199.476 Y85.252 F5400
G1 X219.066 Y104.842 E1333.9949 F2400
G0 X219.066 Y104.277 F5400
G1 X200.042 Y85.252 E1335.3372 F2400
G0 X200.607 Y85.252 F5400
G1 X219.066 Y103.711 E1336.6395 F2400
G0 X219.066 Y103.145 F5400
G1 X201.173 Y85.252 E1337.9020 F2400
G0 X201.739 Y85.252 F5400
G1 X219.066 Y102.580 E1339.1245 F2400
G0 X219.066 Y102.014 F5400
G1 X202.304 Y85.252 E1340.3071 F2400
G0 X202.870 Y85.252 F5400
G1 X219.066 Y101.448 E1341.4498 F2400
G0 X219.066 Y100.882 F5400
G1 X203.436 Y85.252 E1342.5526 F2400
G0 X204.001 Y85.252 F5400
G1 X219.066 Y100.317 E1343.6155 F2400
G0 X219.066 Y99.751 F5400
G1 X204.567 Y85.252 E1344.6384 F2400
G0 X205.133 Y85.252 F5400
G1 X219.066 Y99.185 E1345.6215 F2400
G0 X219.066 Y98.620 F5400
G1 X205.698 Y85.252 E1346.5646 F2400
G0 X206.264 Y85.252 F5400
G1 X219.066 Y98.054 E1347.4678 F2400
G0 X219.066 Y97.488 F5400
G1 X206.830 Y85.252 E1348.3312 F2400
G0 X207.395 Y85.252 F5400
G1 X219.066 Y96.923 E1349.1547 F2400
G0 X219.066 Y96.357 F5400
G1 X207.961 Y85.252 E1349.9382 F2400
G0 X208.527 Y85.252 F5400
G1 X219.066 Y95.791 E1350.6819 F2400
G0 X219.066 Y95.226 F5400
G1 X209.093 Y85.252 E1351.3856 F2400
G0 X209.658 Y85.252 F5400
G1 X219.066 Y94.660 E1352.0494 F2400
G0 X219.066 Y94.094 F5400
G1 X210.224 Y85.252 E1352.6733 F2400
G0 X210.790 Y85.252 F5400
G1 X219.066 Y93.529 E1353.2573 F2400
G0 X219.066 Y92.963 F5400
G1 X211.355 Y85.252 E1353.8014 F2400
G0 X211.921 Y85.252 F5400
G1 X219.066 Y92.397 E1354.3055 F2400
G0 X219.066 Y91.832 F5400
G1 X212.487 Y85.252 E1354.7698 F2400
G0 X213.052 Y85.252 F5400
G1 X219.066 Y91.266 E1355.1941 F2400
G0 X219.066 Y90.700 F5400
G1 X213.618 Y85.252 E1355.5785 F2400
G0 X214.184 Y85.252 F5400
G1 X219.066 Y90.134 E1355.9230 F2400
G0 X219.066 Y89.569 F5400
G1 X214.749 Y85.252 E1356.2275 F2400
G0 X215.315 Y85.252 F5400
G1 X219.066 Y89.003 E1356.4922 F2400
G0 X219.066 Y88.437 F5400
G1 X215.881 Y85.252 E1356.7169 F2400
G0 X216.446 Y85.252 F5400
G1 X219.066 Y87.872 E1356.9017 F2400
G0 X219.066 Y87.306 F5400
G1 X217.012 Y85.252 E1357.0466 F2400
G0 X217.578 Y85.252 F5400
G1 X219.066 Y86.740 E1357.1516 F2400
G0 X219.066 Y86.175 F5400
G1 X218.144 Y85.252 E1357.2167 F2400
G0 X218.709 Y85.252 F5400
G1 X219.066 Y85.609 E1357.2418 F2400
G0 X219.066 Y84.892 F5400
G0 X41.626 Y84.892
G0 X41.626 Y77.341
G0 X219.066 Y77.341
G0 X219.066 Y77.341
G0 X219.066 Y66.928
G0 X219.066 Y66.941
G1 X218.327 Y66.202 E1357.2939 F2400
G0 X217.761 Y66.202 F5400
G1 X219.066 Y67.507 E1357.3860 F2400
G0 X219.066 Y68.073 F5400
G1 X217.196 Y66.202 E1357.5179 F2400
G0 X216.630 Y66.202 F5400
G1 X219.066 Y68.638 E1357.6898 F2400
G0 X219.066 Y69.204 F5400
G1 X216.064 Y66.202 E1357.9016 F2400
G0 X215.498 Y66.202 F5400
G1 X219.066 Y69.770 E1358.1533 F2400
G0 X219.066 Y70.335 F5400
G1 X214.933 Y66.202 E1358.4449 F2400
G0 X214.367 Y66.202 F5400
G1 X219.066 Y70.901 E1358.7765 F2400
G0 X219.066 Y71.467 F5400
G1 X213.801 Y66.202 E1359.1479 F2400
G0 X213.236 Y66.202 F5400
G1 X219.066 Y72.033 E1359.5593 F2400
G0 X219.066 Y72.598 F5400
G1 X212.670 Y66.202 E1360.0106 F2400
G0 X212.104 Y66.202 F5400
G1 X219.066 Y73.164 E1360.5018 F2400
G0 X219.066 Y73.730 F5400
G1 X211.539 Y66.202 E1361.0330 F2400
G0 X210.973 Y66.202 F5400
G1 X219.066 Y74.295 E1361.6040 F2400
G0 X219.066 Y74.861 F5400
G1 X210.407 Y66.202 E1362.2150 F2400
G0 X209.842 Y66.202 F5400
G1 X219.066 Y75.427 E1362.8658 F2400
G0 X219.066 Y75.992 F5400
G1 X209.276 Y66.202 E1363.5566 F2400
G0 X208.710 Y66.202 F5400
G1 X219.066 Y76.558 E1364.2874 F2400
G0 X218.923 Y76.981 F5400
G1 X208.145 Y66.202 E1365.0479 F2400
G0 X207.579 Y66.202 F5400
G1 X218.358 Y76.981 E1365.8083 F2400
G0 X217.792 Y76.981 F5400
G1 X207.013 Y66.202 E1366.5688 F2400
G0 X206.447 Y66.202 F5400
G1 X217.226 Y76.981 E1367.3293 F2400
G0 X216.661 Y76.981 F5400
G1 X205.882 Y66.202 E1368.0898 F2400
G0 X205.316 Y66.202 F5400
G1 X216.095 Y76.981 E1368.8503 F2400
G0 X215.529 Y76.981 F5400
G1 X204.750 Y66.202 E1369.6108 F2400
G0 X204.185 Y66.202 F5400
G1 X214.963 Y76.981 E1370.3713 F2400
G0 X214.398 Y76.981 F5400
G1 X203.619 Y66.202 E1371.1318 F2400
G0 X203.053 Y66.202 F5400
G1 X213.832 Y76.981 E1371.8923 F2400
G0 X213.266 Y76.981 F5400
G1 X202.488 Y66.202 E1372.6528 F2400
G0 X201.922 Y66.202 F5400
G1 X212.701 Y76.981 E1373.4133 F2400
G0 X212.135 Y76.981 F5400
G1 X201.356 Y66.202 E1374.1738 F2400
G0 X200.791 Y66.202 F5400
G1 X211.569 Y76.981 E1374.9343 F2400
G0 X211.004 Y76.981 F5400
G1 X200.225 Y66.202 E1375.6948 F2400
G0 X199.659 Y66.202 F5400
G1 X210.438 Y76.981 E1376.4553 F2400
G0 X209.872 Y76.981 F5400
G1 X199.094 Y66.202 E1377.2158 F2400
G0 X198.528 Y66.202 F5400
G1 X209.307 Y76.981 E1377.9763 F2400
G0 X208.741 Y76.981 F5400
G1 X197.962 Y66.202 E1378.7368 F2400
G0 X197.397 Y66.202 F5400
G1 X208.175 Y76.981 E1379.4973 F2400
G0 X207.610 Y76.981 F5400
G1 X196.831 Y66.202 E1380.2578 F2400
G0 X196.265 Y66.202 F5400
G1 X207.044 Y76.981 E1381.0183 F2400
G0 X206.478 Y76.981 F5400
G1 X195.699 Y66.202 E1381.7788 F2400
G0 X195.134 Y66.202 F5400
G1 X205.913 Y76.981 E1382.5393 F2400
G0 X205.347 Y76.981 F5400
G1 X194.568 Y66.202 E1383.2998 F2400
G0 X194.002 Y66.202 F5400
G1 X204.781 Y76.981 E1384.0603 F2400
G0 X204.215 Y76.981 F5400
G1 X193.437 Y66.202 E1384.8208 F2400
G0 X192.871 Y66.202 F5400
G1 X203.650 Y76.981 E1385.5813 F2400
G0 X203.084 Y76.981 F5400
G1 X192.305 Y66.202 E1386.3418 F2400
G0 X191.740 Y66.202 F5400
G1 X202.518 Y76.981 E1387.1023 F2400
G0 X201.953 Y76.981 F5400
G1 X191.174 Y66.202 E1387.8628 F2400
G0 X190.608 Y66.202 F5400
G1 X201.387 Y76.981 E1388.6233 F2400
G0 X200.821 Y76.981 F5400
G1 X190.043 Y66.202 E1389.3838 F2400
G0 X189.477 Y66.202 F5400
G1 X200.256 Y76.981 E1390.1443 F2400
G0 X199.690 Y76.981 F5400
G1 X188.911 Y66.202 E1390.9048 F2400
G0 X188.346 Y66.202 F5400
G1 X199.124 Y76.981 E1391.6653 F2400
G0 X198.559 Y76.981 F5400
G1 X187.780 Y66.202 E1392.4258 F2400
G0 X187.214 Y66.202 F5400
G1 X197.993 Y76.981 E1393.1863 F2400
G0 X197.427 Y76.981 F5400
G1 X186.649 Y66.202 E1393.9468 F2400
G0 X186.083 Y66.202 F5400
G1 X196.862 Y76.981 E1394.7073 F2400
G0 X196.296 Y76.981 F5400
G1 X185.517 Y66.202 E1395.4678 F2400
G0 X184.951 Y66.202 F5400
G1 X195.730 Y76.981 E1396.2283 F2400
G0 X195.164 Y76.981 F5400
G1 X184.386 Y66.202 E1396.9888 F2400
G0 X183.820 Y66.202 F5400
G1 X194.599 Y76.981 E1397.7493 F2400
G0 X194.033 Y76.981 F5400
G1 X183.254 Y66.202 E1398.5098 F2400
G0 X182.689 Y66.202 F5400
G1 X193.467 Y76.981 E1399.2703 F2400
G0 X192.902 Y76.981 F5400
G1 X182.123 Y66.202 E1400.0308 F2400
G0 X181.557 Y66.202 F5400
G1 X192.336 Y76.981 E1400.7913 F2400
G0 X191.770 Y76.981 F5400
G1 X180.992 Y66.202 E1401.5518 F2400
G0 X180.426 Y66.202 F5400
G1 X191.205 Y76.981 E1402.3123 F2400
G0 X190.639 Y76.981 F5400
G1 X179.860 Y66.202 E1403.0728 F2400
G0 X179.295 Y66.202 F5400
G1 X190.073 Y76.981 E1403.8333 F2400
G0 X189.508 Y76.981 F5400
G1 X178.729 Y66.202 E1404.5938 F2400
G0 X178.163 Y66.202 F5400
G1 X188.942 Y76.981 E1405.3542 F2400
G0 X188.376 Y76.981 F5400
G1 X177.598 Y66.202 E1406.1147 F2400
G0 X177.032 Y66.202 F5400
G1 X187.811 Y76.981 E1406.8752 F2400
G0 X187.245 Y76.981 F5400
G1 X176.466 Y66.202 E1407.6357 F2400
G0 X175.900 Y66.202 F5400
G1 X186.679 Y76.981 E1408.3962 F2400
G0 X186.114 Y76.981 F5400
G1 X175.335 Y66.202 E1409.1567 F2400
G0 X174.769 Y66.202 F5400
G1 X185.548 Y76.981 E1409.9172 F2400
G0 X184.982 Y76.981 F5400
G1 X174.203 Y66.202 E1410.6777 F2400
G0 X173.638 Y66.202 F5400
G1 X184.416 Y76.981 E1411.4382 F2400
G0 X183.851 Y76.981 F5400
G1 X173.072 Y66.202 E1412.1987 F2400
G0 X172.506 Y66.202 F5400
G1 X183.285 Y76.981 E1412.9592 F2400
G0 X182.719 Y76.981 F5400
G1 X171.941 Y66.202 E1413.7197 F2400
G0 X171.375 Y66.202 F5400
G1 X182.154 Y76.981 E1414.4802 F2400
G0 X181.588 Y76.981 F5400
G1 X170.809 Y66.202 E1415.2407 F2400
G0 X170.244 Y66.202 F5400
G1 X181.022 Y76.981 E1416.0012 F2400
G0 X180.457 Y76.981 F5400
G1 X169.678 Y66.202 E1416.7617 F2400
G0 X169.112 Y66.202 F5400
G1 X179.891 Y76.981 E1417.5222 F2400
G0 X179.325 Y76.981 F5400
G1 X168.547 Y66.202 E1418.2827 F2400
G0 X167.981 Y66.202 F5400
G1 X178.760 Y76.981 E1419.0432 F2400
G0 X178.194 Y76.981 F5400
G1 X167.415 Y66.202 E1419.8037 F2400
G0 X166.850 Y66.202 F5400
G1 X177.628 Y76.981 E1420.5642 F2400
G0 X177.063 Y76.981 F5400
G1 X166.284 Y66.202 E1421.3247 F2400
G0 X165.718 Y66.202 F5400
G1 X176.497 Y76.981 E1422.0852 F2400
G0 X175.931 Y76.981 F5400
G1 X165.152 Y66.202 E1422.8457 F2400
G0 X164.587 Y66.202 F5400
G1 X175.366 Y76.981 E1423.6062 F2400
G0 X174.800 Y76.981 F5400
G1 X164.021 Y66.202 E1424.3667 F2400
G0 X163.455 Y66.202 F5400
G1 X174.234 Y76.981 E1425.1272 F2400
G0 X173.668 Y76.981 F5400
G1 X162.890 Y66.202 E1425.8877 F2400
G0 X162.324 Y66.202 F5400
G1 X173.103 Y76.981 E1426.6482 F2400
G0 X172.537 Y76.981 F5400
G1 X161.758 Y66.202 E1427.4087 F2400
G0 X161.193 Y66.202 F5400
G1 X171.971 Y76.981 E1428.1692 F2400
G0 X171.406 Y76.981 F5400
G1 X160.627 Y66.202 E1428.9297 F2400
G0 X160.061 Y66.202 F5400
G1 X170.840 Y76.981 E1429.6902 F2400
G0 X170.274 Y76.981 F5400
G1 X159.496 Y66.202 E1430.4507 F2400
G0 X158.930 Y66.202 F5400
G1 X169.709 Y76.981 E1431.2112 F2400
G0 X169.143 Y76.981 F5400
G1 X158.364 Y66.202 E1431.9717 F2400
G0 X157.799 Y66.202 F5400
G1 X168.577 Y76.981 E1432.7322 F2400
G0 X168.012 Y76.981 F5400
G1 X157.233 Y66.202 E1433.4927 F2400
G0 X156.667 Y66.202 F5400
G1 X167.446 Y76.981 E1434.2532 F2400
G0 X166.880 Y76.981 F5400
G1 X156.102 Y66.202 E1435.0137 F2400
G0 X155.536 Y66.202 F5400
G1 X166.315 Y76.981 E1435.7742 F2400
G0 X165.749 Y76.981 F5400
G1 X154.970 Y66.202 E1436.5347 F2400
G0 X154.404 Y66.202 F5400
G1 X165.183 Y76.981 E1437.2952 F2400
G0 X164.618 Y76.981 F5400
G1 X153.839 Y66.202 E1438.0557 F2400
G0 X153.273 Y66.202 F5400
G1 X164.052 Y76.981 E1438.8162 F2400
G0 X163.486 Y76.981 F5400
G1 X152.707 Y66.202 E1439.5767 F2400
G0 X152.142 Y66.202 F5400
G1 X162.920 Y76.981 E1440.3372 F2400
G0 X162.355 Y76.981 F5400
G1 X151.576 Y66.202 E1441.0977 F2400
G0 X151.010 Y66.202 F5400
G1 X161.789 Y76.981 E1441.8582 F2400
G0 X161.223 Y76.981 F5400
G1 X150.445 Y66.202 E1442.6187 F2400
G0 X149.879 Y66.202 F5400
G1 X160.658 Y76.981 E1443.3792 F2400
G0 X160.092 Y76.981 F5400
G1 X149.313 Y66.202 E1444.1396 F2400
G0 X148.748 Y66.202 F5400
G1 X159.526 Y76.981 E1444.9001 F2400
G0 X158.961 Y76.981 F5400
G1 X148.182 Y66.202 E1445.6606 F2400
G0 X147.616 Y66.202 F5400
G1 X158.395 Y76.981 E1446.4211 F2400
G0 X157.829 Y76.981 F5400
G1 X147.051 Y66.202 E1447.1816 F2400
G0 X146.485 Y66.202 F5400
G1 X157.264 Y76.981 E1447.9421 F2400
G0 X156.698 Y76.981 F5400
G1 X145.919 Y66.202 E1448.7026 F2400
G0 X145.353 Y66.202 F5400
G1 X156.132 Y76.981 E1449.4631 F2400
G0 X155.567 Y76.981 F5400
G1 X144.788 Y66.202 E1450.2236 F2400
G0 X144.222 Y66.202 F5400
G1 X155.001 Y76.981 E1450.9841 F2400
G0 X154.435 Y76.981 F5400
G1 X143.656 Y66.202 E1451.7446 F2400
G0 X143.091 Y66.202 F5400
G1 X153.869 Y76.981 E1452.5051 F2400
G0 X153.304 Y76.981 F5400
G1 X142.525 Y66.202 E1453.2656 F2400
G0 X141.959 Y66.202 F5400
G1 X152.738 Y76.981 E1454.0261 F2400
G0 X152.172 Y76.981 F5400
G1 X141.394 Y66.202 E1454.7866 F2400
G0 X140.828 Y66.202 F5400
G1 X151.607 Y76.981 E1455.5471 F2400
G0 X151.041 Y76.981 F5400
G1 X140.262 Y66.202 E1456.3076 F2400
G0 X139.697 Y66.202 F5400
G1 X150.475 Y76.981 E1457.0681 F2400
G0 X149.910 Y76.981 F5400
G1 X139.131 Y66.202 E1457.8286 F2400
G0 X138.565 Y66.202 F5400
G1 X149.344 Y76.981 E1458.5891 F2400
G0 X148.778 Y76.981 F5400
G1 X138.000 Y66.202 E1459.3496 F2400
G0 X137.434 Y66.202 F5400
G1 X148.213 Y76.981 E1460.1101 F2400
G0 X147.647 Y76.981 F5400
G1 X136.868 Y66.202 E1460.8706 F2400
G0 X136.303 Y66.202 F5400
G1 X147.081 Y76.981 E1461.6311 F2400
G0 X146.516 Y76.981 F5400
G1 X135.737 Y66.202 E1462.3916 F2400
G0 X135.171 Y66.202 F5400
G1 X145.950 Y76.981 E1463.1521 F2400
G0 X145.384 Y76.981 F5400
G1 X134.605 Y66.202 E1463.9126 F2400
G0 X134.040 Y66.202 F5400
G1 X144.819 Y76.981 E1464.6731 F2400
G0 X144.253 Y76.981 F5400
G1 X133.474 Y66.202 E1465.4336 F2400
G0 X132.908 Y66.202 F5400
G1 X143.687 Y76.981 E1466.1941 F2400
G0 X143.121 Y76.981 F5400
G1 X132.343 Y66.202 E1466.9546 F2400
G0 X131.777 Y66.202 F5400
G1 X142.556 Y76.981 E1467.7151 F2400
G0 X141.990 Y76.981 F5400
G1 X131.211 Y66.202 E1468.4756 F2400
G0 X130.646 Y66.202 F5400
G1 X141.424 Y76.981 E1469.2361 F2400
G0 X140.859 Y76.981 F5400
G1 X130.080 Y66.202 E1469.9966 F2400
G0 X129.514 Y66.202 F5400
G1 X140.293 Y76.981 E1470.7571 F2400
G0 X139.727 Y76.981 F5400
G1 X128.949 Y66.202 E1471.5176 F2400
G0 X128.383 Y66.202 F5400
G1 X139.162 Y76.981 E1472.2781 F2400
G0 X138.596 Y76.981 F5400
G1 X127.817 Y66.202 E1473.0386 F2400
G0 X127.252 Y66.202 F5400
G1 X138.030 Y76.981 E1473.7991 F2400
G0 X137.465 Y76.981 F5400
G1 X126.686 Y66.202 E1474.5596 F2400
G0 X126.120 Y66.202 F5400
G1 X136.899 Y76.981 E1475.3201 F2400
G0 X136.333 Y76.981 F5400
G1 X125.555 Y66.202 E1476.0806 F2400
G0 X124.989 Y66.202 F5400
G1 X135.768 Y76.981 E1476.8411 F2400
G0 X135.202 Y76.981 F5400
G1 X124.423 Y66.202 E1477.6016 F2400
G0 X123.857 Y66.202 F5400
G1 X134.636 Y76.981 E1478.3621 F2400
G0 X134.071 Y76.981 F5400
G1 X123.292 Y66.202 E1479.1226 F2400
G0 X122.726 Y66.202 F5400
G1 X133.505 Y76.981 E1479.8831 F2400
G0 X132.939 Y76.981 F5400
G1 X122.160 Y66.202 E1480.6436 F2400
G0 X121.595 Y66.202 F5400
G1 X132.373 Y76.981 E1481.4041 F2400
G0 X131.808 Y76.981 F5400
G1 X121.029 Y66.202 E1482.1646 F2400
G0 X120.463 Y66.202 F5400
G1 X131.242 Y76.981 E1482.9250 F2400
G0 X130.676 Y76.981 F5400
G1 X119.898 Y66.202 E1483.6855 F2400
G0 X119.332 Y66.202 F5400
G1 X130.111 Y76.981 E1484.4460 F2400
G0 X129.545 Y76.981 F5400
G1 X118.766 Y66.202 E1485.2065 F2400
G0 X118.201 Y66.202 F5400
G1 X128.979 Y76.981 E1485.9670 F2400
G0 X128.414 Y76.981 F5400
G1 X117.635 Y66.202 E1486.7275 F2400
G0 X117.069 Y66.202 F5400
G1 X127.848 Y76.981 E1487.4880 F2400
G0 X127.282 Y76.981 F5400
G1 X116.504 Y66.202 E1488.2485 F2400
G0 X115.938 Y66.202 F5400
G1 X126.717 Y76.981 E1489.0090 F2400
G0 X126.151 Y76.981 F5400
G1 X115.372 Y66.202 E1489.7695 F2400
G0 X114.806 Y66.202 F5400
G1 X125.585 Y76.981 E1490.5300 F2400
G0 X125.020 Y76.981 F5400
G1 X114.241 Y66.202 E1491.2905 F2400
G0 X113.675 Y66.202 F5400
G1 X124.454 Y76.981 E1492.0510 F2400
G0 X123.888 Y76.981 F5400
G1 X113.109 Y66.202 E1492.8115 F2400
G0 X112.544 Y66.202 F5400
G1 X123.322 Y76.981 E1493.5720 F2400
G0 X122.757 Y76.981 F5400
G1 X111.978 Y66.202 E1494.3325 F2400
G0 X111.412 Y66.202 F5400
G1 X122.191 Y76.981 E1495.0930 F2400
G0 X121.625 Y76.981 F5400
G1 X110.847 Y66.202 E1495.8535 F2400
G0 X110.281 Y66.202 F5400
G1 X121.060 Y76.981 E1496.6140 F2400
G0 X120.494 Y76.981 F5400
G1 X109.715 Y66.202 E1497.3745 F2400
G0 X109.150 Y66.202 F5400
G1 X119.928 Y76.981 E1498.1350 F2400
G0 X119.363 Y76.981 F5400
G1 X108.584 Y66.202 E1498.8955 F2400
G0 X108.018 Y66.202 F5400
G1 X118.797 Y76.981 E1499.6560 F2400
G0 X118.231 Y76.981 F5400
G1 X107.453 Y66.202 E1500.4165 F2400
G0 X106.887 Y66.202 F5400
G1 X117.666 Y76.981 E1501.1770 F2400
G0 X117.100 Y76.981 F5400
G1 X106.321 Y66.202 E1501.9375 F2400
G0 X105.756 Y66.202 F5400
G1 X116.534 Y76.981 E1502.6980 F2400
G0 X115.969 Y76.981 F5400
G1 X105.190 Y66.202 E1503.4585 F2400
G0 X104.624 Y66.202 F5400
G1 X115.403 Y76.981 E1504.2190 F2400
G0 X114.837 Y76.981 F5400
G1 X104.058 Y66.202 E1504.9795 F2400
G0 X103.493 Y66.202 F5400
G1 X114.272 Y76.981 E1505.7400 F2400
G0 X113.706 Y76.981 F5400
G1 X102.927 Y66.202 E1506.5005 F2400
G0 X102.361 Y66.202 F5400
G1 X113.140 Y76.981 E1507.2610 F2400
G0 X112.574 Y76.981 F5400
G1 X101.796 Y66.202 E1508.0215 F2400
G0 X101.230 Y66.202 F5400
G1 X112.009 Y76.981 E1508.7820 F2400
G0 X111.443 Y76.981 F5400
G1 X100.664 Y66.202 E1509.5425 F2400
G0 X100.099 Y66.202 F5400
G1 X110.877 Y76.981 E1510.3030 F2400
G0 X110.312 Y76.981 F5400
G1 X99.533 Y66.202 E1511.0635 F2400
G0 X98.967 Y66.202 F5400
G1 X109.746 Y76.981 E1511.8240 F2400
G0 X109.180 Y76.981 F5400
G1 X98.402 Y66.202 E1512.5845 F2400
G0 X97.836 Y66.202 F5400
G1 X108.615 Y76.981 E1513.3450 F2400
G0 X108.049 Y76.981 F5400
G1 X97.270 Y66.202 E1514.1055 F2400
G0 X96.705 Y66.202 F5400
G1 X107.483 Y76.981 E1514.8660 F2400
G0 X106.918 Y76.981 F5400
G1 X96.139 Y66.202 E1515.6265 F2400
G0 X95.573 Y66.202 F5400
G1 X106.352 Y76.981 E1516.3870 F2400
G0 X105.786 Y76.981 F5400
G1 X95.007 Y66.202 E1517.1475 F2400
G0 X94.442 Y66.202 F5400
G1 X105.221 Y76.981 E1517.9080 F2400
G0 X104.655 Y76.981 F5400
G1 X93.876 Y66.202 E1518.6685 F2400
G0 X93.310 Y66.202 F5400
G1 X104.089 Y76.981 E1519.4290 F2400
G0 X103.524 Y76.981 F5400
G1 X92.745 Y66.202 E1520.1895 F2400
G0 X92.179 Y66.202 F5400
G1 X102.958 Y76.981 E1520.9500 F2400
G0 X102.392 Y76.981 F5400
G1 X91.613 Y66.202 E1521.7104 F2400
G0 X91.048 Y66.202 F5400
G1 X101.826 Y76.981 E1522.4709 F2400
G0 X101.261 Y76.981 F5400
G1 X90.482 Y66.202 E1523.2314 F2400
G0 X89.916 Y66.202 F5400
G1 X100.695 Y76.981 E1523.9919 F2400
G0 X100.129 Y76.981 F5400
G1 X89.351 Y66.202 E1524.7524 F2400
G0 X88.785 Y66.202 F5400
G1 X99.564 Y76.981 E1525.5129 F2400
G0 X98.998 Y76.981 F5400
G1 X88.219 Y66.202 E1526.2734 F2400
G0 X87.654 Y66.202 F5400
G1 X98.432 Y76.981 E1527.0339 F2400
G0 X97.867 Y76.981 F5400
G1 X87.088 Y66.202 E1527.7944 F2400
G0 X86.522 Y66.202 F5400
G1 X97.301 Y76.981 E1528.5549 F2400
G0 X96.735 Y76.981 F5400
G1 X85.957 Y66.202 E1529.3154 F2400
G0 X85.391 Y66.202 F5400
G1 X96.170 Y76.981 E1530.0759 F2400
G0 X95.604 Y76.981 F5400
G1 X84.825 Y66.202 E1530.8364 F2400
G0 X84.259 Y66.202 F5400
G1 X95.038 Y76.981 E1531.5969 F2400
G0 X94.473 Y76.981 F5400
G1 X83.694 Y66.202 E1532.3574 F2400
G0 X83.128 Y66.202 F5400
G1 X93.907 Y76.981 E1533.1179 F2400
G0 X93.341 Y76.981 F5400
G1 X82.562 Y66.202 E1533.8784 F2400
G0 X81.997 Y66.202 F5400
G1 X92.775 Y76.981 E1534.6389 F2400
G0 X92.210 Y76.981 F5400
G1 X81.431 Y66.202 E1535.3994 F2400
G0 X80.865 Y66.202 F5400
G1 X91.644 Y76.981 E1536.1599 F2400
G0 X91.078 Y76.981 F5400
G1 X80.300 Y66.202 E1536.9204 F2400
G0 X79.734 Y66.202 F5400
G1 X90.513 Y76.981 E1537.6809 F2400
G0 X89.947 Y76.981 F5400
G1 X79.168 Y66.202 E1538.4414 F2400
G0 X78.603 Y66.202 F5400
G1 X89.381 Y76.981 E1539.2019 F2400
G0 X88.816 Y76.981 F5400
G1 X78.037 Y66.202 E1539.9624 F2400
G0 X77.471 Y66.202 F5400
G1 X88.250 Y76.981 E1540.7229 F2400
G0 X87.684 Y76.981 F5400
G1 X76.906 Y66.202 E1541.4834 F2400
G0 X76.340 Y66.202 F5400
G1 X87.119 Y76.981 E1542.2439 F2400
G0 X86.553 Y76.981 F5400
G1 X75.774 Y66.202 E1543.0044 F2400
G0 X75.209 Y66.202 F5400
G1 X85.987 Y76.981 E1543.7649 F2400
G0 X85.422 Y76.981 F5400
G1 X74.643 Y66.202 E1544.5254 F2400
G0 X74.077 Y66.202 F5400
G1 X84.856 Y76.981 E1545.2859 F2400
G0 X84.290 Y76.981 F5400
G1 X73.511 Y66.202 E1546.0464 F2400
G0 X72.946 Y66.202 F5400
G1 X83.725 Y76.981 E1546.8069 F2400
G0 X83.159 Y76.981 F5400
G1 X72.380 Y66.202 E1547.5674 F2400
G0 X71.814 Y66.202 F5400
G1 X82.593 Y76.981 E1548.3279 F2400
G0 X82.027 Y76.981 F5400
G1 X71.249 Y66.202 E1549.0884 F2400
G0 X70.683 Y66.202 F5400
G1 X81.462 Y76.981 E1549.8489 F2400
G0 X80.896 Y76.981 F5400
G1 X70.117 Y66.202 E1550.6094 F2400
G0 X69.552 Y66.202 F5400
G1 X80.330 Y76.981 E1551.3699 F2400
G0 X79.765 Y76.981 F5400
G1 X68.986 Y66.202 E1552.1304 F2400
G0 X68.420 Y66.202 F5400
G1 X79.199 Y76.981 E1552.8909 F2400
G0 X78.633 Y76.981 F5400
G1 X67.855 Y66.202 E1553.6514 F2400
G0 X67.289 Y66.202 F5400
G1 X78.068 Y76.981 E1554.4119 F2400
G0 X77.502 Y76.981 F5400
G1 X66.723 Y66.202 E1555.1724 F2400
G0 X66.158 Y66.202 F5400
G1 X76.936 Y76.981 E1555.9329 F2400
G0 X76.371 Y76.981 F5400
G1 X65.592 Y66.202 E1556.6934 F2400
G0 X65.026 Y66.202 F5400
G1 X75.805 Y76.981 E1557.4539 F2400
G0 X75.239 Y76.981 F5400
G1 X64.460 Y66.202 E1558.2144 F2400
G0 X63.895 Y66.202 F5400
G1 X74.674 Y76.981 E1558.9749 F2400
G0 X74.108 Y76.981 F5400
G1 X63.329 Y66.202 E1559.7354 F2400
G0 X62.763 Y66.202 F5400
G1 X73.542 Y76.981 E1560.4958 F2400
G0 X72.976 Y76.981 F5400
G1 X62.198 Y66.202 E1561.2563 F2400
G0 X61.632 Y66.202 F5400
G1 X72.411 Y76.981 E1562.0168 F2400
G0 X71.845 Y76.981 F5400
G1 X61.066 Y66.202 E1562.7773 F2400
G0 X60.501 Y66.202 F5400
G1 X71.279 Y76.981 E1563.5378 F2400
G0 X70.714 Y76.981 F5400
G1 X59.935 Y66.202 E1564.2983 F2400
G0 X59.369 Y66.202 F5400
G1 X70.148 Y76.981 E1565.0588 F2400
G0 X69.582 Y76.981 F5400
G1 X58.804 Y66.202 E1565.8193 F2400
G0 X58.238 Y66.202 F5400
G1 X69.017 Y76.981 E1566.5798 F2400
G0 X68.451 Y76.981 F5400
G1 X57.672 Y66.202 E1567.3403 F2400
G0 X57.107 Y66.202 F5400
G1 X67.885 Y76.981 E1568.1008 F2400
G0 X67.320 Y76.981 F5400
G1 X56.541 Y66.202 E1568.8613 F2400
G0 X55.975 Y66.202 F5400
G1 X66.754 Y76.981 E1569.6218 F2400
G0 X66.188 Y76.981 F5400
G1 X55.410 Y66.202 E1570.3823 F2400
G0 X54.844 Y66.202 F5400
G1 X65.623 Y76.981 E1571.1428 F2400
G0 X65.057 Y76.981 F5400
G1 X54.278 Y66.202 E1571.9033 F2400
G0 X53.712 Y66.202 F5400
G1 X64.491 Y76.981 E1572.6638 F2400
G0 X63.926 Y76.981 F5400
G1 X53.147 Y66.202 E1573.4243 F2400
G0 X52.581 Y66.202 F5400
G1 X63.360 Y76.981 E1574.1848 F2400
G0 X62.794 Y76.981 F5400
G1 X52.015 Y66.202 E1574.9453 F2400
G0 X51.450 Y66.202 F5400
G1 X62.228 Y76.981 E1575.7058 F2400
G0 X61.663 Y76.981 F5400
G1 X50.884 Y66.202 E1576.4663 F2400
G0 X50.318 Y66.202 F5400
G1 X61.097 Y76.981 E1577.2268 F2400
G0 X60.531 Y76.981 F5400
G1 X49.753 Y66.202 E1577.9873 F2400
G0 X49.187 Y66.202 F5400
G1 X59.966 Y76.981 E1578.7478 F2400
G0 X59.400 Y76.981 F5400
G1 X48.621 Y66.202 E1579.5083 F2400
G0 X48.056 Y66.202 F5400
G1 X58.834 Y76.981 E1580.2688 F2400
G0 X58.269 Y76.981 F5400
G1 X47.490 Y66.202 E1581.0293 F2400
G0 X46.924 Y66.202 F5400
G1 X57.703 Y76.981 E1581.7898 F2400
G0 X57.137 Y76.981 F5400
G1 X46.359 Y66.202 E1582.5503 F2400
G0 X45.793 Y66.202 F5400
G1 X56.572 Y76.981 E1583.3108 F2400
G0 X56.006 Y76.981 F5400
G1 X45.227 Y66.202 E1584.0713 F2400
G0 X44.662 Y66.202 F5400
G1 X55.440 Y76.981 E1584.8318 F2400
G0 X54.875 Y76.981 F5400
G1 X44.096 Y66.202 E1585.5923 F2400
G0 X43.530 Y66.202 F5400
G1 X54.309 Y76.981 E1586.3528 F2400
G0 X53.743 Y76.981 F5400
G1 X42.964 Y66.202 E1587.1133 F2400
G0 X42.399 Y66.202 F5400
G1 X53.178 Y76.981 E1587.8738 F2400
G0 X52.612 Y76.981 F5400
G1 X41.833 Y66.202 E1588.6343 F2400
G0 X41.267 Y66.202 F5400
G1 X52.046 Y76.981 E1589.3948 F2400
G0 X51.480 Y76.981 F5400
G1 X40.702 Y66.202 E1590.1553 F2400
G0 X40.136 Y66.202 F5400
G1 X50.915 Y76.981 E1590.9158 F2400
G0 X50.349 Y76.981 F5400
G1 X39.570 Y66.202 E1591.6763 F2400
G0 X39.005 Y66.202 F5400
G1 X49.783 Y76.981 E1592.4368 F2400
G0 X49.218 Y76.981 F5400
G1 X38.439 Y66.202 E1593.1973 F2400
G0 X37.873 Y66.202 F5400
G1 X48.652 Y76.981 E1593.9578 F2400
G0 X48.086 Y76.981 F5400
G1 X37.308 Y66.202 E1594.7183 F2400
G0 X36.837 Y66.298 F5400
G1 X47.521 Y76.981 E1595.4720 F2400
G0 X46.955 Y76.981 F5400
G1 X36.837 Y66.863 E1596.1859 F2400
G0 X36.837 Y67.429 F5400
G1 X46.389 Y76.981 E1596.8599 F2400
G0 X45.824 Y76.981 F5400
G1 X36.837 Y67.995 E1597.4939 F2400
G0 X36.837 Y68.560 F5400
G1 X45.258 Y76.981 E1598.0880 F2400
G0 X44.692 Y76.981 F5400
G1 X36.837 Y69.126 E1598.6422 F2400
G0 X36.837 Y69.692 F5400
G1 X44.127 Y76.981 E1599.1565 F2400
G0 X43.561 Y76.981 F5400
G1 X36.837 Y70.257 E1599.6309 F2400
G0 X36.837 Y70.823 F5400
G1 X42.995 Y76.981 E1600.0653 F2400
G0 X42.429 Y76.981 F5400
G1 X36.837 Y71.389 E1600.4598 F2400
G0 X36.837 Y71.955 F5400
G1 X41.864 Y76.981 E1600.8145 F2400
G0 X41.298 Y76.981 F5400
G1 X36.837 Y72.520 E1601.1292 F2400
G0 X36.837 Y73.086 F5400
G1 X41.266 Y77.515 E1601.4417 F2400
G0 X41.266 Y78.080 F5400
G1 X36.837 Y73.652 E1601.7542 F2400
G0 X36.837 Y74.217 F5400
G1 X41.266 Y78.646 E1602.0667 F2400
G0 X41.266 Y79.212 F5400
G1 X36.837 Y74.783 E1602.3792 F2400
G0 X36.837 Y75.349 F5400
G1 X41.266 Y79.777 E1602.6917 F2400
G0 X41.266 Y80.343 F5400
G1 X36.837 Y75.914 E1603.0042 F2400
G0 X36.837 Y76.480 F5400
G1 X41.266 Y80.909 E1603.3167 F2400
G0 X41.266 Y81.474 F5400
G1 X36.837 Y77.046 E1603.6292 F2400
G0 X36.837 Y77.611 F5400
G1 X41.266 Y82.040 E1603.9417 F2400
G0 X41.266 Y82.606 F5400
G1 X36.837 Y78.177 E1604.2542 F2400
G0 X36.837 Y78.743 F5400
G1 X41.266 Y83.172 E1604.5667 F2400
G0 X41.266 Y83.737 F5400
G1 X36.837 Y79.308 E1604.8792 F2400
G0 X36.837 Y79.874 F5400
G1 X41.266 Y84.303 E1605.1917 F2400
G0 X41.266 Y84.869 F5400
G1 X36.837 Y80.440 E1605.5042 F2400
; ------------------------------------
; Layer #1
; ------------------------------------
M106 S0 ;turn off fan
G92 E0 ;reset extr
;segType:HShell
G0 F3000 E-1.0000
G0 F1200 Z0.600
G0 X42.246 Y85.252 F7200
G0 F3000 E0.0000
G1 X36.837 Y90.661 E0.3816 F4800
G0 X36.837 Y91.226 F7200
G1 X42.812 Y85.252 E0.8031 F4800
;segType:Perimeter
G0 X42.086 Y84.492 F7200
G1 X219.826 Y84.492 E9.6706 F2879
G1 X219.826 Y141.241 E12.5018
G1 X36.077 Y141.241 E21.6691
G1 X36.077 Y65.442 E25.4507
G1 X219.826 Y65.442 E34.6180
G1 X219.826 Y77.741 E35.2316
G1 X42.026 Y77.741 E44.1021
G1 X42.026 Y84.432 E44.4359
G0 X42.026 Y85.232 F7200
;segType:Loop
G0 X43.126 Y84.892
G1 X219.426 Y84.892 E53.2315 F4800
G1 X219.426 Y140.841 E56.0228
G1 X36.477 Y140.841 E65.1502
G1 X36.477 Y65.842 E68.8919
G1 X219.426 Y65.842 E78.0193
G1 X219.426 Y77.341 E78.5930
G1 X41.626 Y77.341 E87.4634
G1 X41.626 Y84.892 E87.8402
G1 X42.926 Y84.892 E87.9050
;segType:HShell
G0 X43.377 Y85.252 F7200
G1 X36.837 Y91.792 E88.3664 F4800
G0 X36.837 Y92.358 F7200
G1 X43.943 Y85.252 E88.8678 F4800
G0 X44.509 Y85.252 F7200
G1 X36.837 Y92.923 E89.4090 F4800
G0 X36.837 Y93.489 F7200
G1 X45.074 Y85.252 E89.9902 F4800
G0 X45.640 Y85.252 F7200
G1 X36.837 Y94.055 E90.6113 F4800
G0 X36.837 Y94.620 F7200
G1 X46.206 Y85.252 E91.2723 F4800
G0 X46.771 Y85.252 F7200
G1 X36.837 Y95.186 E91.9732 F4800
G0 X36.837 Y95.752 F7200
G1 X47.337 Y85.252 E92.7140 F4800
G0 X47.903 Y85.252 F7200
G1 X36.837 Y96.317 E93.4947 F4800
G0 X36.837 Y96.883 F7200
G1 X48.469 Y85.252 E94.3153 F4800
G0 X49.034 Y85.252 F7200
G1 X36.837 Y97.449 E95.1759 F4800
G0 X36.837 Y98.015 F7200
G1 X49.600 Y85.252 E96.0764 F4800
G0 X50.166 Y85.252 F7200
G1 X36.837 Y98.580 E97.0167 F4800
G0 X36.837 Y99.146 F7200
G1 X50.731 Y85.252 E97.9970 F4800
G0 X51.297 Y85.252 F7200
G1 X36.837 Y99.712 E99.0172 F4800
G0 X36.837 Y100.277 F7200
G1 X51.863 Y85.252 E100.0773 F4800
G0 X52.428 Y85.252 F7200
G1 X36.837 Y100.843 E101.1773 F4800
G0 X36.837 Y101.409 F7200
G1 X52.994 Y85.252 E102.3173 F4800
G0 X53.560 Y85.252 F7200
G1 X36.837 Y101.974 E103.4971 F4800
G0 X36.837 Y102.540 F7200
G1 X54.125 Y85.252 E104.7169 F4800
G0 X54.691 Y85.252 F7200
G1 X36.837 Y103.106 E105.9765 F4800
G0 X36.837 Y103.671 F7200
G1 X55.257 Y85.252 E107.2761 F4800
G0 X55.822 Y85.252 F7200
G1 X36.837 Y104.237 E108.6156 F4800
G0 X36.837 Y104.803 F7200
G1 X56.388 Y85.252 E109.9950 F4800
G0 X56.954 Y85.252 F7200
G1 X36.837 Y105.368 E111.4144 F4800
G0 X36.837 Y105.934 F7200
G1 X57.520 Y85.252 E112.8736 F4800
G0 X58.085 Y85.252 F7200
G1 X36.837 Y106.500 E114.3727 F4800
G0 X36.837 Y107.066 F7200
G1 X58.651 Y85.252 E115.9118 F4800
G0 X59.217 Y85.252 F7200
G1 X36.837 Y107.631 E117.4907 F4800
G0 X36.837 Y108.197 F7200
G1 X59.782 Y85.252 E119.1096 F4800
G0 X60.348 Y85.252 F7200
G1 X36.837 Y108.763 E120.7684 F4800
G0 X36.837 Y109.328 F7200
G1 X60.914 Y85.252 E122.4671 F4800
G0 X61.479 Y85.252 F7200
G1 X36.837 Y109.894 E124.2057 F4800
G0 X36.837 Y110.460 F7200
G1 X62.045 Y85.252 E125.9843 F4800
G0 X62.611 Y85.252 F7200
G1 X36.837 Y111.025 E127.8027 F4800
G0 X36.837 Y111.591 F7200
G1 X63.176 Y85.252 E129.6610 F4800
G0 X63.742 Y85.252 F7200
G1 X36.837 Y112.157 E131.5593 F4800
G0 X36.837 Y112.722 F7200
G1 X64.308 Y85.252 E133.4975 F4800
G0 X64.873 Y85.252 F7200
G1 X36.837 Y113.288 E135.4756 F4800
G0 X36.837 Y113.854 F7200
G1 X65.439 Y85.252 E137.4936 F4800
G0 X66.005 Y85.252 F7200
G1 X36.837 Y114.419 E139.5515 F4800
G0 X36.837 Y114.985 F7200
G1 X66.570 Y85.252 E141.6493 F4800
G0 X67.136 Y85.252 F7200
G1 X36.837 Y115.551 E143.7871 F4800
G0 X36.837 Y116.116 F7200
G1 X67.702 Y85.252 E145.9647 F4800
G0 X68.268 Y85.252 F7200
G1 X36.837 Y116.682 E148.1823 F4800
G0 X36.837 Y117.248 F7200
G1 X68.833 Y85.252 E150.4397 F4800
G0 X69.399 Y85.252 F7200
G1 X36.837 Y117.814 E152.7371 F4800
G0 X36.837 Y118.379 F7200
G1 X69.965 Y85.252 E155.0744 F4800
G0 X70.530 Y85.252 F7200
G1 X36.837 Y118.945 E157.4516 F4800
G0 X36.837 Y119.511 F7200
G1 X71.096 Y85.252 E159.8687 F4800
G0 X71.662 Y85.252 F7200
G1 X36.837 Y120.076 E162.3258 F4800
G0 X36.837 Y120.642 F7200
G1 X72.227 Y85.252 E164.8227 F4800
G0 X72.793 Y85.252 F7200
G1 X36.837 Y121.208 E167.3596 F4800
G0 X36.837 Y121.773 F7200
G1 X73.359 Y85.252 E169.9363 F4800
G0 X73.924 Y85.252 F7200
G1 X36.837 Y122.339 E172.5530 F4800
G0 X36.837 Y122.905 F7200
G1 X74.490 Y85.252 E175.2096 F4800
G0 X75.056 Y85.252 F7200
G1 X36.837 Y123.470 E177.9061 F4800
G0 X36.837 Y124.036 F7200
G1 X75.621 Y85.252 E180.6425 F4800
G0 X76.187 Y85.252 F7200
G1 X36.837 Y124.602 E183.4189 F4800
G0 X36.837 Y125.167 F7200
G1 X76.753 Y85.252 E186.2351 F4800
G0 X77.318 Y85.252 F7200
G1 X36.837 Y125.733 E189.0913 F4800
G0 X36.837 Y126.299 F7200
G1 X77.884 Y85.252 E191.9873 F4800
G0 X78.450 Y85.252 F7200
G1 X36.837 Y126.864 E194.9233 F4800
G0 X36.837 Y127.430 F7200
G1 X79.016 Y85.252 E197.8992 F4800
G0 X79.581 Y85.252 F7200
G1 X36.837 Y127.996 E200.9150 F4800
G0 X36.837 Y128.562 F7200
G1 X80.147 Y85.252 E203.9707 F4800
G0 X80.713 Y85.252 F7200
G1 X36.837 Y129.127 E207.0664 F4800
G0 X36.837 Y129.693 F7200
G1 X81.278 Y85.252 E210.2019 F4800
G0 X81.844 Y85.252 F7200
G1 X36.837 Y130.259 E213.3773 F4800
G0 X36.837 Y130.824 F7200
G1 X82.410 Y85.252 E216.5927 F4800
G0 X82.975 Y85.252 F7200
G1 X36.837 Y131.390 E219.8480 F4800
G0 X36.837 Y131.956 F7200
G1 X83.541 Y85.252 E223.1432 F4800
G0 X84.107 Y85.252 F7200
G1 X36.837 Y132.521 E226.4783 F4800
G0 X36.837 Y133.087 F7200
G1 X84.672 Y85.252 E229.8533 F4800
G0 X85.238 Y85.252 F7200
G1 X36.837 Y133.653 E233.2682 F4800
G0 X36.837 Y134.218 F7200
G1 X85.804 Y85.252 E236.7231 F4800
G0 X86.369 Y85.252 F7200
G1 X36.837 Y134.784 E240.2178 F4800
G0 X36.837 Y135.350 F7200
G1 X86.935 Y85.252 E243.7525 F4800
G0 X87.501 Y85.252 F7200
G1 X36.837 Y135.915 E247.3270 F4800
G0 X36.837 Y136.481 F7200
G1 X88.067 Y85.252 E250.9415 F4800
G0 X88.632 Y85.252 F7200
G1 X36.837 Y137.047 E254.5959 F4800
G0 X36.837 Y137.613 F7200
G1 X89.198 Y85.252 E258.2902 F4800
G0 X89.764 Y85.252 F7200
G1 X36.837 Y138.178 E262.0245 F4800
G0 X36.837 Y138.744 F7200
G1 X90.329 Y85.252 E265.7986 F4800
G0 X90.895 Y85.252 F7200
G1 X36.837 Y139.310 E269.6127 F4800
G0 X36.837 Y139.875 F7200
G1 X91.461 Y85.252 E273.4666 F4800
G0 X92.026 Y85.252 F7200
G1 X36.837 Y140.441 E277.3605 F4800
G0 X37.363 Y140.481 F7200
G1 X92.592 Y85.252 E281.2572 F4800
G0 X93.158 Y85.252 F7200
G1 X37.929 Y140.481 E285.1539 F4800
G0 X38.495 Y140.481 F7200
G1 X93.723 Y85.252 E289.0506 F4800
G0 X94.289 Y85.252 F7200
G1 X39.060 Y140.481 E292.9473 F4800
G0 X39.626 Y140.481 F7200
G1 X94.855 Y85.252 E296.8440 F4800
G0 X95.420 Y85.252 F7200
G1 X40.192 Y140.481 E300.7407 F4800
G0 X40.757 Y140.481 F7200
G1 X95.986 Y85.252 E304.6374 F4800
G0 X96.552 Y85.252 F7200
G1 X41.323 Y140.481 E308.5341 F4800
G0 X41.889 Y140.481 F7200
G1 X97.117 Y85.252 E312.4308 F4800
G0 X97.683 Y85.252 F7200
G1 X42.454 Y140.481 E316.3275 F4800
G0 X43.020 Y140.481 F7200
G1 X98.249 Y85.252 E320.2242 F4800
G0 X98.815 Y85.252 F7200
G1 X43.586 Y140.481 E324.1209 F4800
G0 X44.151 Y140.481 F7200
G1 X99.380 Y85.252 E328.0176 F4800
G0 X99.946 Y85.252 F7200
G1 X44.717 Y140.481 E331.9143 F4800
G0 X45.283 Y140.481 F7200
G1 X100.512 Y85.252 E335.8110 F4800
G0 X101.077 Y85.252 F7200
G1 X45.849 Y140.481 E339.7077 F4800
G0 X46.414 Y140.481 F7200
G1 X101.643 Y85.252 E343.6044 F4800
G0 X102.209 Y85.252 F7200
G1 X46.980 Y140.481 E347.5011 F4800
G0 X47.546 Y140.481 F7200
G1 X102.774 Y85.252 E351.3977 F4800
G0 X103.340 Y85.252 F7200
G1 X48.111 Y140.481 E355.2944 F4800
G0 X48.677 Y140.481 F7200
G1 X103.906 Y85.252 E359.1911 F4800
G0 X104.471 Y85.252 F7200
G1 X49.243 Y140.481 E363.0878 F4800
G0 X49.808 Y140.481 F7200
G1 X105.037 Y85.252 E366.9845 F4800
G0 X105.603 Y85.252 F7200
G1 X50.374 Y140.481 E370.8812 F4800
G0 X50.940 Y140.481 F7200
G1 X106.168 Y85.252 E374.7779 F4800
G0 X106.734 Y85.252 F7200
G1 X51.505 Y140.481 E378.6746 F4800
G0 X52.071 Y140.481 F7200
G1 X107.300 Y85.252 E382.5713 F4800
G0 X107.865 Y85.252 F7200
G1 X52.637 Y140.481 E386.4680 F4800
G0 X53.202 Y140.481 F7200
G1 X108.431 Y85.252 E390.3647 F4800
G0 X108.997 Y85.252 F7200
G1 X53.768 Y140.481 E394.2614 F4800
G0 X54.334 Y140.481 F7200
G1 X109.563 Y85.252 E398.1581 F4800
G0 X110.128 Y85.252 F7200
G1 X54.899 Y140.481 E402.0548 F4800
G0 X55.465 Y140.481 F7200
G1 X110.694 Y85.252 E405.9515 F4800
G0 X111.260 Y85.252 F7200
G1 X56.031 Y140.481 E409.8482 F4800
G0 X56.597 Y140.481 F7200
G1 X111.825 Y85.252 E413.7449 F4800
G0 X112.391 Y85.252 F7200
G1 X57.162 Y140.481 E417.6416 F4800
G0 X57.728 Y140.481 F7200
G1 X112.957 Y85.252 E421.5383 F4800
G0 X113.522 Y85.252 F7200
G1 X58.294 Y140.481 E425.4350 F4800
G0 X58.859 Y140.481 F7200
G1 X114.088 Y85.252 E429.3317 F4800
G0 X114.654 Y85.252 F7200
G1 X59.425 Y140.481 E433.2284 F4800
G0 X59.991 Y140.481 F7200
G1 X115.219 Y85.252 E437.1251 F4800
G0 X115.785 Y85.252 F7200
G1 X60.556 Y140.481 E441.0218 F4800
G0 X61.122 Y140.481 F7200
G1 X116.351 Y85.252 E444.9185 F4800
G0 X116.916 Y85.252 F7200
G1 X61.688 Y140.481 E448.8152 F4800
G0 X62.253 Y140.481 F7200
G1 X117.482 Y85.252 E452.7119 F4800
G0 X118.048 Y85.252 F7200
G1 X62.819 Y140.481 E456.6086 F4800
G0 X63.385 Y140.481 F7200
G1 X118.613 Y85.252 E460.5053 F4800
G0 X119.179 Y85.252 F7200
G1 X63.950 Y140.481 E464.4020 F4800
G0 X64.516 Y140.481 F7200
G1 X119.745 Y85.252 E468.2987 F4800
G0 X120.311 Y85.252 F7200
G1 X65.082 Y140.481 E472.1954 F4800
G0 X65.648 Y140.481 F7200
G1 X120.876 Y85.252 E476.0921 F4800
G0 X121.442 Y85.252 F7200
G1 X66.213 Y140.481 E479.9888 F4800
G0 X66.779 Y140.481 F7200
G1 X122.008 Y85.252 E483.8855 F4800
G0 X122.573 Y85.252 F7200
G1 X67.345 Y140.481 E487.7822 F4800
G0 X67.910 Y140.481 F7200
G1 X123.139 Y85.252 E491.6789 F4800
G0 X123.705 Y85.252 F7200
G1 X68.476 Y140.481 E495.5756 F4800
G0 X69.042 Y140.481 F7200
G1 X124.270 Y85.252 E499.4723 F4800
G0 X124.836 Y85.252 F7200
G1 X69.607 Y140.481 E503.3690 F4800
G0 X70.173 Y140.481 F7200
G1 X125.402 Y85.252 E507.2657 F4800
G0 X125.967 Y85.252 F7200
G1 X70.739 Y140.481 E511.1624 F4800
G0 X71.304 Y140.481 F7200
G1 X126.533 Y85.252 E515.0590 F4800
G0 X127.099 Y85.252 F7200
G1 X71.870 Y140.481 E518.9557 F4800
G0 X72.436 Y140.481 F7200
G1 X127.664 Y85.252 E522.8524 F4800
G0 X128.230 Y85.252 F7200
G1 X73.001 Y140.481 E526.7490 F4800
G0 X73.567 Y140.481 F7200
G1 X128.796 Y85.252 E530.6457 F4800
G0 X129.362 Y85.252 F7200
G1 X74.133 Y140.481 E534.5424 F4800
G0 X74.698 Y140.481 F7200
G1 X129.927 Y85.252 E538.4391 F4800
G0 X130.493 Y85.252 F7200
G1 X75.264 Y140.481 E542.3357 F4800
G0 X75.830 Y140.481 F7200
G1 X131.059 Y85.252 E546.2324 F4800
G0 X131.624 Y85.252 F7200
G1 X76.396 Y140.481 E550.1291 F4800
G0 X76.961 Y140.481 F7200
G1 X132.190 Y85.252 E554.0257 F4800
G0 X132.756 Y85.252 F7200
G1 X77.527 Y140.481 E557.9224 F4800
G0 X78.093 Y140.481 F7200
G1 X133.321 Y85.252 E561.8191 F4800
G0 X133.887 Y85.252 F7200
G1 X78.658 Y140.481 E565.7157 F4800
G0 X79.224 Y140.481 F7200
G1 X134.453 Y85.252 E569.6124 F4800
G0 X135.018 Y85.252 F7200
G1 X79.790 Y140.481 E573.5091 F4800
G0 X80.355 Y140.481 F7200
G1 X135.584 Y85.252 E577.4057 F4800
G0 X136.150 Y85.252 F7200
G1 X80.921 Y140.481 E581.3024 F4800
G0 X81.487 Y140.481 F7200
G1 X136.715 Y85.252 E585.1991 F4800
G0 X137.281 Y85.252 F7200
G1 X82.052 Y140.481 E589.0957 F4800
G0 X82.618 Y140.481 F7200
G1 X137.847 Y85.252 E592.9924 F4800
G0 X138.412 Y85.252 F7200
G1 X83.184 Y140.481 E596.8891 F4800
G0 X83.749 Y140.481 F7200
G1 X138.978 Y85.252 E600.7857 F4800
G0 X139.544 Y85.252 F7200
G1 X84.315 Y140.481 E604.6824 F4800
G0 X84.881 Y140.481 F7200
G1 X140.110 Y85.252 E608.5791 F4800
G0 X140.675 Y85.252 F7200
G1 X85.446 Y140.481 E612.4757 F4800
G0 X86.012 Y140.481 F7200
G1 X141.241 Y85.252 E616.3724 F4800
G0 X141.807 Y85.252 F7200
G1 X86.578 Y140.481 E620.2691 F4800
G0 X87.144 Y140.481 F7200
G1 X142.372 Y85.252 E624.1657 F4800
G0 X142.938 Y85.252 F7200
G1 X87.709 Y140.481 E628.0624 F4800
G0 X88.275 Y140.481 F7200
G1 X143.504 Y85.252 E631.9591 F4800
G0 X144.069 Y85.252 F7200
G1 X88.841 Y140.481 E635.8557 F4800
G0 X89.406 Y140.481 F7200
G1 X144.635 Y85.252 E639.7524 F4800
G0 X145.201 Y85.252 F7200
G1 X89.972 Y140.481 E643.6491 F4800
G0 X90.538 Y140.481 F7200
G1 X145.766 Y85.252 E647.5457 F4800
G0 X146.332 Y85.252 F7200
G1 X91.103 Y140.481 E651.4424 F4800
G0 X91.669 Y140.481 F7200
G1 X146.898 Y85.252 E655.3391 F4800
G0 X147.463 Y85.252 F7200
G1 X92.235 Y140.481 E659.2357 F4800
G0 X92.800 Y140.481 F7200
G1 X148.029 Y85.252 E663.1324 F4800
G0 X148.595 Y85.252 F7200
G1 X93.366 Y140.481 E667.0291 F4800
G0 X93.932 Y140.481 F7200
G1 X149.160 Y85.252 E670.9257 F4800
G0 X149.726 Y85.252 F7200
G1 X94.497 Y140.481 E674.8224 F4800
G0 X95.063 Y140.481 F7200
G1 X150.292 Y85.252 E678.7191 F4800
G0 X150.858 Y85.252 F7200
G1 X95.629 Y140.481 E682.6157 F4800
G0 X96.195 Y140.481 F7200
G1 X151.423 Y85.252 E686.5124 F4800
G0 X151.989 Y85.252 F7200
G1 X96.760 Y140.481 E690.4091 F4800
G0 X97.326 Y140.481 F7200
G1 X152.555 Y85.252 E694.3058 F4800
G0 X153.120 Y85.252 F7200
G1 X97.892 Y140.481 E698.2024 F4800
G0 X98.457 Y140.481 F7200
G1 X153.686 Y85.252 E702.0991 F4800
G0 X154.252 Y85.252 F7200
G1 X99.023 Y140.481 E705.9958 F4800
G0 X99.589 Y140.481 F7200
G1 X154.817 Y85.252 E709.8924 F4800
G0 X155.383 Y85.252 F7200
G1 X100.154 Y140.481 E713.7891 F4800
G0 X100.720 Y140.481 F7200
G1 X155.949 Y85.252 E717.6858 F4800
G0 X156.514 Y85.252 F7200
G1 X101.286 Y140.481 E721.5824 F4800
G0 X101.851 Y140.481 F7200
G1 X157.080 Y85.252 E725.4791 F4800
G0 X157.646 Y85.252 F7200
G1 X102.417 Y140.481 E729.3758 F4800
G0 X102.983 Y140.481 F7200
G1 X158.211 Y85.252 E733.2724 F4800
G0 X158.777 Y85.252 F7200
G1 X103.548 Y140.481 E737.1691 F4800
G0 X104.114 Y140.481 F7200
G1 X159.343 Y85.252 E741.0658 F4800
G0 X159.909 Y85.252 F7200
G1 X104.680 Y140.481 E744.9624 F4800
G0 X105.245 Y140.481 F7200
G1 X160.474 Y85.252 E748.8591 F4800
G0 X161.040 Y85.252 F7200
G1 X105.811 Y140.481 E752.7558 F4800
G0 X106.377 Y140.481 F7200
G1 X161.606 Y85.252 E756.6524 F4800
G0 X162.171 Y85.252 F7200
G1 X106.943 Y140.481 E760.5491 F4800
G0 X107.508 Y140.481 F7200
G1 X162.737 Y85.252 E764.4458 F4800
G0 X163.303 Y85.252 F7200
G1 X108.074 Y140.481 E768.3424 F4800
G0 X108.640 Y140.481 F7200
G1 X163.868 Y85.252 E772.2391 F4800
G0 X164.434 Y85.252 F7200
G1 X109.205 Y140.481 E776.1358 F4800
G0 X109.771 Y140.481 F7200
G1 X165.000 Y85.252 E780.0324 F4800
G0 X165.565 Y85.252 F7200
G1 X110.337 Y140.481 E783.9291 F4800
G0 X110.902 Y140.481 F7200
G1 X166.131 Y85.252 E787.8258 F4800
G0 X166.697 Y85.252 F7200
G1 X111.468 Y140.481 E791.7224 F4800
G0 X112.034 Y140.481 F7200
G1 X167.262 Y85.252 E795.6191 F4800
G0 X167.828 Y85.252 F7200
G1 X112.599 Y140.481 E799.5158 F4800
G0 X113.165 Y140.481 F7200
G1 X168.394 Y85.252 E803.4124 F4800
G0 X168.959 Y85.252 F7200
G1 X113.731 Y140.481 E807.3091 F4800
G0 X114.296 Y140.481 F7200
G1 X169.525 Y85.252 E811.2058 F4800
G0 X170.091 Y85.252 F7200
G1 X114.862 Y140.481 E815.1024 F4800
G0 X115.428 Y140.481 F7200
G1 X170.657 Y85.252 E818.9991 F4800
G0 X171.222 Y85.252 F7200
G1 X115.993 Y140.481 E822.8958 F4800
G0 X116.559 Y140.481 F7200
G1 X171.788 Y85.252 E826.7924 F4800
G0 X172.354 Y85.252 F7200
G1 X117.125 Y140.481 E830.6891 F4800
G0 X117.691 Y140.481 F7200
G1 X172.919 Y85.252 E834.5858 F4800
G0 X173.485 Y85.252 F7200
G1 X118.256 Y140.481 E838.4824 F4800
G0 X118.822 Y140.481 F7200
G1 X174.051 Y85.252 E842.3791 F4800
G0 X174.616 Y85.252 F7200
G1 X119.388 Y140.481 E846.2758 F4800
G0 X119.953 Y140.481 F7200
G1 X175.182 Y85.252 E850.1724 F4800
G0 X175.748 Y85.252 F7200
G1 X120.519 Y140.481 E854.0691 F4800
G0 X121.085 Y140.481 F7200
G1 X176.313 Y85.252 E857.9658 F4800
G0 X176.879 Y85.252 F7200
G1 X121.650 Y140.481 E861.8624 F4800
G0 X122.216 Y140.481 F7200
G1 X177.445 Y85.252 E865.7591 F4800
G0 X178.010 Y85.252 F7200
G1 X122.782 Y140.481 E869.6558 F4800
G0 X123.347 Y140.481 F7200
G1 X178.576 Y85.252 E873.5524 F4800
G0 X179.142 Y85.252 F7200
G1 X123.913 Y140.481 E877.4491 F4800
G0 X124.479 Y140.481 F7200
G1 X179.707 Y85.252 E881.3458 F4800
G0 X180.273 Y85.252 F7200
G1 X125.044 Y140.481 E885.2424 F4800
G0 X125.610 Y140.481 F7200
G1 X180.839 Y85.252 E889.1391 F4800
G0 X181.405 Y85.252 F7200
G1 X126.176 Y140.481 E893.0358 F4800
G0 X126.741 Y140.481 F7200
G1 X181.970 Y85.252 E896.9324 F4800
G0 X182.536 Y85.252 F7200
G1 X127.307 Y140.481 E900.8291 F4800
G0 X127.873 Y140.481 F7200
G1 X183.102 Y85.252 E904.7258 F4800
G0 X183.667 Y85.252 F7200
G1 X128.439 Y140.481 E908.6224 F4800
G0 X129.004 Y140.481 F7200
G1 X184.233 Y85.252 E912.5191 F4800
G0 X184.799 Y85.252 F7200
G1 X129.570 Y140.481 E916.4158 F4800
G0 X130.136 Y140.481 F7200
G1 X185.364 Y85.252 E920.3124 F4800
G0 X185.930 Y85.252 F7200
G1 X130.701 Y140.481 E924.2091 F4800
G0 X131.267 Y140.481 F7200
G1 X186.496 Y85.252 E928.1058 F4800
G0 X187.061 Y85.252 F7200
G1 X131.833 Y140.481 E932.0024 F4800
G0 X132.398 Y140.481 F7200
G1 X187.627 Y85.252 E935.8991 F4800
G0 X188.193 Y85.252 F7200
G1 X132.964 Y140.481 E939.7958 F4800
G0 X133.530 Y140.481 F7200
G1 X188.758 Y85.252 E943.6924 F4800
G0 X189.324 Y85.252 F7200
G1 X134.095 Y140.481 E947.5891 F4800
G0 X134.661 Y140.481 F7200
G1 X189.890 Y85.252 E951.4858 F4800
G0 X190.456 Y85.252 F7200
G1 X135.227 Y140.481 E955.3824 F4800
G0 X135.792 Y140.481 F7200
G1 X191.021 Y85.252 E959.2791 F4800
G0 X191.587 Y85.252 F7200
G1 X136.358 Y140.481 E963.1758 F4800
G0 X136.924 Y140.481 F7200
G1 X192.153 Y85.252 E967.0724 F4800
G0 X192.718 Y85.252 F7200
G1 X137.490 Y140.481 E970.9691 F4800
G0 X138.055 Y140.481 F7200
G1 X193.284 Y85.252 E974.8658 F4800
G0 X193.850 Y85.252 F7200
G1 X138.621 Y140.481 E978.7625 F4800
G0 X139.187 Y140.481 F7200
G1 X194.415 Y85.252 E982.6591 F4800
G0 X194.981 Y85.252 F7200
G1 X139.752 Y140.481 E986.5558 F4800
G0 X140.318 Y140.481 F7200
G1 X195.547 Y85.252 E990.4525 F4800
G0 X196.112 Y85.252 F7200
G1 X140.884 Y140.481 E994.3491 F4800
G0 X141.449 Y140.481 F7200
G1 X196.678 Y85.252 E998.2458 F4800
G0 X197.244 Y85.252 F7200
G1 X142.015 Y140.481 E1002.1425 F4800
G0 X142.581 Y140.481 F7200
G1 X197.809 Y85.252 E1006.0391 F4800
G0 X198.375 Y85.252 F7200
G1 X143.146 Y140.481 E1009.9358 F4800
G0 X143.712 Y140.481 F7200
G1 X198.941 Y85.252 E1013.8325 F4800
G0 X199.506 Y85.252 F7200
G1 X144.278 Y140.481 E1017.7291 F4800
G0 X144.843 Y140.481 F7200
G1 X200.072 Y85.252 E1021.6258 F4800
G0 X200.638 Y85.252 F7200
G1 X145.409 Y140.481 E1025.5225 F4800
G0 X145.975 Y140.481 F7200
G1 X201.203 Y85.252 E1029.4192 F4800
G0 X201.769 Y85.252 F7200
G1 X146.540 Y140.481 E1033.3159 F4800
G0 X147.106 Y140.481 F7200
G1 X202.335 Y85.252 E1037.2126 F4800
G0 X202.901 Y85.252 F7200
G1 X147.672 Y140.481 E1041.1094 F4800
G0 X148.238 Y140.481 F7200
G1 X203.466 Y85.252 E1045.0061 F4800
G0 X204.032 Y85.252 F7200
G1 X148.803 Y140.481 E1048.9028 F4800
G0 X149.369 Y140.481 F7200
G1 X204.598 Y85.252 E1052.7996 F4800
G0 X205.163 Y85.252 F7200
G1 X149.935 Y140.481 E1056.6963 F4800
G0 X150.500 Y140.481 F7200
G1 X205.729 Y85.252 E1060.5930 F4800
G0 X206.295 Y85.252 F7200
G1 X151.066 Y140.481 E1064.4897 F4800
G0 X151.632 Y140.481 F7200
G1 X206.860 Y85.252 E1068.3865 F4800
G0 X207.426 Y85.252 F7200
G1 X152.197 Y140.481 E1072.2832 F4800
G0 X152.763 Y140.481 F7200
G1 X207.992 Y85.252 E1076.1799 F4800
G0 X208.557 Y85.252 F7200
G1 X153.329 Y140.481 E1080.0767 F4800
G0 X153.894 Y140.481 F7200
G1 X209.123 Y85.252 E1083.9734 F4800
G0 X209.689 Y85.252 F7200
G1 X154.460 Y140.481 E1087.8701 F4800
G0 X155.026 Y140.481 F7200
G1 X210.254 Y85.252 E1091.7668 F4800
G0 X210.820 Y85.252 F7200
G1 X155.591 Y140.481 E1095.6636 F4800
G0 X156.157 Y140.481 F7200
G1 X211.386 Y85.252 E1099.5603 F4800
G0 X211.952 Y85.252 F7200
G1 X156.723 Y140.481 E1103.4570 F4800
G0 X157.288 Y140.481 F7200
G1 X212.517 Y85.252 E1107.3538 F4800
G0 X213.083 Y85.252 F7200
G1 X157.854 Y140.481 E1111.2505 F4800
G0 X158.420 Y140.481 F7200
G1 X213.649 Y85.252 E1115.1472 F4800
G0 X214.214 Y85.252 F7200
G1 X158.986 Y140.481 E1119.0439 F4800
G0 X159.551 Y140.481 F7200
G1 X214.780 Y85.252 E1122.9407 F4800
G0 X215.346 Y85.252 F7200
G1 X160.117 Y140.481 E1126.8374 F4800
G0 X160.683 Y140.481 F7200
G1 X215.911 Y85.252 E1130.7341 F4800
G0 X216.477 Y85.252 F7200
G1 X161.248 Y140.481 E1134.6309 F4800
G0 X161.814 Y140.481 F7200
G1 X217.043 Y85.252 E1138.5276 F4800
G0 X217.608 Y85.252 F7200
G1 X162.380 Y140.481 E1142.4243 F4800
G0 X162.945 Y140.481 F7200
G1 X218.174 Y85.252 E1146.3210 F4800
G0 X218.740 Y85.252 F7200
G1 X163.511 Y140.481 E1150.2178 F4800
G0 X164.077 Y140.481 F7200
G1 X219.066 Y85.491 E1154.0975 F4800
G0 X219.066 Y86.057 F7200
G1 X164.642 Y140.481 E1157.9374 F4800
G0 X165.208 Y140.481 F7200
G1 X219.066 Y86.623 E1161.7373 F4800
G0 X219.066 Y87.189 F7200
G1 X165.774 Y140.481 E1165.4973 F4800
G0 X166.339 Y140.481 F7200
G1 X219.066 Y87.754 E1169.2175 F4800
G0 X219.066 Y88.320 F7200
G1 X166.905 Y140.481 E1172.8978 F4800
G0 X167.471 Y140.481 F7200
G1 X219.066 Y88.886 E1176.5382 F4800
G0 X219.066 Y89.451 F7200
G1 X168.037 Y140.481 E1180.1387 F4800
G0 X168.602 Y140.481 F7200
G1 X219.066 Y90.017 E1183.6992 F4800
G0 X219.066 Y90.583 F7200
G1 X169.168 Y140.481 E1187.2198 F4800
G0 X169.734 Y140.481 F7200
G1 X219.066 Y91.148 E1190.7006 F4800
G0 X219.066 Y91.714 F7200
G1 X170.299 Y140.481 E1194.1414 F4800
G0 X170.865 Y140.481 F7200
G1 X219.066 Y92.280 E1197.5422 F4800
G0 X219.066 Y92.845 F7200
G1 X171.431 Y140.481 E1200.9032 F4800
G0 X171.996 Y140.481 F7200
G1 X219.066 Y93.411 E1204.2242 F4800
G0 X219.066 Y93.977 F7200
G1 X172.562 Y140.481 E1207.5054 F4800
G0 X173.128 Y140.481 F7200
G1 X219.066 Y94.542 E1210.7466 F4800
G0 X219.066 Y95.108 F7200
G1 X173.693 Y140.481 E1213.9479 F4800
G0 X174.259 Y140.481 F7200
G1 X219.066 Y95.674 E1217.1093 F4800
G0 X219.066 Y96.239 F7200
G1 X174.825 Y140.481 E1220.2307 F4800
G0 X175.390 Y140.481 F7200
G1 X219.066 Y96.805 E1223.3123 F4800
G0 X219.066 Y97.371 F7200
G1 X175.956 Y140.481 E1226.3539 F4800
G0 X176.522 Y140.481 F7200
G1 X219.066 Y97.937 E1229.3556 F4800
G0 X219.066 Y98.502 F7200
G1 X177.087 Y140.481 E1232.3174 F4800
G0 X177.653 Y140.481 F7200
G1 X219.066 Y99.068 E1235.2393 F4800
G0 X219.066 Y99.634 F7200
G1 X178.219 Y140.481 E1238.1212 F4800
G0 X178.785 Y140.481 F7200
G1 X219.066 Y100.199 E1240.9633 F4800
G0 X219.066 Y100.765 F7200
G1 X179.350 Y140.481 E1243.7654 F4800
G0 X179.916 Y140.481 F7200
G1 X219.066 Y101.331 E1246.5276 F4800
G0 X219.066 Y101.896 F7200
G1 X180.482 Y140.481 E1249.2500 F4800
G0 X181.047 Y140.481 F7200
G1 X219.066 Y102.462 E1251.9325 F4800
G0 X219.066 Y103.028 F7200
G1 X181.613 Y140.481 E1254.5751 F4800
G0 X182.179 Y140.481 F7200
G1 X219.066 Y103.593 E1257.1777 F4800
G0 X219.066 Y104.159 F7200
G1 X182.744 Y140.481 E1259.7405 F4800
G0 X183.310 Y140.481 F7200
G1 X219.066 Y104.725 E1262.2633 F4800
G0 X219.066 Y105.290 F7200
G1 X183.876 Y140.481 E1264.7462 F4800
G0 X184.441 Y140.481 F7200
G1 X219.066 Y105.856 E1267.1892 F4800
G0 X219.066 Y106.422 F7200
G1 X185.007 Y140.481 E1269.5923 F4800
G0 X185.573 Y140.481 F7200
G1 X219.066 Y106.987 E1271.9554 F4800
G0 X219.066 Y107.553 F7200
G1 X186.138 Y140.481 E1274.2787 F4800
G0 X186.704 Y140.481 F7200
G1 X219.066 Y108.119 E1276.5620 F4800
G0 X219.066 Y108.685 F7200
G1 X187.270 Y140.481 E1278.8054 F4800
G0 X187.835 Y140.481 F7200
G1 X219.066 Y109.250 E1281.0089 F4800
G0 X219.066 Y109.816 F7200
G1 X188.401 Y140.481 E1283.1725 F4800
G0 X188.967 Y140.481 F7200
G1 X219.066 Y110.382 E1285.2961 F4800
G0 X219.066 Y110.947 F7200
G1 X189.533 Y140.481 E1287.3799 F4800
G0 X190.098 Y140.481 F7200
G1 X219.066 Y111.513 E1289.4237 F4800
G0 X219.066 Y112.079 F7200
G1 X190.664 Y140.481 E1291.4276 F4800
G0 X191.230 Y140.481 F7200
G1 X219.066 Y112.644 E1293.3916 F4800
G0 X219.066 Y113.210 F7200
G1 X191.795 Y140.481 E1295.3157 F4800
G0 X192.361 Y140.481 F7200
G1 X219.066 Y113.776 E1297.1998 F4800
G0 X219.066 Y114.341 F7200
G1 X192.927 Y140.481 E1299.0441 F4800
G0 X193.492 Y140.481 F7200
G1 X219.066 Y114.907 E1300.8484 F4800
G0 X219.066 Y115.473 F7200
G1 X194.058 Y140.481 E1302.6128 F4800
G0 X194.624 Y140.481 F7200
G1 X219.066 Y116.038 E1304.3374 F4800
G0 X219.066 Y116.604 F7200
G1 X195.189 Y140.481 E1306.0221 F4800
G0 X195.755 Y140.481 F7200
G1 X219.066 Y117.170 E1307.6669 F4800
G0 X219.066 Y117.736 F7200
G1 X196.321 Y140.481 E1309.2717 F4800
G0 X196.886 Y140.481 F7200
G1 X219.066 Y118.301 E1310.8367 F4800
G0 X219.066 Y118.867 F7200
G1 X197.452 Y140.481 E1312.3617 F4800
G0 X198.018 Y140.481 F7200
G1 X219.066 Y119.433 E1313.8468 F4800
G0 X219.066 Y119.998 F7200
G1 X198.584 Y140.481 E1315.2920 F4800
G0 X199.149 Y140.481 F7200
G1 X219.066 Y120.564 E1316.6973 F4800
G0 X219.066 Y121.130 F7200
G1 X199.715 Y140.481 E1318.0626 F4800
G0 X200.281 Y140.481 F7200
G1 X219.066 Y121.695 E1319.3881 F4800
G0 X219.066 Y122.261 F7200
G1 X200.846 Y140.481 E1320.6736 F4800
G0 X201.412 Y140.481 F7200
G1 X219.066 Y122.827 E1321.9192 F4800
G0 X219.066 Y123.392 F7200
G1 X201.978 Y140.481 E1323.1249 F4800
G0 X202.543 Y140.481 F7200
G1 X219.066 Y123.958 E1324.2906 F4800
G0 X219.066 Y124.524 F7200
G1 X203.109 Y140.481 E1325.4165 F4800
G0 X203.675 Y140.481 F7200
G1 X219.066 Y125.089 E1326.5024 F4800
G0 X219.066 Y125.655 F7200
G1 X204.240 Y140.481 E1327.5485 F4800
G0 X204.806 Y140.481 F7200
G1 X219.066 Y126.221 E1328.5546 F4800
G0 X219.066 Y126.786 F7200
G1 X205.372 Y140.481 E1329.5208 F4800
G0 X205.937 Y140.481 F7200
G1 X219.066 Y127.352 E1330.4470 F4800
G0 X219.066 Y127.918 F7200
G1 X206.503 Y140.481 E1331.3334 F4800
G0 X207.069 Y140.481 F7200
G1 X219.066 Y128.484 E1332.1798 F4800
G0 X219.066 Y129.049 F7200
G1 X207.634 Y140.481 E1332.9863 F4800
G0 X208.200 Y140.481 F7200
G1 X219.066 Y129.615 E1333.7529 F4800
G0 X219.066 Y130.181 F7200
G1 X208.766 Y140.481 E1334.4797 F4800
G0 X209.331 Y140.481 F7200
G1 X219.066 Y130.746 E1335.1666 F4800
G0 X219.066 Y131.312 F7200
G1 X209.897 Y140.481 E1335.8136 F4800
G0 X210.463 Y140.481 F7200
G1 X219.066 Y131.878 E1336.4207 F4800
G0 X219.066 Y132.443 F7200
G1 X211.029 Y140.481 E1336.9878 F4800
G0 X211.594 Y140.481 F7200
G1 X219.066 Y133.009 E1337.5150 F4800
G0 X219.066 Y133.575 F7200
G1 X212.160 Y140.481 E1338.0023 F4800
G0 X212.726 Y140.481 F7200
G1 X219.066 Y134.140 E1338.4497 F4800
G0 X219.066 Y134.706 F7200
G1 X213.291 Y140.481 E1338.8572 F4800
G0 X213.857 Y140.481 F7200
G1 X219.066 Y135.272 E1339.2247 F4800
G0 X219.066 Y135.837 F7200
G1 X214.423 Y140.481 E1339.5524 F4800
G0 X214.988 Y140.481 F7200
G1 X219.066 Y136.403 E1339.8401 F4800
G0 X219.066 Y136.969 F7200
G1 X215.554 Y140.481 E1340.0879 F4800
G0 X216.120 Y140.481 F7200
G1 X219.066 Y137.534 E1340.2958 F4800
G0 X219.066 Y138.100 F7200
G1 X216.685 Y140.481 E1340.4637 F4800
G0 X217.251 Y140.481 F7200
G1 X219.066 Y138.666 E1340.5918 F4800
G0 X219.066 Y139.232 F7200
G1 X217.817 Y140.481 E1340.6799 F4800
G0 X218.382 Y140.481 F7200
G1 X219.066 Y139.797 E1340.7281 F4800
G0 X219.066 Y84.892 F7200
G0 X41.626 Y84.892
G0 X41.626 Y77.341
G0 X219.066 Y77.341
G0 X219.066 Y77.341
G0 X219.066 Y76.427
G0 X219.066 Y76.440
G1 X218.526 Y76.981 E1340.7662 F4800
G0 X217.960 Y76.981 F7200
G1 X219.066 Y75.875 E1340.8442 F4800
G0 X219.066 Y75.309 F7200
G1 X217.394 Y76.981 E1340.9622 F4800
G0 X216.829 Y76.981 F7200
G1 X219.066 Y74.743 E1341.1200 F4800
G0 X219.066 Y74.178 F7200
G1 X216.263 Y76.981 E1341.3177 F4800
G0 X215.697 Y76.981 F7200
G1 X219.066 Y73.612 E1341.5554 F4800
G0 X219.066 Y73.046 F7200
G1 X215.132 Y76.981 E1341.8330 F4800
G0 X214.566 Y76.981 F7200
G1 X219.066 Y72.481 E1342.1505 F4800
G0 X219.066 Y71.915 F7200
G1 X214.000 Y76.981 E1342.5079 F4800
G0 X213.435 Y76.981 F7200
G1 X219.066 Y71.349 E1342.9053 F4800
G0 X219.066 Y70.784 F7200
G1 X212.869 Y76.981 E1343.3425 F4800
G0 X212.303 Y76.981 F7200
G1 X219.066 Y70.218 E1343.8197 F4800
G0 X219.066 Y69.652 F7200
G1 X211.737 Y76.981 E1344.3368 F4800
G0 X211.172 Y76.981 F7200
G1 X219.066 Y69.087 E1344.8938 F4800
G0 X219.066 Y68.521 F7200
G1 X210.606 Y76.981 E1345.4907 F4800
G0 X210.040 Y76.981 F7200
G1 X219.066 Y67.955 E1346.1276 F4800
G0 X219.066 Y67.390 F7200
G1 X209.475 Y76.981 E1346.8043 F4800
G0 X208.909 Y76.981 F7200
G1 X219.066 Y66.824 E1347.5210 F4800
G0 X219.066 Y66.258 F7200
G1 X208.343 Y76.981 E1348.2776 F4800
G0 X207.778 Y76.981 F7200
G1 X218.556 Y66.202 E1349.0381 F4800
G0 X217.991 Y66.202 F7200
G1 X207.212 Y76.981 E1349.7986 F4800
G0 X206.646 Y76.981 F7200
G1 X217.425 Y66.202 E1350.5591 F4800
G0 X216.859 Y66.202 F7200
G1 X206.081 Y76.981 E1351.3196 F4800
G0 X205.515 Y76.981 F7200
G1 X216.294 Y66.202 E1352.0801 F4800
G0 X215.728 Y66.202 F7200
G1 X204.949 Y76.981 E1352.8406 F4800
G0 X204.384 Y76.981 F7200
G1 X215.162 Y66.202 E1353.6011 F4800
G0 X214.597 Y66.202 F7200
G1 X203.818 Y76.981 E1354.3616 F4800
G0 X203.252 Y76.981 F7200
G1 X214.031 Y66.202 E1355.1221 F4800
G0 X213.465 Y66.202 F7200
G1 X202.687 Y76.981 E1355.8826 F4800
G0 X202.121 Y76.981 F7200
G1 X212.900 Y66.202 E1356.6431 F4800
G0 X212.334 Y66.202 F7200
G1 X201.555 Y76.981 E1357.4036 F4800
G0 X200.989 Y76.981 F7200
G1 X211.768 Y66.202 E1358.1641 F4800
G0 X211.202 Y66.202 F7200
G1 X200.424 Y76.981 E1358.9246 F4800
G0 X199.858 Y76.981 F7200
G1 X210.637 Y66.202 E1359.6851 F4800
G0 X210.071 Y66.202 F7200
G1 X199.292 Y76.981 E1360.4456 F4800
G0 X198.727 Y76.981 F7200
G1 X209.505 Y66.202 E1361.2061 F4800
G0 X208.940 Y66.202 F7200
G1 X198.161 Y76.981 E1361.9666 F4800
G0 X197.595 Y76.981 F7200
G1 X208.374 Y66.202 E1362.7271 F4800
G0 X207.808 Y66.202 F7200
G1 X197.030 Y76.981 E1363.4875 F4800
G0 X196.464 Y76.981 F7200
G1 X207.243 Y66.202 E1364.2480 F4800
G0 X206.677 Y66.202 F7200
G1 X195.898 Y76.981 E1365.0085 F4800
G0 X195.333 Y76.981 F7200
G1 X206.111 Y66.202 E1365.7690 F4800
G0 X205.546 Y66.202 F7200
G1 X194.767 Y76.981 E1366.5295 F4800
G0 X194.201 Y76.981 F7200
G1 X204.980 Y66.202 E1367.2900 F4800
G0 X204.414 Y66.202 F7200
G1 X193.636 Y76.981 E1368.0505 F4800
G0 X193.070 Y76.981 F7200
G1 X203.849 Y66.202 E1368.8110 F4800
G0 X203.283 Y66.202 F7200
G1 X192.504 Y76.981 E1369.5715 F4800
G0 X191.938 Y76.981 F7200
G1 X202.717 Y66.202 E1370.3320 F4800
G0 X202.151 Y66.202 F7200
G1 X191.373 Y76.981 E1371.0925 F4800
G0 X190.807 Y76.981 F7200
G1 X201.586 Y66.202 E1371.8530 F4800
G0 X201.020 Y66.202 F7200
G1 X190.241 Y76.981 E1372.6135 F4800
G0 X189.676 Y76.981 F7200
G1 X200.454 Y66.202 E1373.3740 F4800
G0 X199.889 Y66.202 F7200
G1 X189.110 Y76.981 E1374.1345 F4800
G0 X188.544 Y76.981 F7200
G1 X199.323 Y66.202 E1374.8950 F4800
G0 X198.757 Y66.202 F7200
G1 X187.979 Y76.981 E1375.6555 F4800
G0 X187.413 Y76.981 F7200
G1 X198.192 Y66.202 E1376.4160 F4800
G0 X197.626 Y66.202 F7200
G1 X186.847 Y76.981 E1377.1765 F4800
G0 X186.282 Y76.981 F7200
G1 X197.060 Y66.202 E1377.9370 F4800
G0 X196.495 Y66.202 F7200
G1 X185.716 Y76.981 E1378.6975 F4800
G0 X185.150 Y76.981 F7200
G1 X195.929 Y66.202 E1379.4580 F4800
G0 X195.363 Y66.202 F7200
G1 X184.585 Y76.981 E1380.2185 F4800
G0 X184.019 Y76.981 F7200
G1 X194.798 Y66.202 E1380.9790 F4800
G0 X194.232 Y66.202 F7200
G1 X183.453 Y76.981 E1381.7395 F4800
G0 X182.888 Y76.981 F7200
G1 X193.666 Y66.202 E1382.5000 F4800
G0 X193.101 Y66.202 F7200
G1 X182.322 Y76.981 E1383.2605 F4800
G0 X181.756 Y76.981 F7200
G1 X192.535 Y66.202 E1384.0210 F4800
G0 X191.969 Y66.202 F7200
G1 X181.190 Y76.981 E1384.7815 F4800
G0 X180.625 Y76.981 F7200
G1 X191.404 Y66.202 E1385.5420 F4800
G0 X190.838 Y66.202 F7200
G1 X180.059 Y76.981 E1386.3025 F4800
G0 X179.493 Y76.981 F7200
G1 X190.272 Y66.202 E1387.0630 F4800
G0 X189.706 Y66.202 F7200
G1 X178.928 Y76.981 E1387.8235 F4800
G0 X178.362 Y76.981 F7200
G1 X189.141 Y66.202 E1388.5840 F4800
G0 X188.575 Y66.202 F7200
G1 X177.796 Y76.981 E1389.3445 F4800
G0 X177.231 Y76.981 F7200
G1 X188.009 Y66.202 E1390.1050 F4800
G0 X187.444 Y66.202 F7200
G1 X176.665 Y76.981 E1390.8655 F4800
G0 X176.099 Y76.981 F7200
G1 X186.878 Y66.202 E1391.6260 F4800
G0 X186.312 Y66.202 F7200
G1 X175.534 Y76.981 E1392.3865 F4800
G0 X174.968 Y76.981 F7200
G1 X185.747 Y66.202 E1393.1470 F4800
G0 X185.181 Y66.202 F7200
G1 X174.402 Y76.981 E1393.9075 F4800
G0 X173.837 Y76.981 F7200
G1 X184.615 Y66.202 E1394.6680 F4800
G0 X184.050 Y66.202 F7200
G1 X173.271 Y76.981 E1395.4285 F4800
G0 X172.705 Y76.981 F7200
G1 X183.484 Y66.202 E1396.1890 F4800
G0 X182.918 Y66.202 F7200
G1 X172.140 Y76.981 E1396.9495 F4800
G0 X171.574 Y76.981 F7200
G1 X182.353 Y66.202 E1397.7100 F4800
G0 X181.787 Y66.202 F7200
G1 X171.008 Y76.981 E1398.4705 F4800
G0 X170.442 Y76.981 F7200
G1 X181.221 Y66.202 E1399.2310 F4800
G0 X180.655 Y66.202 F7200
G1 X169.877 Y76.981 E1399.9915 F4800
G0 X169.311 Y76.981 F7200
G1 X180.090 Y66.202 E1400.7520 F4800
G0 X179.524 Y66.202 F7200
G1 X168.745 Y76.981 E1401.5125 F4800
G0 X168.180 Y76.981 F7200
G1 X178.958 Y66.202 E1402.2729 F4800
G0 X178.393 Y66.202 F7200
G1 X167.614 Y76.981 E1403.0334 F4800
G0 X167.048 Y76.981 F7200
G1 X177.827 Y66.202 E1403.7939 F4800
G0 X177.261 Y66.202 F7200
G1 X166.483 Y76.981 E1404.5544 F4800
G0 X165.917 Y76.981 F7200
G1 X176.696 Y66.202 E1405.3149 F4800
G0 X176.130 Y66.202 F7200
G1 X165.351 Y76.981 E1406.0754 F4800
G0 X164.786 Y76.981 F7200
G1 X175.564 Y66.202 E1406.8359 F4800
G0 X174.999 Y66.202 F7200
G1 X164.220 Y76.981 E1407.5964 F4800
G0 X163.654 Y76.981 F7200
G1 X174.433 Y66.202 E1408.3569 F4800
G0 X173.867 Y66.202 F7200
G1 X163.089 Y76.981 E1409.1174 F4800
G0 X162.523 Y76.981 F7200
G1 X173.302 Y66.202 E1409.8779 F4800
G0 X172.736 Y66.202 F7200
G1 X161.957 Y76.981 E1410.6384 F4800
G0 X161.391 Y76.981 F7200
G1 X172.170 Y66.202 E1411.3989 F4800
G0 X171.605 Y66.202 F7200
G1 X160.826 Y76.981 E1412.1594 F4800
G0 X160.260 Y76.981 F7200
G1 X171.039 Y66.202 E1412.9199 F4800
G0 X170.473 Y66.202 F7200
G1 X159.694 Y76.981 E1413.6804 F4800
G0 X159.129 Y76.981 F7200
G1 X169.907 Y66.202 E1414.4409 F4800
G0 X169.342 Y66.202 F7200
G1 X158.563 Y76.981 E1415.2014 F4800
G0 X157.997 Y76.981 F7200
G1 X168.776 Y66.202 E1415.9619 F4800
G0 X168.210 Y66.202 F7200
G1 X157.432 Y76.981 E1416.7224 F4800
G0 X156.866 Y76.981 F7200
G1 X167.645 Y66.202 E1417.4829 F4800
G0 X167.079 Y66.202 F7200
G1 X156.300 Y76.981 E1418.2434 F4800
G0 X155.735 Y76.981 F7200
G1 X166.513 Y66.202 E1419.0039 F4800
G0 X165.948 Y66.202 F7200
G1 X155.169 Y76.981 E1419.7644 F4800
G0 X154.603 Y76.981 F7200
G1 X165.382 Y66.202 E1420.5249 F4800
G0 X164.816 Y66.202 F7200
G1 X154.038 Y76.981 E1421.2854 F4800
G0 X153.472 Y76.981 F7200
G1 X164.251 Y66.202 E1422.0459 F4800
G0 X163.685 Y66.202 F7200
G1 X152.906 Y76.981 E1422.8064 F4800
G0 X152.341 Y76.981 F7200
G1 X163.119 Y66.202 E1423.5669 F4800
G0 X162.554 Y66.202 F7200
G1 X151.775 Y76.981 E1424.3274 F4800
G0 X151.209 Y76.981 F7200
G1 X161.988 Y66.202 E1425.0879 F4800
G0 X161.422 Y66.202 F7200
G1 X150.643 Y76.981 E1425.8484 F4800
G0 X150.078 Y76.981 F7200
G1 X160.857 Y66.202 E1426.6089 F4800
G0 X160.291 Y66.202 F7200
G1 X149.512 Y76.981 E1427.3694 F4800
G0 X148.946 Y76.981 F7200
G1 X159.725 Y66.202 E1428.1299 F4800
G0 X159.159 Y66.202 F7200
G1 X148.381 Y76.981 E1428.8904 F4800
G0 X147.815 Y76.981 F7200
G1 X158.594 Y66.202 E1429.6509 F4800
G0 X158.028 Y66.202 F7200
G1 X147.249 Y76.981 E1430.4114 F4800
G0 X146.684 Y76.981 F7200
G1 X157.462 Y66.202 E1431.1719 F4800
G0 X156.897 Y66.202 F7200
G1 X146.118 Y76.981 E1431.9324 F4800
G0 X145.552 Y76.981 F7200
G1 X156.331 Y66.202 E1432.6929 F4800
G0 X155.765 Y66.202 F7200
G1 X144.987 Y76.981 E1433.4534 F4800
G0 X144.421 Y76.981 F7200
G1 X155.200 Y66.202 E1434.2139 F4800
G0 X154.634 Y66.202 F7200
G1 X143.855 Y76.981 E1434.9744 F4800
G0 X143.290 Y76.981 F7200
G1 X154.068 Y66.202 E1435.7349 F4800
G0 X153.503 Y66.202 F7200
G1 X142.724 Y76.981 E1436.4954 F4800
G0 X142.158 Y76.981 F7200
G1 X152.937 Y66.202 E1437.2559 F4800
G0 X152.371 Y66.202 F7200
G1 X141.593 Y76.981 E1438.0164 F4800
G0 X141.027 Y76.981 F7200
G1 X151.806 Y66.202 E1438.7769 F4800
G0 X151.240 Y66.202 F7200
G1 X140.461 Y76.981 E1439.5374 F4800
G0 X139.895 Y76.981 F7200
G1 X150.674 Y66.202 E1440.2979 F4800
G0 X150.108 Y66.202 F7200
G1 X139.330 Y76.981 E1441.0583 F4800
G0 X138.764 Y76.981 F7200
G1 X149.543 Y66.202 E1441.8188 F4800
G0 X148.977 Y66.202 F7200
G1 X138.198 Y76.981 E1442.5793 F4800
G0 X137.633 Y76.981 F7200
G1 X148.411 Y66.202 E1443.3398 F4800
G0 X147.846 Y66.202 F7200
G1 X137.067 Y76.981 E1444.1003 F4800
G0 X136.501 Y76.981 F7200
G1 X147.280 Y66.202 E1444.8608 F4800
G0 X146.714 Y66.202 F7200
G1 X135.936 Y76.981 E1445.6213 F4800
G0 X135.370 Y76.981 F7200
G1 X146.149 Y66.202 E1446.3818 F4800
G0 X145.583 Y66.202 F7200
G1 X134.804 Y76.981 E1447.1423 F4800
G0 X134.239 Y76.981 F7200
G1 X145.017 Y66.202 E1447.9028 F4800
G0 X144.452 Y66.202 F7200
G1 X133.673 Y76.981 E1448.6633 F4800
G0 X133.107 Y76.981 F7200
G1 X143.886 Y66.202 E1449.4238 F4800
G0 X143.320 Y66.202 F7200
G1 X132.542 Y76.981 E1450.1843 F4800
G0 X131.976 Y76.981 F7200
G1 X142.755 Y66.202 E1450.9448 F4800
G0 X142.189 Y66.202 F7200
G1 X131.410 Y76.981 E1451.7053 F4800
G0 X130.845 Y76.981 F7200
G1 X141.623 Y66.202 E1452.4658 F4800
G0 X141.058 Y66.202 F7200
G1 X130.279 Y76.981 E1453.2263 F4800
G0 X129.713 Y76.981 F7200
G1 X140.492 Y66.202 E1453.9868 F4800
G0 X139.926 Y66.202 F7200
G1 X129.147 Y76.981 E1454.7473 F4800
G0 X128.582 Y76.981 F7200
G1 X139.360 Y66.202 E1455.5078 F4800
G0 X138.795 Y66.202 F7200
G1 X128.016 Y76.981 E1456.2683 F4800
G0 X127.450 Y76.981 F7200
G1 X138.229 Y66.202 E1457.0288 F4800
G0 X137.663 Y66.202 F7200
G1 X126.885 Y76.981 E1457.7893 F4800
G0 X126.319 Y76.981 F7200
G1 X137.098 Y66.202 E1458.5498 F4800
G0 X136.532 Y66.202 F7200
G1 X125.753 Y76.981 E1459.3103 F4800
G0 X125.188 Y76.981 F7200
G1 X135.966 Y66.202 E1460.0708 F4800
G0 X135.401 Y66.202 F7200
G1 X124.622 Y76.981 E1460.8313 F4800
G0 X124.056 Y76.981 F7200
G1 X134.835 Y66.202 E1461.5918 F4800
G0 X134.269 Y66.202 F7200
G1 X123.491 Y76.981 E1462.3523 F4800
G0 X122.925 Y76.981 F7200
G1 X133.704 Y66.202 E1463.1128 F4800
G0 X133.138 Y66.202 F7200
G1 X122.359 Y76.981 E1463.8733 F4800
G0 X121.794 Y76.981 F7200
G1 X132.572 Y66.202 E1464.6338 F4800
G0 X132.007 Y66.202 F7200
G1 X121.228 Y76.981 E1465.3943 F4800
G0 X120.662 Y76.981 F7200
G1 X131.441 Y66.202 E1466.1548 F4800
G0 X130.875 Y66.202 F7200
G1 X120.096 Y76.981 E1466.9153 F4800
G0 X119.531 Y76.981 F7200
G1 X130.310 Y66.202 E1467.6758 F4800
G0 X129.744 Y66.202 F7200
G1 X118.965 Y76.981 E1468.4363 F4800
G0 X118.399 Y76.981 F7200
G1 X129.178 Y66.202 E1469.1968 F4800
G0 X128.612 Y66.202 F7200
G1 X117.834 Y76.981 E1469.9573 F4800
G0 X117.268 Y76.981 F7200
G1 X128.047 Y66.202 E1470.7178 F4800
G0 X127.481 Y66.202 F7200
G1 X116.702 Y76.981 E1471.4783 F4800
G0 X116.137 Y76.981 F7200
G1 X126.915 Y66.202 E1472.2388 F4800
G0 X126.350 Y66.202 F7200
G1 X115.571 Y76.981 E1472.9993 F4800
G0 X115.005 Y76.981 F7200
G1 X125.784 Y66.202 E1473.7598 F4800
G0 X125.218 Y66.202 F7200
G1 X114.440 Y76.981 E1474.5203 F4800
G0 X113.874 Y76.981 F7200
G1 X124.653 Y66.202 E1475.2808 F4800
G0 X124.087 Y66.202 F7200
G1 X113.308 Y76.981 E1476.0413 F4800
G0 X112.743 Y76.981 F7200
G1 X123.521 Y66.202 E1476.8018 F4800
G0 X122.956 Y66.202 F7200
G1 X112.177 Y76.981 E1477.5623 F4800
G0 X111.611 Y76.981 F7200
G1 X122.390 Y66.202 E1478.3228 F4800
G0 X121.824 Y66.202 F7200
G1 X111.046 Y76.981 E1479.0833 F4800
G0 X110.480 Y76.981 F7200
G1 X121.259 Y66.202 E1479.8438 F4800
G0 X120.693 Y66.202 F7200
G1 X109.914 Y76.981 E1480.6042 F4800
G0 X109.348 Y76.981 F7200
G1 X120.127 Y66.202 E1481.3647 F4800
G0 X119.562 Y66.202 F7200
G1 X108.783 Y76.981 E1482.1252 F4800
G0 X108.217 Y76.981 F7200
G1 X118.996 Y66.202 E1482.8857 F4800
G0 X118.430 Y66.202 F7200
G1 X107.651 Y76.981 E1483.6462 F4800
G0 X107.086 Y76.981 F7200
G1 X117.864 Y66.202 E1484.4067 F4800
G0 X117.299 Y66.202 F7200
G1 X106.520 Y76.981 E1485.1672 F4800
G0 X105.954 Y76.981 F7200
G1 X116.733 Y66.202 E1485.9277 F4800
G0 X116.167 Y66.202 F7200
G1 X105.389 Y76.981 E1486.6882 F4800
G0 X104.823 Y76.981 F7200
G1 X115.602 Y66.202 E1487.4487 F4800
G0 X115.036 Y66.202 F7200
G1 X104.257 Y76.981 E1488.2092 F4800
G0 X103.692 Y76.981 F7200
G1 X114.470 Y66.202 E1488.9697 F4800
G0 X113.905 Y66.202 F7200
G1 X103.126 Y76.981 E1489.7302 F4800
G0 X102.560 Y76.981 F7200
G1 X113.339 Y66.202 E1490.4907 F4800
G0 X112.773 Y66.202 F7200
G1 X101.995 Y76.981 E1491.2512 F4800
G0 X101.429 Y76.981 F7200
G1 X112.208 Y66.202 E1492.0117 F4800
G0 X111.642 Y66.202 F7200
G1 X100.863 Y76.981 E1492.7722 F4800
G0 X100.298 Y76.981 F7200
G1 X111.076 Y66.202 E1493.5327 F4800
G0 X110.511 Y66.202 F7200
G1 X99.732 Y76.981 E1494.2932 F4800
G0 X99.166 Y76.981 F7200
G1 X109.945 Y66.202 E1495.0537 F4800
G0 X109.379 Y66.202 F7200
G1 X98.600 Y76.981 E1495.8142 F4800
G0 X98.035 Y76.981 F7200
G1 X108.813 Y66.202 E1496.5747 F4800
G0 X108.248 Y66.202 F7200
G1 X97.469 Y76.981 E1497.3352 F4800
G0 X96.903 Y76.981 F7200
G1 X107.682 Y66.202 E1498.0957 F4800
G0 X107.116 Y66.202 F7200
G1 X96.338 Y76.981 E1498.8562 F4800
G0 X95.772 Y76.981 F7200
G1 X106.551 Y66.202 E1499.6167 F4800
G0 X105.985 Y66.202 F7200
G1 X95.206 Y76.981 E1500.3772 F4800
G0 X94.641 Y76.981 F7200
G1 X105.419 Y66.202 E1501.1377 F4800
G0 X104.854 Y66.202 F7200
G1 X94.075 Y76.981 E1501.8982 F4800
G0 X93.509 Y76.981 F7200
G1 X104.288 Y66.202 E1502.6587 F4800
G0 X103.722 Y66.202 F7200
G1 X92.944 Y76.981 E1503.4192 F4800
G0 X92.378 Y76.981 F7200
G1 X103.157 Y66.202 E1504.1797 F4800
G0 X102.591 Y66.202 F7200
G1 X91.812 Y76.981 E1504.9402 F4800
G0 X91.247 Y76.981 F7200
G1 X102.025 Y66.202 E1505.7007 F4800
G0 X101.460 Y66.202 F7200
G1 X90.681 Y76.981 E1506.4612 F4800
G0 X90.115 Y76.981 F7200
G1 X100.894 Y66.202 E1507.2217 F4800
G0 X100.328 Y66.202 F7200
G1 X89.549 Y76.981 E1507.9822 F4800
G0 X88.984 Y76.981 F7200
G1 X99.763 Y66.202 E1508.7427 F4800
G0 X99.197 Y66.202 F7200
G1 X88.418 Y76.981 E1509.5032 F4800
G0 X87.852 Y76.981 F7200
G1 X98.631 Y66.202 E1510.2637 F4800
G0 X98.065 Y66.202 F7200
G1 X87.287 Y76.981 E1511.0242 F4800
G0 X86.721 Y76.981 F7200
G1 X97.500 Y66.202 E1511.7847 F4800
G0 X96.934 Y66.202 F7200
G1 X86.155 Y76.981 E1512.5452 F4800
G0 X85.590 Y76.981 F7200
G1 X96.368 Y66.202 E1513.3057 F4800
G0 X95.803 Y66.202 F7200
G1 X85.024 Y76.981 E1514.0662 F4800
G0 X84.458 Y76.981 F7200
G1 X95.237 Y66.202 E1514.8267 F4800
G0 X94.671 Y66.202 F7200
G1 X83.893 Y76.981 E1515.5872 F4800
G0 X83.327 Y76.981 F7200
G1 X94.106 Y66.202 E1516.3477 F4800
G0 X93.540 Y66.202 F7200
G1 X82.761 Y76.981 E1517.1082 F4800
G0 X82.196 Y76.981 F7200
G1 X92.974 Y66.202 E1517.8687 F4800
G0 X92.409 Y66.202 F7200
G1 X81.630 Y76.981 E1518.6292 F4800
G0 X81.064 Y76.981 F7200
G1 X91.843 Y66.202 E1519.3896 F4800
G0 X91.277 Y66.202 F7200
G1 X80.499 Y76.981 E1520.1501 F4800
G0 X79.933 Y76.981 F7200
G1 X90.712 Y66.202 E1520.9106 F4800
G0 X90.146 Y66.202 F7200
G1 X79.367 Y76.981 E1521.6711 F4800
G0 X78.801 Y76.981 F7200
G1 X89.580 Y66.202 E1522.4316 F4800
G0 X89.015 Y66.202 F7200
G1 X78.236 Y76.981 E1523.1921 F4800
G0 X77.670 Y76.981 F7200
G1 X88.449 Y66.202 E1523.9526 F4800
G0 X87.883 Y66.202 F7200
G1 X77.104 Y76.981 E1524.7131 F4800
G0 X76.539 Y76.981 F7200
G1 X87.317 Y66.202 E1525.4736 F4800
G0 X86.752 Y66.202 F7200
G1 X75.973 Y76.981 E1526.2341 F4800
G0 X75.407 Y76.981 F7200
G1 X86.186 Y66.202 E1526.9946 F4800
G0 X85.620 Y66.202 F7200
G1 X74.842 Y76.981 E1527.7551 F4800
G0 X74.276 Y76.981 F7200
G1 X85.055 Y66.202 E1528.5156 F4800
G0 X84.489 Y66.202 F7200
G1 X73.710 Y76.981 E1529.2761 F4800
G0 X73.145 Y76.981 F7200
G1 X83.923 Y66.202 E1530.0366 F4800
G0 X83.358 Y66.202 F7200
G1 X72.579 Y76.981 E1530.7971 F4800
G0 X72.013 Y76.981 F7200
G1 X82.792 Y66.202 E1531.5576 F4800
G0 X82.226 Y66.202 F7200
G1 X71.448 Y76.981 E1532.3181 F4800
G0 X70.882 Y76.981 F7200
G1 X81.661 Y66.202 E1533.0786 F4800
G0 X81.095 Y66.202 F7200
G1 X70.316 Y76.981 E1533.8391 F4800
G0 X69.751 Y76.981 F7200
G1 X80.529 Y66.202 E1534.5996 F4800
G0 X79.964 Y66.202 F7200
G1 X69.185 Y76.981 E1535.3601 F4800
G0 X68.619 Y76.981 F7200
G1 X79.398 Y66.202 E1536.1206 F4800
G0 X78.832 Y66.202 F7200
G1 X68.053 Y76.981 E1536.8811 F4800
G0 X67.488 Y76.981 F7200
G1 X78.266 Y66.202 E1537.6416 F4800
G0 X77.701 Y66.202 F7200
G1 X66.922 Y76.981 E1538.4021 F4800
G0 X66.356 Y76.981 F7200
G1 X77.135 Y66.202 E1539.1626 F4800
G0 X76.569 Y66.202 F7200
G1 X65.791 Y76.981 E1539.9231 F4800
G0 X65.225 Y76.981 F7200
G1 X76.004 Y66.202 E1540.6836 F4800
G0 X75.438 Y66.202 F7200
G1 X64.659 Y76.981 E1541.4441 F4800
G0 X64.094 Y76.981 F7200
G1 X74.872 Y66.202 E1542.2046 F4800
G0 X74.307 Y66.202 F7200
G1 X63.528 Y76.981 E1542.9651 F4800
G0 X62.962 Y76.981 F7200
G1 X73.741 Y66.202 E1543.7256 F4800
G0 X73.175 Y66.202 F7200
G1 X62.397 Y76.981 E1544.4861 F4800
G0 X61.831 Y76.981 F7200
G1 X72.610 Y66.202 E1545.2466 F4800
G0 X72.044 Y66.202 F7200
G1 X61.265 Y76.981 E1546.0071 F4800
G0 X60.700 Y76.981 F7200
G1 X71.478 Y66.202 E1546.7676 F4800
G0 X70.913 Y66.202 F7200
G1 X60.134 Y76.981 E1547.5281 F4800
G0 X59.568 Y76.981 F7200
G1 X70.347 Y66.202 E1548.2886 F4800
G0 X69.781 Y66.202 F7200
G1 X59.003 Y76.981 E1549.0491 F4800
G0 X58.437 Y76.981 F7200
G1 X69.216 Y66.202 E1549.8096 F4800
G0 X68.650 Y66.202 F7200
G1 X57.871 Y76.981 E1550.5701 F4800
G0 X57.305 Y76.981 F7200
G1 X68.084 Y66.202 E1551.3306 F4800
G0 X67.518 Y66.202 F7200
G1 X56.740 Y76.981 E1552.0911 F4800
G0 X56.174 Y76.981 F7200
G1 X66.953 Y66.202 E1552.8516 F4800
G0 X66.387 Y66.202 F7200
G1 X55.608 Y76.981 E1553.6121 F4800
G0 X55.043 Y76.981 F7200
G1 X65.821 Y66.202 E1554.3726 F4800
G0 X65.256 Y66.202 F7200
G1 X54.477 Y76.981 E1555.1331 F4800
G0 X53.911 Y76.981 F7200
G1 X64.690 Y66.202 E1555.8936 F4800
G0 X64.124 Y66.202 F7200
G1 X53.346 Y76.981 E1556.6541 F4800
G0 X52.780 Y76.981 F7200
G1 X63.559 Y66.202 E1557.4146 F4800
G0 X62.993 Y66.202 F7200
G1 X52.214 Y76.981 E1558.1750 F4800
G0 X51.649 Y76.981 F7200
G1 X62.427 Y66.202 E1558.9355 F4800
G0 X61.862 Y66.202 F7200
G1 X51.083 Y76.981 E1559.6960 F4800
G0 X50.517 Y76.981 F7200
G1 X61.296 Y66.202 E1560.4565 F4800
G0 X60.730 Y66.202 F7200
G1 X49.952 Y76.981 E1561.2170 F4800
G0 X49.386 Y76.981 F7200
G1 X60.165 Y66.202 E1561.9775 F4800
G0 X59.599 Y66.202 F7200
G1 X48.820 Y76.981 E1562.7380 F4800
G0 X48.254 Y76.981 F7200
G1 X59.033 Y66.202 E1563.4985 F4800
G0 X58.468 Y66.202 F7200
G1 X47.689 Y76.981 E1564.2590 F4800
G0 X47.123 Y76.981 F7200
G1 X57.902 Y66.202 E1565.0195 F4800
G0 X57.336 Y66.202 F7200
G1 X46.557 Y76.981 E1565.7800 F4800
G0 X45.992 Y76.981 F7200
G1 X56.770 Y66.202 E1566.5405 F4800
G0 X56.205 Y66.202 F7200
G1 X45.426 Y76.981 E1567.3010 F4800
G0 X44.860 Y76.981 F7200
G1 X55.639 Y66.202 E1568.0615 F4800
G0 X55.073 Y66.202 F7200
G1 X44.295 Y76.981 E1568.8220 F4800
G0 X43.729 Y76.981 F7200
G1 X54.508 Y66.202 E1569.5825 F4800
G0 X53.942 Y66.202 F7200
G1 X43.163 Y76.981 E1570.3430 F4800
G0 X42.598 Y76.981 F7200
G1 X53.376 Y66.202 E1571.1035 F4800
G0 X52.811 Y66.202 F7200
G1 X42.032 Y76.981 E1571.8640 F4800
G0 X41.466 Y76.981 F7200
G1 X52.245 Y66.202 E1572.6245 F4800
G0 X51.679 Y66.202 F7200
G1 X36.837 Y81.044 E1573.6716 F4800
G0 X36.837 Y80.478 F7200
G1 X51.114 Y66.202 E1574.6788 F4800
G0 X50.548 Y66.202 F7200
G1 X36.837 Y79.913 E1575.6462 F4800
G0 X36.837 Y79.347 F7200
G1 X49.982 Y66.202 E1576.5737 F4800
G0 X49.417 Y66.202 F7200
G1 X36.837 Y78.781 E1577.4613 F4800
G0 X36.837 Y78.216 F7200
G1 X48.851 Y66.202 E1578.3090 F4800
G0 X48.285 Y66.202 F7200
G1 X36.837 Y77.650 E1579.1167 F4800
G0 X36.837 Y77.084 F7200
G1 X47.720 Y66.202 E1579.8845 F4800
G0 X47.154 Y66.202 F7200
G1 X36.837 Y76.519 E1580.6124 F4800
G0 X36.837 Y75.953 F7200
G1 X46.588 Y66.202 E1581.3004 F4800
G0 X46.022 Y66.202 F7200
G1 X36.837 Y75.387 E1581.9485 F4800
G0 X36.837 Y74.821 F7200
G1 X45.457 Y66.202 E1582.5566 F4800
G0 X44.891 Y66.202 F7200
G1 X36.837 Y74.256 E1583.1249 F4800
G0 X36.837 Y73.690 F7200
G1 X44.325 Y66.202 E1583.6532 F4800
G0 X43.760 Y66.202 F7200
G1 X36.837 Y73.124 E1584.1416 F4800
G0 X36.837 Y72.559 F7200
G1 X43.194 Y66.202 E1584.5901 F4800
G0 X42.628 Y66.202 F7200
G1 X36.837 Y71.993 E1584.9987 F4800
G0 X36.837 Y71.427 F7200
G1 X42.063 Y66.202 E1585.3673 F4800
G0 X41.497 Y66.202 F7200
G1 X36.837 Y70.862 E1585.6960 F4800
G0 X36.837 Y70.296 F7200
G1 X40.931 Y66.202 E1585.9849 F4800
G0 X40.366 Y66.202 F7200
G1 X36.837 Y69.730 E1586.2338 F4800
G0 X36.837 Y69.165 F7200
G1 X39.800 Y66.202 E1586.4427 F4800
G0 X39.234 Y66.202 F7200
G1 X36.837 Y68.599 E1586.6118 F4800
G0 X36.837 Y68.033 F7200
