; GCode generated by CraftWare

G28 X0 Y0
G28 Z0


M104 S215 ;set head temp (no wait)
M190 S60 ;set bed temp (wait)
M109 S215 ;set head temp (wait)

; ------------------------------------
; Raft Layer #0
; ------------------------------------
M106 S0 ;turn off fan
G21 ; mm
G90 ; abs
G92 E0 ;reset extr
G0 F1200 Z0.300
;segType:Raft
G0 F3000 E-1.0000
G0 F1200 Z2.300
G0 X41.273 Y168.241 F5400
G0 F1200 Z0.300
G0 F3000 E0.0000
G1 X40.219 Y167.187 E0.0744 F600
G1 X40.088 Y165.211 E0.1732
G1 X40.549 Y163.564 E0.2585
G1 X43.908 Y154.277 E0.7512
G1 X45.094 Y151.247 E0.9136
G1 X46.148 Y148.085 E1.0798
G1 X47.333 Y145.055 E1.2422
G1 X48.387 Y141.893 E1.4084
G1 X49.573 Y138.863 E1.5708
G1 X58.531 Y114.096 E2.8847
G1 X59.717 Y111.066 E3.0471
G1 X60.771 Y107.904 E3.2133
G1 X61.956 Y104.874 E3.3757
G1 X63.010 Y101.713 E3.5419
G1 X64.196 Y98.683 E3.7043
G1 X70.915 Y80.107 E4.6897
G1 X72.100 Y77.077 E4.8521
G1 X73.154 Y73.916 E5.0183
G1 X74.340 Y70.886 E5.1807
G1 X75.394 Y67.724 E5.3469
G1 X76.579 Y64.694 E5.5093
G1 X77.633 Y61.532 E5.6755
G1 X78.819 Y58.502 E5.8379
G1 X85.538 Y39.927 E6.8234
G1 X86.723 Y36.897 E6.9857
G1 X87.777 Y33.735 E7.1520
G1 X88.107 Y33.010 E7.1917
G1 X89.161 Y31.956 E7.2660
G1 X89.951 Y31.693 E7.3076
G1 X157.402 Y31.693 E10.6727
G1 X216.421 Y31.693 E13.6172
G1 X217.409 Y31.759 E13.6666
G1 X218.463 Y32.813 E13.7410
G1 X218.727 Y33.603 E13.7826
G1 X218.727 Y34.657 E13.8351
G1 X218.463 Y35.448 E13.8767
G1 X217.409 Y36.502 E13.9511
G1 X213.391 Y36.699 E14.1518
G1 X201.535 Y37.490 E14.7446
G1 X197.451 Y37.622 E14.9485
G1 X185.594 Y38.412 E15.5413
G1 X179.271 Y38.412 E15.8568
G1 X171.366 Y38.939 E16.2520
G1 X169.258 Y38.939 E16.3572
G1 X163.330 Y39.334 E16.6536
G1 X161.222 Y39.334 E16.7588
G1 X153.318 Y39.861 E17.1540
G1 X151.210 Y39.861 E17.2592
G1 X143.306 Y40.388 E17.6544
G1 X135.533 Y41.047 E18.0435
G1 X131.844 Y41.574 E18.2294
G1 X128.090 Y42.035 E18.4182
G1 X122.820 Y43.089 E18.6863
G1 X117.880 Y44.472 E18.9422
G1 X114.850 Y45.658 E19.1046
G1 X113.269 Y46.185 E19.1877
G1 X110.503 Y47.634 E19.3435
G1 X107.802 Y49.149 E19.4980
G1 X105.299 Y50.861 E19.6493
G1 X101.808 Y53.694 E19.8736
G1 X99.700 Y55.802 E20.0223
G1 X97.724 Y58.041 E20.1713
G1 X94.167 Y62.916 E20.4724
G1 X92.520 Y65.484 E20.6246
G1 X90.940 Y68.119 E20.7779
G1 X89.424 Y70.820 E20.9324
G1 X86.526 Y76.353 E21.2440
G1 X85.209 Y79.251 E21.4028
G1 X83.826 Y82.083 E21.5601
G1 X82.508 Y84.982 E21.7189
G1 X81.323 Y88.012 E21.8812
G1 X77.568 Y96.904 E22.3628
G1 X76.448 Y100.000 E22.5271
G1 X75.789 Y101.449 E22.6065
G1 X75.263 Y103.030 E22.6896
G1 X74.604 Y104.479 E22.7690
G1 X74.077 Y106.060 E22.8522
G1 X73.418 Y107.509 E22.9316
G1 X72.298 Y110.605 E23.0958
G1 X71.112 Y113.635 E23.2582
G1 X67.753 Y122.923 E23.7509
G1 X66.568 Y125.953 E23.9132
G1 X64.328 Y132.144 E24.2417
G1 X63.801 Y133.725 E24.3249
G1 X63.142 Y135.174 E24.4043
G1 X62.089 Y138.336 E24.5705
G1 X60.903 Y141.366 E24.7329
G1 X54.184 Y159.941 E25.7184
G1 X52.999 Y162.971 E25.8807
G1 X51.681 Y166.924 E26.0885
G1 X50.034 Y168.439 E26.2002
G1 X41.603 Y168.439 E26.6208
G1 X41.273 Y168.241 E26.6400
G0 X41.802 Y167.714 F5400
G1 X41.802 Y162.576 E26.8963 F600
G0 F3000 E25.8963
G0 X45.802 Y167.714 F5400
G0 F3000 E26.8963
G1 X45.802 Y151.774 E27.6916 F600
G0 F3000 E26.6916
G0 X53.802 Y158.229 F5400
G0 F3000 E27.6916
G1 X53.802 Y129.641 E29.1178 F600
G0 F3000 E28.1178
G0 X61.802 Y136.624 F5400
G0 F3000 E29.1178
G1 X61.802 Y107.904 E30.5506 F600
G0 F3000 E29.5506
G0 X69.802 Y114.755 F5400
G0 F3000 E30.5506
G1 X69.802 Y85.904 E31.9900 F600
G0 F3000 E30.9900
G0 X77.802 Y94.072 F5400
G0 F3000 E31.9900
G1 X77.802 Y63.772 E33.5017 F600
G0 F3000 E32.5017
G0 X81.802 Y52.969 F5400
G0 F3000 E33.5017
G1 X81.802 Y84.586 E35.0791 F600
G0 F3000 E34.0791
G0 X85.802 Y75.760 F5400
G0 F3000 E35.0791
G1 X85.802 Y41.771 E36.7748 F600
G0 F3000 E35.7748
G0 X89.802 Y32.549 F5400
G0 F3000 E36.7748
G1 X89.802 Y68.383 E38.5625 F600
G0 F3000 E37.5625
G0 X93.802 Y61.927 F5400
G0 F3000 E38.5625
G1 X93.802 Y32.549 E40.0282 F600
G0 F3000 E39.0282
G0 X97.803 Y32.549 F5400
G0 F3000 E40.0282
G1 X97.803 Y56.658 E41.2310 F600
G0 F3000 E40.2310
G0 X101.803 Y52.706 F5400
G0 F3000 E41.2310
G1 X101.803 Y32.549 E42.2366 F600
G0 F3000 E41.2366
G0 X105.803 Y32.549 F5400
G0 F3000 E42.2366
G1 X105.803 Y49.544 E43.0844 F600
G0 F3000 E42.0844
G0 X109.803 Y47.041 F5400
G0 F3000 E43.0844
G1 X109.803 Y32.549 E43.8074 F600
G0 F3000 E42.8074
G0 X113.803 Y32.549 F5400
G0 F3000 E43.8074
G1 X113.803 Y45.196 E44.4383 F600
G0 F3000 E43.4383
G0 X117.803 Y43.747 F5400
G0 F3000 E44.4383
G1 X117.803 Y32.549 E44.9970 F600
G0 F3000 E43.9970
G0 X121.803 Y32.549 F5400
G0 F3000 E44.9970
G1 X121.803 Y42.562 E45.4965 F600
G0 F3000 E44.4965
G0 X125.803 Y41.639 F5400
G0 F3000 E45.4965
G1 X125.803 Y32.549 E45.9500 F600
G0 F3000 E44.9500
G0 X129.803 Y32.549 F5400
G0 F3000 E45.9500
G1 X129.803 Y40.981 E46.3707 F600
G0 F3000 E45.3707
G0 X133.803 Y40.454 F5400
G0 F3000 E46.3707
G1 X133.803 Y32.549 E46.7650 F600
G0 F3000 E45.7650
G0 X137.803 Y32.549 F5400
G0 F3000 E46.7650
G1 X137.803 Y40.059 E47.1397 F600
G0 F3000 E46.1397
G0 X141.803 Y39.795 F5400
G0 F3000 E47.1397
G1 X141.803 Y32.549 E47.5011 F600
G0 F3000 E46.5011
G0 X145.803 Y32.549 F5400
G0 F3000 E47.5011
G1 X145.803 Y39.532 E47.8495 F600
G0 F3000 E46.8495
G0 X149.803 Y39.268 F5400
G0 F3000 E47.8495
G1 X149.803 Y32.549 E48.1847 F600
G0 F3000 E47.1847
G0 X153.803 Y32.549 F5400
G0 F3000 E48.1847
G1 X153.803 Y39.005 E48.5067 F600
G0 F3000 E47.5067
G0 X157.803 Y38.873 F5400
G0 F3000 E48.5067
G1 X157.803 Y32.549 E48.8222 F600
G0 F3000 E47.8222
G0 X161.803 Y32.549 F5400
G0 F3000 E48.8222
G1 X161.803 Y38.609 E49.1245 F600
G0 F3000 E48.1245
G0 X165.803 Y38.478 F5400
G0 F3000 E49.1245
G1 X165.803 Y32.549 E49.4203 F600
G0 F3000 E48.4203
G0 X169.803 Y32.549 F5400
G0 F3000 E49.4203
G1 X169.803 Y38.214 E49.7029 F600
G0 F3000 E48.7029
G0 X173.803 Y37.951 F5400
G0 F3000 E49.7029
G1 X173.803 Y32.549 E49.9724 F600
G0 F3000 E48.9724
G0 X177.803 Y32.549 F5400
G0 F3000 E49.9724
G1 X177.803 Y37.819 E50.2353 F600
G0 F3000 E49.2353
G0 X181.803 Y37.687 F5400
G0 F3000 E50.2353
G1 X181.803 Y32.549 E50.4916 F600
G0 F3000 E49.4916
G0 X185.803 Y32.549 F5400
G0 F3000 E50.4916
G1 X185.803 Y37.555 E50.7414 F600
G0 F3000 E49.7414
G0 X189.803 Y37.424 F5400
G0 F3000 E50.7414
G1 X189.803 Y32.549 E50.9846 F600
G0 F3000 E49.9846
G0 X193.802 Y32.549 F5400
G0 F3000 E50.9846
G1 X193.802 Y37.160 E51.2146 F600
G0 F3000 E50.2146
G0 X197.802 Y36.897 F5400
G0 F3000 E51.2146
G1 X197.802 Y32.549 E51.4315 F600
G0 F3000 E50.4315
G0 X201.802 Y32.549 F5400
G0 F3000 E51.4315
G1 X201.802 Y36.633 E51.6352 F600
G0 F3000 E50.6352
G0 X205.802 Y36.502 F5400
G0 F3000 E51.6352
G1 X205.802 Y32.549 E51.8324 F600
G0 F3000 E50.8324
G0 X209.802 Y32.549 F5400
G0 F3000 E51.8324
G1 X209.802 Y36.238 E52.0164 F600
G0 F3000 E51.0164
G0 X213.802 Y35.975 F5400
G0 F3000 E52.0164
G1 X213.802 Y32.549 E52.1873 F600
G0 F3000 E51.1873
G0 X217.802 Y33.340 F5400
G0 F3000 E52.1873
G1 X217.802 Y35.052 E52.2728 F600
G0 F3000 E51.2728
G0 X73.802 Y74.970 F5400
G0 F3000 E52.2728
G1 X73.802 Y104.479 E53.7450 F600
G0 F3000 E52.7450
G0 X65.802 Y96.707 F5400
G0 F3000 E53.7450
G1 X65.802 Y125.557 E55.1844 F600
G0 F3000 E54.1844
G0 X57.802 Y118.839 F5400
G0 F3000 E55.1844
G1 X57.802 Y147.426 E56.6106 F600
G0 F3000 E55.6106
G0 X49.802 Y140.839 F5400
G0 F3000 E56.6106
G1 X49.802 Y167.714 E57.9514 F600



; ------------------------------------
; Raft Layer #1
; ------------------------------------
M106 S0 ;turn off fan
G92 E0 ;reset extr
G0 F1200 Z0.600
;segType:Raft
G0 X50.298 Y168.198 F7200
G1 X41.208 Y168.198 E0.4535 F2400
G0 F3000 E-0.5465
G0 X40.285 Y164.198 F7200
G0 F3000 E0.4535
G1 X52.537 Y164.198 E1.0647 F2400
G0 X52.142 Y165.531 F7200
G1 X40.022 Y165.531 E1.6694 F2400
G1 X40.022 Y166.864 E1.7359
G1 X51.615 Y166.864 E2.3143
G0 F3000 E1.3143
G0 X53.064 Y162.864 F7200
G0 F3000 E2.3143
G1 X40.812 Y162.864 E2.9256 F2400
G0 X41.208 Y161.531 F7200
G1 X53.459 Y161.531 E3.5368 F2400
G0 X53.986 Y160.198 F7200
G1 X41.735 Y160.198 E4.1480 F2400
G0 X42.130 Y158.864 F7200
G1 X54.513 Y158.864 E4.7659 F2400
G0 X54.909 Y157.531 F7200
G1 X42.657 Y157.531 E5.3771 F2400
G0 X43.184 Y156.198 F7200
G1 X55.435 Y156.198 E5.9883 F2400
G0 X55.962 Y154.864 F7200
G1 X43.711 Y154.864 E6.5996 F2400
G0 X44.106 Y153.531 F7200
G1 X56.489 Y153.531 E7.2174 F2400
G0 X56.885 Y152.198 F7200
G1 X44.633 Y152.198 E7.8287 F2400
G0 X45.160 Y150.864 F7200
G1 X57.412 Y150.864 E8.4399 F2400
G0 X57.939 Y149.531 F7200
G1 X45.555 Y149.531 E9.0577 F2400
G0 X46.082 Y148.198 F7200
G1 X58.334 Y148.198 E9.6690 F2400
G0 X58.861 Y146.864 F7200
G1 X46.609 Y146.864 E10.2802 F2400
G0 X47.004 Y145.531 F7200
G1 X59.256 Y145.531 E10.8914 F2400
G0 X59.783 Y144.198 F7200
G1 X47.531 Y144.198 E11.5027 F2400
G0 X48.058 Y142.864 F7200
G1 X60.310 Y142.864 E12.1139 F2400
G0 X60.837 Y141.531 F7200
G1 X48.585 Y141.531 E12.7252 F2400
G0 X48.980 Y140.198 F7200
G1 X61.232 Y140.198 E13.3364 F2400
G0 X61.759 Y138.864 F7200
G1 X49.507 Y138.864 E13.9477 F2400
G0 X49.902 Y137.531 F7200
G1 X62.286 Y137.531 E14.5655 F2400
G0 X62.813 Y136.198 F7200
G1 X50.429 Y136.198 E15.1833 F2400
G0 X50.956 Y134.864 F7200
G1 X63.208 Y134.864 E15.7945 F2400
G0 X63.735 Y133.531 F7200
G1 X51.352 Y133.531 E16.4123 F2400
G0 X51.879 Y132.198 F7200
G1 X64.262 Y132.198 E17.0302 F2400
G0 X64.789 Y130.864 F7200
G1 X52.405 Y130.864 E17.6480 F2400
G0 X52.932 Y129.531 F7200
G1 X65.184 Y129.531 E18.2592 F2400
G0 X65.711 Y128.198 F7200
G1 X53.328 Y128.198 E18.8770 F2400
G0 X53.855 Y126.864 F7200
G1 X66.238 Y126.864 E19.4949 F2400
G0 X66.633 Y125.531 F7200
G1 X54.382 Y125.531 E20.1061 F2400
G0 X54.777 Y124.198 F7200
G1 X67.160 Y124.198 E20.7239 F2400
G0 X67.687 Y122.864 F7200
G1 X55.304 Y122.864 E21.3417 F2400
G0 X55.831 Y121.531 F7200
G1 X68.214 Y121.531 E21.9595 F2400
G0 X68.609 Y120.198 F7200
G1 X56.226 Y120.198 E22.5774 F2400
G0 X56.753 Y118.864 F7200
G1 X69.136 Y118.864 E23.1952 F2400
G0 X69.663 Y117.531 F7200
G1 X57.280 Y117.531 E23.8130 F2400
G0 X57.675 Y116.198 F7200
G1 X70.059 Y116.198 E24.4308 F2400
G0 X70.586 Y114.864 F7200
G1 X58.202 Y114.864 E25.0486 F2400
G0 X58.729 Y113.531 F7200
G1 X71.112 Y113.531 E25.6664 F2400
G0 X71.639 Y112.198 F7200
G1 X59.124 Y112.198 E26.2908 F2400
G0 X59.651 Y110.864 F7200
G1 X72.166 Y110.864 E26.9152 F2400
G0 X72.693 Y109.531 F7200
G1 X60.178 Y109.531 E27.5396 F2400
G0 X60.705 Y108.198 F7200
G1 X73.220 Y108.198 E28.1640 F2400
G0 X73.616 Y106.864 F7200
G1 X61.100 Y106.864 E28.7884 F2400
G0 X61.627 Y105.531 F7200
G1 X74.142 Y105.531 E29.4128 F2400
G0 X74.669 Y104.198 F7200
G1 X62.154 Y104.198 E30.0371 F2400
G0 X62.549 Y102.864 F7200
G1 X75.196 Y102.864 E30.6681 F2400
G0 X75.723 Y101.531 F7200
G1 X63.076 Y101.531 E31.2991 F2400
G0 X63.603 Y100.198 F7200
G1 X76.250 Y100.198 E31.9300 F2400
G0 X76.777 Y98.864 F7200
G1 X63.999 Y98.864 E32.5676 F2400
G0 X64.525 Y97.531 F7200
G1 X77.304 Y97.531 E33.2051 F2400
G0 X77.831 Y96.198 F7200
G1 X65.052 Y96.198 E33.8426 F2400
G0 X65.448 Y94.864 F7200
G1 X78.358 Y94.864 E34.4867 F2400
G0 X78.885 Y93.531 F7200
G1 X65.975 Y93.531 E35.1308 F2400
G0 X66.502 Y92.198 F7200
G1 X79.412 Y92.198 E35.7749 F2400
G0 X80.071 Y90.864 F7200
G1 X66.897 Y90.864 E36.4322 F2400
G0 X67.424 Y89.531 F7200
G1 X80.598 Y89.531 E37.0894 F2400
G0 X81.125 Y88.198 F7200
G1 X67.951 Y88.198 E37.7467 F2400
G0 X68.478 Y86.864 F7200
G1 X81.652 Y86.864 E38.4039 F2400
G0 X82.310 Y85.531 F7200
G1 X68.873 Y85.531 E39.0743 F2400
G0 X69.400 Y84.198 F7200
G1 X82.837 Y84.198 E39.7447 F2400
G0 X83.496 Y82.864 F7200
G1 X69.795 Y82.864 E40.4283 F2400
G0 X70.322 Y81.531 F7200
G1 X84.023 Y81.531 E41.1118 F2400
G0 X84.682 Y80.198 F7200
G1 X70.849 Y80.198 E41.8019 F2400
G0 X71.244 Y78.864 F7200
G1 X85.340 Y78.864 E42.5052 F2400
G0 X85.999 Y77.531 F7200
G1 X71.771 Y77.531 E43.2150 F2400
G0 X72.298 Y76.198 F7200
G1 X86.526 Y76.198 E43.9248 F2400
G0 X87.316 Y74.864 F7200
G1 X72.825 Y74.864 E44.6478 F2400
G0 X73.220 Y73.531 F7200
G1 X87.975 Y73.531 E45.3839 F2400
G0 X88.634 Y72.198 F7200
G1 X73.747 Y72.198 E46.1266 F2400
G0 X74.274 Y70.864 F7200
G1 X89.293 Y70.864 E46.8759 F2400
G0 X90.083 Y69.531 F7200
G1 X74.669 Y69.531 E47.6449 F2400
G0 X75.196 Y68.198 F7200
G1 X90.742 Y68.198 E48.4204 F2400
G0 X91.664 Y66.864 F7200
G1 X75.723 Y66.864 E49.2157 F2400
G0 X76.250 Y65.531 F7200
G1 X92.454 Y65.531 E50.0241 F2400
G0 X93.245 Y64.198 F7200
G1 X76.646 Y64.198 E50.8523 F2400
G0 X77.172 Y62.864 F7200
G1 X94.167 Y62.864 E51.7001 F2400
G0 X95.089 Y61.531 F7200
G1 X77.568 Y61.531 E52.5743 F2400
G0 X78.095 Y60.198 F7200
G1 X96.011 Y60.198 E53.4681 F2400
G0 X97.065 Y58.864 F7200
G1 X78.622 Y58.864 E54.3883 F2400
G0 X79.017 Y57.531 F7200
G1 X97.987 Y57.531 E55.3347 F2400
G0 X99.305 Y56.198 F7200
G1 X79.544 Y56.198 E56.3206 F2400
G0 X80.071 Y54.864 F7200
G1 X100.622 Y54.864 E57.3459 F2400
G0 X101.940 Y53.531 F7200
G1 X80.598 Y53.531 E58.4106 F2400
G0 X80.993 Y52.198 F7200
G1 X103.520 Y52.198 E59.5345 F2400
G0 X105.233 Y50.864 F7200
G1 X81.520 Y50.864 E60.7176 F2400
G0 X82.047 Y49.531 F7200
G1 X107.209 Y49.531 E61.9729 F2400
G0 X109.317 Y48.198 F7200
G1 X82.442 Y48.198 E63.3137 F2400
G0 X82.969 Y46.864 F7200
G1 X111.820 Y46.864 E64.7531 F2400
G0 F3000 E63.7531
G0 X114.850 Y45.531 F7200
G0 F3000 E64.7531
G1 X83.496 Y45.531 E66.3174 F2400
G0 X84.023 Y44.198 F7200
G1 X119.066 Y44.198 E68.0657 F2400
G0 F3000 E67.0657
G0 X124.072 Y42.864 F7200
G0 F3000 E68.0657
G1 X84.418 Y42.864 E70.0440 F2400
G0 X84.945 Y41.531 F7200
G1 X131.976 Y41.531 E72.3904 F2400
G0 F3000 E71.3904
G0 X146.336 Y40.198 F7200
G0 F3000 E72.3904
G1 X85.340 Y40.198 E75.4334 F2400
G0 X85.867 Y38.864 F7200
G1 X171.366 Y38.864 E79.6990 F2400
G0 F3000 E78.6990
G0 X199.427 Y37.531 F7200
G0 F3000 E79.6990
G1 X86.394 Y37.531 E85.3382 F2400
G0 X86.789 Y36.198 F7200
G1 X217.607 Y36.198 E91.8647 F2400
G0 F3000 E90.8647
G0 X217.738 Y32.198 F7200
G0 F3000 E91.8647
G1 X88.897 Y32.198 E98.2926 F2400
G0 X87.843 Y33.531 F7200
G1 X218.661 Y33.531 E104.8191 F2400
G1 X218.661 Y34.864 E104.8856
G1 X87.316 Y34.864 E111.4384



; ------------------------------------
; Raft Layer #2
; ------------------------------------
M106 S0 ;turn off fan
G92 E0 ;reset extr
G0 F1200 Z0.900
;segType:Raft
G0 X87.403 Y34.789 F7200
G1 X87.403 Y74.706 E1.9915 F2400
G1 X87.803 Y73.916 E2.0357
G1 X87.803 Y33.735 E4.0403
G1 X88.203 Y32.945 E4.0845
G1 X88.203 Y73.125 E6.0891
G1 X88.603 Y72.466 E6.1275
G1 X88.603 Y32.549 E8.1190
G1 X89.003 Y32.154 E8.1471
G1 X89.003 Y71.676 E10.1188
G1 X89.403 Y70.886 E10.1630
G1 X89.403 Y31.759 E12.1150
G1 X89.803 Y31.759 E12.1350
G1 X89.803 Y70.227 E14.0542
G1 X90.203 Y69.436 E14.0984
G1 X90.203 Y31.759 E15.9781
G1 X90.603 Y31.759 E15.9981
G1 X90.603 Y68.778 E17.8449
G1 X91.003 Y67.987 E17.8891
G1 X91.003 Y31.759 E19.6966
G1 X91.403 Y31.759 E19.7165
G1 X91.403 Y67.460 E21.4977
G1 X91.803 Y66.802 E21.5361
G1 X91.803 Y31.759 E23.2844
G1 X92.203 Y31.759 E23.3044
G1 X92.203 Y66.143 E25.0198
G1 X92.603 Y65.484 E25.0582
G1 X92.603 Y31.759 E26.7408
G1 X93.003 Y31.759 E26.7608
G1 X93.003 Y64.826 E28.4105
G1 X93.403 Y64.167 E28.4489
G1 X93.403 Y31.759 E30.0657
G1 X93.803 Y31.759 E30.0857
G1 X93.803 Y63.508 E31.6697
G1 X94.203 Y62.981 E31.7027
G1 X94.203 Y31.759 E33.2604
G1 X94.603 Y31.759 E33.2803
G1 X94.603 Y62.323 E34.8051
G1 X95.003 Y61.796 E34.8382
G1 X95.003 Y31.759 E36.3367
G1 X95.403 Y31.759 E36.3566
G1 X95.403 Y61.269 E37.8289
G1 X95.803 Y60.742 E37.8619
G1 X95.803 Y31.759 E39.3078
G1 X96.203 Y31.759 E39.3278
G1 X96.203 Y60.215 E40.7475
G1 X96.603 Y59.688 E40.7805
G1 X96.603 Y31.759 E42.1738
G1 X97.003 Y31.759 E42.1938
G1 X97.003 Y59.029 E43.5543
G1 X97.403 Y58.502 E43.5873
G1 X97.403 Y31.759 E44.9215
G1 X97.803 Y31.759 E44.9415
G1 X97.803 Y57.975 E46.2494
G1 X98.203 Y57.448 E46.2824
G1 X98.203 Y31.759 E47.5640
G1 X98.603 Y31.759 E47.5840
G1 X98.603 Y57.053 E48.8459
G1 X99.003 Y56.658 E48.8740
G1 X99.003 Y31.759 E50.1162
G1 X99.403 Y31.759 E50.1361
G1 X99.403 Y56.262 E51.3586
G1 X99.803 Y55.736 E51.3916
G1 X99.803 Y31.759 E52.5878
G1 X100.203 Y31.759 E52.6078
G1 X100.203 Y55.340 E53.7843
G1 X100.603 Y54.945 E53.8123
G1 X100.603 Y31.759 E54.9691
G1 X101.003 Y31.759 E54.9890
G1 X101.003 Y54.418 E56.1195
G1 X101.403 Y54.155 E56.1434
G1 X101.403 Y31.759 E57.2607
G1 X101.803 Y31.759 E57.2807
G1 X101.803 Y53.759 E58.3783
G1 X102.203 Y53.496 E58.4022
G1 X102.203 Y31.759 E59.4866
G1 X102.603 Y31.759 E59.5066
G1 X102.603 Y53.101 E60.5713
G1 X103.003 Y52.837 E60.5952
G1 X103.003 Y31.759 E61.6468
G1 X103.403 Y31.759 E61.6668
G1 X103.403 Y52.442 E62.6987
G1 X103.803 Y52.047 E62.7267
G1 X103.803 Y31.759 E63.7389
G1 X104.203 Y31.759 E63.7589
G1 X104.203 Y51.783 E64.7579
G1 X104.603 Y51.388 E64.7859
G1 X104.603 Y31.759 E65.7652
G1 X105.003 Y31.759 E65.7852
G1 X105.003 Y51.125 E66.7513
G1 X105.403 Y50.861 E66.7752
G1 X105.403 Y31.759 E67.7283
G1 X105.803 Y31.759 E67.7482
G1 X105.803 Y50.598 E68.6881
G1 X106.203 Y50.334 E68.7120
G1 X106.203 Y31.759 E69.6387
G1 X106.603 Y31.759 E69.6587
G1 X106.603 Y50.071 E70.5722
G1 X107.003 Y49.807 E70.5961
G1 X107.003 Y31.759 E71.4966
G1 X107.403 Y31.759 E71.5165
G1 X107.403 Y49.544 E72.4038
G1 X107.803 Y49.149 E72.4319
G1 X107.803 Y31.759 E73.2994
G1 X108.203 Y31.759 E73.3194
G1 X108.203 Y48.885 E74.1738
G1 X108.603 Y48.622 E74.1977
G1 X108.603 Y31.759 E75.0390
G1 X109.003 Y31.759 E75.0590
G1 X109.003 Y48.490 E75.8937
G1 X109.403 Y48.226 E75.9176
G1 X109.403 Y31.759 E76.7391
G1 X109.803 Y31.759 E76.7591
G1 X109.803 Y48.095 E77.5741
G1 X110.203 Y47.831 E77.5980
G1 X110.203 Y31.759 E78.3998
G1 X110.603 Y31.759 E78.4198
G1 X110.603 Y47.568 E79.2085
G1 X111.003 Y47.436 E79.2295
G1 X111.003 Y31.759 E80.0116
G1 X111.403 Y31.759 E80.0316
G1 X111.403 Y47.172 E80.8006
G1 X111.803 Y47.041 E80.8216
G1 X111.803 Y31.759 E81.5840
G1 X112.203 Y31.759 E81.6039
G1 X112.203 Y46.777 E82.3532
G1 X112.603 Y46.646 E82.3742
G1 X112.603 Y31.759 E83.1169
G1 X113.003 Y31.759 E83.1369
G1 X113.003 Y46.382 E83.8664
G1 X113.403 Y46.250 E83.8874
G1 X113.403 Y31.759 E84.6104
G1 X113.803 Y31.759 E84.6304
G1 X113.803 Y46.119 E85.3468
G1 X114.203 Y45.987 E85.3678
G1 X114.203 Y31.759 E86.0776
G1 X114.603 Y31.759 E86.0976
G1 X114.603 Y45.855 E86.8008
G1 X115.003 Y45.592 E86.8247
G1 X115.003 Y31.759 E87.5148
G1 X115.403 Y31.759 E87.5348
G1 X115.403 Y45.460 E88.2183
G1 X115.803 Y45.328 E88.2393
G1 X115.803 Y31.759 E88.9163
G1 X116.203 Y31.759 E88.9363
G1 X116.203 Y45.196 E89.6067
G1 X116.603 Y45.065 E89.6277
G1 X116.603 Y31.759 E90.2915
G1 X117.003 Y31.759 E90.3115
G1 X117.003 Y44.933 E90.9687
G1 X117.403 Y44.669 E90.9926
G1 X117.403 Y31.759 E91.6367
G1 X117.803 Y31.759 E91.6567
G1 X117.803 Y44.538 E92.2942
G1 X118.203 Y44.538 E92.3142
G1 X118.203 Y31.759 E92.9517
G1 X118.603 Y31.759 E92.9717
G1 X118.603 Y44.406 E93.6026
G1 X119.003 Y44.274 E93.6236
G1 X119.003 Y31.759 E94.2480
G1 X119.403 Y31.759 E94.2680
G1 X119.403 Y44.142 E94.8858
G1 X119.803 Y44.011 E94.9068
G1 X119.803 Y31.759 E95.5180
G1 X120.203 Y31.759 E95.5380
G1 X120.203 Y43.879 E96.1427
G1 X120.603 Y43.747 E96.1637
G1 X120.603 Y31.759 E96.7618
G1 X121.003 Y31.759 E96.7817
G1 X121.003 Y43.616 E97.3733
G1 X121.403 Y43.484 E97.3943
G1 X121.403 Y31.759 E97.9792
G1 X121.803 Y31.759 E97.9992
G1 X121.803 Y43.484 E98.5841
G1 X122.203 Y43.352 E98.6052
G1 X122.203 Y31.759 E99.1835
G1 X122.603 Y31.759 E99.2035
G1 X122.603 Y43.220 E99.7753
G1 X123.003 Y43.089 E99.7963
G1 X123.003 Y31.759 E100.3616
G1 X123.403 Y31.759 E100.3815
G1 X123.403 Y43.089 E100.9467
G1 X123.803 Y42.957 E100.9678
G1 X123.803 Y31.759 E101.5264
G1 X124.203 Y31.759 E101.5464
G1 X124.203 Y42.825 E102.0985
G1 X124.603 Y42.825 E102.1184
G1 X124.603 Y31.759 E102.6705
G1 X125.003 Y31.759 E102.6905
G1 X125.003 Y42.693 E103.2360
G1 X125.403 Y42.693 E103.2560
G1 X125.403 Y31.759 E103.8015
G1 X125.803 Y31.759 E103.8214
G1 X125.803 Y42.562 E104.3604
G1 X126.203 Y42.430 E104.3814
G1 X126.203 Y31.759 E104.9138
G1 X126.603 Y31.759 E104.9337
G1 X126.603 Y42.430 E105.4661
G1 X127.003 Y42.298 E105.4871
G1 X127.003 Y31.759 E106.0129
G1 X127.403 Y31.759 E106.0329
G1 X127.403 Y42.298 E106.5587
G1 X127.803 Y42.166 E106.5797
G1 X127.803 Y31.759 E107.0989
G1 X128.203 Y31.759 E107.1189
G1 X128.203 Y42.035 E107.6315
G1 X128.603 Y42.035 E107.6515
G1 X128.603 Y31.759 E108.1641
G1 X129.003 Y31.759 E108.1841
G1 X129.003 Y42.035 E108.6968
G1 X129.403 Y41.903 E108.7178
G1 X129.403 Y31.759 E109.2239
G1 X129.803 Y31.759 E109.2438
G1 X129.803 Y41.903 E109.7499
G1 X130.203 Y41.771 E109.7709
G1 X130.203 Y31.759 E110.2704
G1 X130.603 Y31.759 E110.2904
G1 X130.603 Y41.771 E110.7899
G1 X131.003 Y41.639 E110.8109
G1 X131.003 Y31.759 E111.3038
G1 X131.403 Y31.759 E111.3238
G1 X131.403 Y41.639 E111.8167
G1 X131.803 Y41.639 E111.8367
G1 X131.803 Y31.759 E112.3296
G1 X132.203 Y31.759 E112.3496
G1 X132.203 Y41.508 E112.8359
G1 X132.603 Y41.508 E112.8559
G1 X132.603 Y31.759 E113.3423
G1 X133.003 Y31.759 E113.3622
G1 X133.003 Y41.508 E113.8486
G1 X133.403 Y41.376 E113.8696
G1 X133.403 Y31.759 E114.3494
G1 X133.803 Y31.759 E114.3694
G1 X133.803 Y41.376 E114.8491
G1 X134.203 Y41.244 E114.8702
G1 X134.203 Y31.759 E115.3434
G1 X134.603 Y31.759 E115.3633
G1 X134.603 Y41.244 E115.8366
G1 X135.003 Y41.244 E115.8565
G1 X135.003 Y31.759 E116.3297
G1 X135.403 Y31.759 E116.3497
G1 X135.403 Y41.112 E116.8163
G1 X135.803 Y41.112 E116.8363
G1 X135.803 Y31.759 E117.3029
G1 X136.203 Y31.759 E117.3229
G1 X136.203 Y41.112 E117.7895
G1 X136.603 Y40.981 E117.8106
G1 X136.603 Y31.759 E118.2706
G1 X137.003 Y31.759 E118.2906
G1 X137.003 Y40.981 E118.7507
G1 X137.403 Y40.981 E118.7706
G1 X137.403 Y31.759 E119.2307
G1 X137.803 Y31.759 E119.2507
G1 X137.803 Y40.849 E119.7042
G1 X138.203 Y40.849 E119.7241
G1 X138.203 Y31.759 E120.1776
G1 X138.603 Y31.759 E120.1976
G1 X138.603 Y40.849 E120.6511
G1 X139.003 Y40.849 E120.6710
G1 X139.003 Y31.759 E121.1246
G1 X139.403 Y31.759 E121.1445
G1 X139.403 Y40.849 E121.5980
G1 X139.803 Y40.717 E121.6190
G1 X139.803 Y31.759 E122.0660
G1 X140.203 Y31.759 E122.0859
G1 X140.203 Y40.717 E122.5329
G1 X140.603 Y40.717 E122.5528
G1 X140.603 Y31.759 E122.9997
G1 X141.003 Y31.759 E123.0197
G1 X141.003 Y40.717 E123.4666
G1 X141.403 Y40.586 E123.4876
G1 X141.403 Y31.759 E123.9280
G1 X141.803 Y31.759 E123.9480
G1 X141.803 Y40.586 E124.3883
G1 X142.203 Y40.586 E124.4083
G1 X142.203 Y31.759 E124.8486
G1 X142.603 Y31.759 E124.8686
G1 X142.603 Y40.586 E125.3090
G1 X143.003 Y40.454 E125.3300
G1 X143.003 Y31.759 E125.7638
G1 X143.403 Y31.759 E125.7837
G1 X143.403 Y40.454 E126.2175
G1 X143.803 Y40.454 E126.2375
G1 X143.803 Y31.759 E126.6712
G1 X144.203 Y31.759 E126.6912
G1 X144.203 Y40.454 E127.1250
G1 X144.603 Y40.454 E127.1449
G1 X144.603 Y31.759 E127.5787
G1 X145.003 Y31.759 E127.5987
G1 X145.003 Y40.322 E128.0259
G1 X145.403 Y40.322 E128.0459
G1 X145.403 Y31.759 E128.4731
G1 X145.803 Y31.759 E128.4930
G1 X145.803 Y40.322 E128.9202
G1 X146.203 Y40.322 E128.9402
G1 X146.203 Y31.759 E129.3674
G1 X146.603 Y31.759 E129.3874
G1 X146.603 Y40.190 E129.8080
G1 X147.003 Y40.190 E129.8280
G1 X147.003 Y31.759 E130.2486
G1 X147.403 Y31.759 E130.2686
G1 X147.403 Y40.190 E130.6892
G1 X147.803 Y40.190 E130.7092
G1 X147.803 Y31.759 E131.1298
G1 X148.203 Y31.759 E131.1498
G1 X148.203 Y40.190 E131.5704
G1 X148.603 Y40.059 E131.5914
G1 X148.603 Y31.759 E132.0055
G1 X149.003 Y31.759 E132.0254
G1 X149.003 Y40.059 E132.4395
G1 X149.403 Y40.059 E132.4595
G1 X149.403 Y31.759 E132.8735
G1 X149.803 Y31.759 E132.8935
G1 X149.803 Y40.059 E133.3075
G1 X150.203 Y40.059 E133.3275
G1 X150.203 Y31.759 E133.7416
G1 X150.603 Y31.759 E133.7615
G1 X150.603 Y40.059 E134.1756
G1 X151.003 Y40.059 E134.1955
G1 X151.003 Y31.759 E134.6096
G1 X151.403 Y31.759 E134.6296
G1 X151.403 Y39.927 E135.0371
G1 X151.803 Y39.927 E135.0570
G1 X151.803 Y31.759 E135.4645
G1 X152.203 Y31.759 E135.4845
G1 X152.203 Y39.927 E135.8920
G1 X152.603 Y39.927 E135.9119
G1 X152.603 Y31.759 E136.3194
G1 X153.003 Y31.759 E136.3394
G1 X153.003 Y39.927 E136.7469
G1 X153.403 Y39.795 E136.7679
G1 X153.403 Y31.759 E137.1688
G1 X153.803 Y31.759 E137.1888
G1 X153.803 Y39.795 E137.5897
G1 X154.203 Y39.795 E137.6097
G1 X154.203 Y31.759 E138.0106
G1 X154.603 Y31.759 E138.0306
G1 X154.603 Y39.795 E138.4315
G1 X155.003 Y39.795 E138.4515
G1 X155.003 Y31.759 E138.8524
G1 X155.403 Y31.759 E138.8723
G1 X155.403 Y39.795 E139.2733
G1 X155.803 Y39.795 E139.2932
G1 X155.803 Y31.759 E139.6941
G1 X156.203 Y31.759 E139.7141
G1 X156.203 Y39.663 E140.1085
G1 X156.603 Y39.663 E140.1284
G1 X156.603 Y31.759 E140.5228
G1 X157.003 Y31.759 E140.5427
G1 X157.003 Y39.663 E140.9371
G1 X157.403 Y39.663 E140.9570
G1 X157.403 Y31.759 E141.3514
G1 X157.804 Y31.759 E141.3713
G1 X157.804 Y39.663 E141.7657
G1 X158.203 Y39.663 E141.7856
G1 X158.203 Y31.759 E142.1800
G1 X158.603 Y31.759 E142.1999
G1 X158.603 Y39.663 E142.5943
G1 X159.004 Y39.532 E142.6153
G1 X159.004 Y31.759 E143.0031
G1 X159.404 Y31.759 E143.0230
G1 X159.404 Y39.532 E143.4108
G1 X159.804 Y39.532 E143.4308
G1 X159.804 Y31.759 E143.8185
G1 X160.203 Y31.759 E143.8385
G1 X160.203 Y39.532 E144.2263
G1 X160.604 Y39.532 E144.2462
G1 X160.604 Y31.759 E144.6340
G1 X161.004 Y31.759 E144.6540
G1 X161.004 Y39.532 E145.0417
G1 X161.404 Y39.400 E145.0627
G1 X161.404 Y31.759 E145.4439
G1 X161.804 Y31.759 E145.4639
G1 X161.804 Y39.400 E145.8451
G1 X162.204 Y39.400 E145.8651
G1 X162.204 Y31.759 E146.2463
G1 X162.604 Y31.759 E146.2662
G1 X162.604 Y39.400 E146.6475
G1 X163.004 Y39.400 E146.6674
G1 X163.004 Y31.759 E147.0486
G1 X163.404 Y31.759 E147.0686
G1 X163.404 Y39.400 E147.4498
G1 X163.804 Y39.268 E147.4708
G1 X163.804 Y31.759 E147.8454
G1 X164.204 Y31.759 E147.8654
G1 X164.204 Y39.268 E148.2400
G1 X164.604 Y39.268 E148.2600
G1 X164.604 Y31.759 E148.6346
G1 X165.004 Y31.759 E148.6546
G1 X165.004 Y39.268 E149.0292
G1 X165.404 Y39.268 E149.0492
G1 X165.404 Y31.759 E149.4238
G1 X165.804 Y31.759 E149.4438
G1 X165.804 Y39.268 E149.8184
G1 X166.204 Y39.268 E149.8384
G1 X166.204 Y31.759 E150.2130
G1 X166.604 Y31.759 E150.2329
G1 X166.604 Y39.136 E150.6010
G1 X167.004 Y39.136 E150.6210
G1 X167.004 Y31.759 E150.9890
G1 X167.404 Y31.759 E151.0090
G1 X167.404 Y39.136 E151.3770
G1 X167.804 Y39.136 E151.3970
G1 X167.804 Y31.759 E151.7651
G1 X168.204 Y31.759 E151.7850
G1 X168.204 Y39.136 E152.1531
G1 X168.604 Y39.136 E152.1730
G1 X168.604 Y31.759 E152.5411
G1 X169.004 Y31.759 E152.5610
G1 X169.004 Y39.005 E152.9225
G1 X169.404 Y39.005 E152.9425
G1 X169.404 Y31.759 E153.3040
G1 X169.804 Y31.759 E153.3239
G1 X169.804 Y39.005 E153.6854
G1 X170.204 Y39.005 E153.7054
G1 X170.204 Y31.759 E154.0668
G1 X170.604 Y31.759 E154.0868
G1 X170.604 Y39.005 E154.4483
G1 X171.004 Y39.005 E154.4682
G1 X171.004 Y31.759 E154.8297
G1 X171.404 Y31.759 E154.8497
G1 X171.404 Y39.005 E155.2112
G1 X171.804 Y38.873 E155.2322
G1 X171.804 Y31.759 E155.5871
G1 X172.204 Y31.759 E155.6070
G1 X172.204 Y38.873 E155.9620
G1 X172.604 Y38.873 E155.9819
G1 X172.604 Y31.759 E156.3368
G1 X173.004 Y31.759 E156.3568
G1 X173.004 Y38.873 E156.7117
G1 X173.403 Y38.873 E156.7317
G1 X173.403 Y31.759 E157.0866
G1 X173.803 Y31.759 E157.1066
G1 X173.803 Y38.873 E157.4615
G1 X174.203 Y38.741 E157.4825
G1 X174.203 Y31.759 E157.8308
G1 X174.603 Y31.759 E157.8508
G1 X174.603 Y38.741 E158.1991
G1 X175.003 Y38.741 E158.2191
G1 X175.003 Y31.759 E158.5674
G1 X175.403 Y31.759 E158.5874
G1 X175.403 Y38.741 E158.9357
G1 X175.803 Y38.741 E158.9557
G1 X175.803 Y31.759 E159.3040
G1 X176.203 Y31.759 E159.3240
G1 X176.203 Y38.741 E159.6723
G1 X176.603 Y38.609 E159.6934
G1 X176.603 Y31.759 E160.0351
G1 X177.003 Y31.759 E160.0551
G1 X177.003 Y38.609 E160.3968
G1 X177.403 Y38.609 E160.4168
G1 X177.403 Y31.759 E160.7586
G1 X177.803 Y31.759 E160.7785
G1 X177.803 Y38.609 E161.1203
G1 X178.203 Y38.609 E161.1402
G1 X178.203 Y31.759 E161.4820
G1 X178.603 Y31.759 E161.5020
G1 X178.603 Y38.609 E161.8437
G1 X179.003 Y38.609 E161.8637
G1 X179.003 Y31.759 E162.2055
G1 X179.403 Y31.759 E162.2254
G1 X179.403 Y38.478 E162.5606
G1 X179.803 Y38.478 E162.5806
G1 X179.803 Y31.759 E162.9158
G1 X180.203 Y31.759 E162.9358
G1 X180.203 Y38.478 E163.2710
G1 X180.603 Y38.478 E163.2909
G1 X180.603 Y31.759 E163.6261
G1 X181.003 Y31.759 E163.6461
G1 X181.003 Y38.478 E163.9813
G1 X181.403 Y38.478 E164.0012
G1 X181.403 Y31.759 E164.3364
G1 X181.803 Y31.759 E164.3564
G1 X181.803 Y38.478 E164.6916
G1 X182.203 Y38.478 E164.7116
G1 X182.203 Y31.759 E165.0468
G1 X182.603 Y31.759 E165.0667
G1 X182.603 Y38.478 E165.4019
G1 X183.003 Y38.478 E165.4219
G1 X183.003 Y31.759 E165.7571
G1 X183.403 Y31.759 E165.7771
G1 X183.403 Y38.478 E166.1123
G1 X183.803 Y38.478 E166.1322
G1 X183.803 Y31.759 E166.4674
G1 X184.203 Y31.759 E166.4874
G1 X184.203 Y38.478 E166.8226
G1 X184.603 Y38.478 E166.8426
G1 X184.603 Y31.759 E167.1778
G1 X185.003 Y31.759 E167.1977
G1 X185.003 Y38.478 E167.5329
G1 X185.403 Y38.478 E167.5529
G1 X185.403 Y31.759 E167.8881
G1 X185.803 Y31.759 E167.9080
G1 X185.803 Y38.478 E168.2432
G1 X186.203 Y38.346 E168.2643
G1 X186.203 Y31.759 E168.5929
G1 X186.603 Y31.759 E168.6128
G1 X186.603 Y38.346 E168.9415
G1 X187.003 Y38.346 E168.9614
G1 X187.003 Y31.759 E169.2901
G1 X187.403 Y31.759 E169.3100
G1 X187.403 Y38.346 E169.6386
G1 X187.803 Y38.346 E169.6586
G1 X187.803 Y31.759 E169.9872
G1 X188.203 Y31.759 E170.0072
G1 X188.203 Y38.346 E170.3358
G1 X188.603 Y38.214 E170.3568
G1 X188.603 Y31.759 E170.6789
G1 X189.003 Y31.759 E170.6988
G1 X189.003 Y38.214 E171.0209
G1 X189.403 Y38.214 E171.0409
G1 X189.403 Y31.759 E171.3629
G1 X189.803 Y31.759 E171.3829
G1 X189.803 Y38.214 E171.7049
G1 X190.203 Y38.214 E171.7249
G1 X190.203 Y31.759 E172.0469
G1 X190.603 Y31.759 E172.0669
G1 X190.603 Y38.082 E172.3824
G1 X191.003 Y38.082 E172.4023
G1 X191.003 Y31.759 E172.7178
G1 X191.403 Y31.759 E172.7378
G1 X191.403 Y38.082 E173.0532
G1 X191.803 Y38.082 E173.0732
G1 X191.803 Y31.759 E173.3887
G1 X192.203 Y31.759 E173.4086
G1 X192.203 Y38.082 E173.7241
G1 X192.603 Y38.082 E173.7441
G1 X192.603 Y31.759 E174.0595
G1 X193.003 Y31.759 E174.0795
G1 X193.003 Y37.951 E174.3884
G1 X193.403 Y37.951 E174.4084
G1 X193.403 Y31.759 E174.7173
G1 X193.803 Y31.759 E174.7372
G1 X193.803 Y37.951 E175.0461
G1 X194.203 Y37.951 E175.0661
G1 X194.203 Y31.759 E175.3750
G1 X194.603 Y31.759 E175.3950
G1 X194.603 Y37.951 E175.7039
G1 X195.003 Y37.951 E175.7239
G1 X195.003 Y31.759 E176.0328
G1 X195.403 Y31.759 E176.0527
G1 X195.403 Y37.819 E176.3551
G1 X195.803 Y37.819 E176.3750
G1 X195.803 Y31.759 E176.6774
G1 X196.203 Y31.759 E176.6973
G1 X196.203 Y37.819 E176.9997
G1 X196.603 Y37.819 E177.0196
G1 X196.603 Y31.759 E177.3220
G1 X197.003 Y31.759 E177.3419
G1 X197.003 Y37.819 E177.6442
G1 X197.403 Y37.687 E177.6653
G1 X197.403 Y31.759 E177.9610
G1 X197.803 Y31.759 E177.9810
G1 X197.803 Y37.687 E178.2767
G1 X198.203 Y37.687 E178.2967
G1 X198.203 Y31.759 E178.5925
G1 X198.603 Y31.759 E178.6124
G1 X198.603 Y37.687 E178.9082
G1 X199.003 Y37.687 E178.9281
G1 X199.003 Y31.759 E179.2239
G1 X199.403 Y31.759 E179.2439
G1 X199.403 Y37.687 E179.5396
G1 X199.803 Y37.555 E179.5606
G1 X199.803 Y31.759 E179.8498
G1 X200.203 Y31.759 E179.8698
G1 X200.203 Y37.555 E180.1590
G1 X200.603 Y37.555 E180.1789
G1 X200.603 Y31.759 E180.4681
G1 X201.003 Y31.759 E180.4881
G1 X201.003 Y37.555 E180.7772
G1 X201.403 Y37.555 E180.7972
G1 X201.403 Y31.759 E181.0864
G1 X201.803 Y31.759 E181.1063
G1 X201.803 Y37.424 E181.3890
G1 X202.203 Y37.424 E181.4089
G1 X202.203 Y31.759 E181.6915
G1 X202.603 Y31.759 E181.7115
G1 X202.603 Y37.424 E181.9941
G1 X203.003 Y37.424 E182.0141
G1 X203.003 Y31.759 E182.2967
G1 X203.403 Y31.759 E182.3167
G1 X203.403 Y37.424 E182.5993
G1 X203.803 Y37.424 E182.6193
G1 X203.803 Y31.759 E182.9019
G1 X204.203 Y31.759 E182.9218
G1 X204.203 Y37.292 E183.1979
G1 X204.603 Y37.292 E183.2178
G1 X204.603 Y31.759 E183.4939
G1 X205.003 Y31.759 E183.5138
G1 X205.003 Y37.292 E183.7899
G1 X205.403 Y37.292 E183.8099
G1 X205.403 Y31.759 E184.0859
G1 X205.803 Y31.759 E184.1059
G1 X205.803 Y37.292 E184.3819
G1 X206.203 Y37.292 E184.4019
G1 X206.203 Y31.759 E184.6779
G1 X206.603 Y31.759 E184.6979
G1 X206.603 Y37.160 E184.9673
G1 X207.003 Y37.160 E184.9873
G1 X207.003 Y31.759 E185.2568
G1 X207.403 Y31.759 E185.2767
G1 X207.403 Y37.160 E185.5462
G1 X207.803 Y37.160 E185.5662
G1 X207.803 Y31.759 E185.8356
G1 X208.203 Y31.759 E185.8556
G1 X208.203 Y37.160 E186.1251
G1 X208.603 Y37.029 E186.1461
G1 X208.603 Y31.759 E186.4090
G1 X209.003 Y31.759 E186.4289
G1 X209.003 Y37.029 E186.6918
G1 X209.403 Y37.029 E186.7118
G1 X209.403 Y31.759 E186.9747
G1 X209.803 Y31.759 E186.9946
G1 X209.803 Y37.029 E187.2575
G1 X210.203 Y37.029 E187.2775
G1 X210.203 Y31.759 E187.5404
G1 X210.603 Y31.759 E187.5603
G1 X210.603 Y37.029 E187.8232
G1 X211.003 Y36.897 E187.8442
G1 X211.003 Y31.759 E188.1006
G1 X211.403 Y31.759 E188.1205
G1 X211.403 Y36.897 E188.3769
G1 X211.803 Y36.897 E188.3968
G1 X211.803 Y31.759 E188.6531
G1 X212.203 Y31.759 E188.6731
G1 X212.203 Y36.897 E188.9294
G1 X212.603 Y36.897 E188.9494
G1 X212.603 Y31.759 E189.2057
G1 X213.003 Y31.759 E189.2257
G1 X213.003 Y36.765 E189.4754
G1 X213.403 Y36.765 E189.4954
G1 X213.403 Y31.759 E189.7452
G1 X213.803 Y31.759 E189.7651
G1 X213.803 Y36.765 E190.0149
G1 X214.203 Y36.765 E190.0348
G1 X214.203 Y31.759 E190.2846
G1 X214.603 Y31.759 E190.3045
G1 X214.603 Y36.765 E190.5543
G1 X215.003 Y36.765 E190.5743
G1 X215.003 Y31.759 E190.8240
G1 X215.403 Y31.759 E190.8440
G1 X215.403 Y36.633 E191.0871
G1 X215.803 Y36.633 E191.1071
G1 X215.803 Y31.759 E191.3503
G1 X216.203 Y31.759 E191.3702
G1 X216.203 Y36.633 E191.6134
G1 X216.603 Y36.633 E191.6334
G1 X216.603 Y31.759 E191.8766
G1 X217.003 Y31.759 E191.8965
G1 X217.003 Y36.633 E192.1397
G1 X217.403 Y36.633 E192.1597
G1 X217.403 Y31.759 E192.4028
G1 X217.803 Y32.154 E192.4309
G1 X217.803 Y36.238 E192.6346
G1 X218.203 Y35.711 E192.6677
G1 X218.203 Y32.681 E192.8188
G1 X218.603 Y33.076 E192.8469
G1 X218.603 Y35.316 E192.9586
G0 F3000 E191.9586
G0 X87.003 Y35.843 F7200
G0 F3000 E192.9586
G1 X87.003 Y75.365 E194.9304 F2400
G1 X86.603 Y76.155 E194.9746
G1 X86.603 Y37.029 E196.9266
G0 X86.203 Y38.082 F7200
G1 X86.203 Y77.077 E198.8721 F2400
G1 X85.803 Y77.868 E198.9163
G1 X85.803 Y39.136 E200.8486
G0 X85.403 Y40.586 F7200
G1 X85.403 Y79.053 E202.7678 F2400
G1 X85.003 Y79.844 E202.8119
G1 X85.003 Y41.639 E204.7180
G0 X84.603 Y42.825 F7200
G1 X84.603 Y80.766 E206.6108 F2400
G1 X84.203 Y81.556 E206.6551
G1 X84.203 Y43.879 E208.5348
G0 X83.803 Y44.933 F7200
G1 X83.803 Y82.479 E210.4080 F2400
G1 X83.403 Y83.269 E210.4521
G1 X83.403 Y45.987 E212.3122
G0 X83.003 Y47.172 F7200
G1 X83.003 Y84.060 E214.1525 F2400
G1 X82.603 Y84.982 E214.2026
G1 X82.603 Y48.226 E216.0363
G0 X82.203 Y49.280 F7200
G1 X82.203 Y85.904 E217.8635 F2400
G1 X81.803 Y86.826 E217.9137
G1 X81.803 Y50.334 E219.7343
G0 X81.403 Y51.388 F7200
G1 X81.403 Y87.880 E221.5548 F2400
G0 F3000 E220.5548
G0 X79.403 Y92.623 F7200
G0 F3000 E221.5548
G1 X79.403 Y56.921 E223.3360 F2400
G0 X79.003 Y57.975 F7200
G1 X79.003 Y93.545 E225.1106 F2400
G1 X78.603 Y94.467 E225.1607
G1 X78.603 Y59.029 E226.9287
G0 X78.203 Y60.083 F7200
G1 X78.203 Y95.389 E228.6902 F2400
G1 X77.803 Y96.311 E228.7403
G1 X77.803 Y61.269 E230.4886
G0 X77.403 Y62.323 F7200
G1 X77.403 Y97.365 E232.2369 F2400
G0 F3000 E231.2369
G0 X76.203 Y100.395 F7200
G0 F3000 E232.2369
G1 X76.203 Y65.616 E233.9720 F2400
G0 X75.803 Y66.670 F7200
G1 X75.803 Y101.449 E235.7072 F2400
G0 F3000 E234.7072
G0 X73.803 Y106.850 F7200
G0 F3000 E235.7072
G1 X73.803 Y72.466 E237.4226 F2400
G0 X73.403 Y73.520 F7200
G1 X73.403 Y107.904 E239.1380 F2400
G0 F3000 E238.1380
G0 X72.203 Y110.934 F7200
G0 F3000 E239.1380
G1 X72.203 Y76.814 E240.8403 F2400
G0 X71.803 Y77.868 F7200
G1 X71.803 Y111.988 E242.5426 F2400
G0 X71.403 Y113.042 F7200
G1 X71.403 Y78.922 E244.2449 F2400
G0 X71.003 Y80.107 F7200
G1 X71.003 Y114.096 E245.9406 F2400
G0 X70.603 Y115.150 F7200
G1 X70.603 Y81.161 E247.6363 F2400
G0 X70.203 Y82.215 F7200
G1 X70.203 Y116.204 E249.3320 F2400
G0 X69.803 Y117.390 F7200
G1 X69.803 Y83.269 E251.0343 F2400
G0 X69.403 Y84.323 F7200
G1 X69.403 Y118.444 E252.7366 F2400
G0 X69.003 Y119.497 F7200
G1 X69.003 Y85.509 E254.4323 F2400
G0 X68.603 Y86.563 F7200
G1 X68.603 Y120.551 E256.1280 F2400
G0 X68.203 Y121.605 F7200
G1 X68.203 Y87.616 E257.8237 F2400
G0 X67.803 Y88.670 F7200
G1 X67.803 Y122.659 E259.5194 F2400
G0 X67.403 Y123.713 F7200
G1 X67.403 Y89.856 E261.2085 F2400
G0 X67.003 Y90.910 F7200
G1 X67.003 Y124.899 E262.9042 F2400
G0 X66.603 Y125.953 F7200
G1 X66.603 Y91.964 E264.6000 F2400
G0 X66.203 Y93.018 F7200
G1 X66.203 Y127.007 E266.2957 F2400
G0 X65.803 Y128.061 F7200
G1 X65.803 Y94.203 E267.9848 F2400
G0 X65.403 Y95.257 F7200
G1 X65.403 Y129.114 E269.6740 F2400
G0 X65.003 Y130.168 F7200
G1 X65.003 Y96.311 E271.3631 F2400
G0 X64.603 Y97.365 F7200
G1 X64.603 Y131.354 E273.0588 F2400
G0 X64.203 Y132.408 F7200
G1 X64.203 Y98.551 E274.7480 F2400
G0 X63.803 Y99.605 F7200
G1 X63.803 Y133.462 E276.4371 F2400
G0 X63.403 Y134.911 F7200
G1 X63.403 Y101.054 E278.1263 F2400
G0 X63.003 Y102.108 F7200
G1 X63.003 Y135.965 E279.8154 F2400
G0 X62.603 Y137.019 F7200
G1 X62.603 Y103.162 E281.5046 F2400
G0 X62.203 Y104.347 F7200
G1 X62.203 Y138.073 E283.1871 F2400
G0 X61.803 Y139.127 F7200
G1 X61.803 Y105.401 E284.8697 F2400
G0 X61.403 Y106.455 F7200
G1 X61.403 Y140.181 E286.5522 F2400
G0 X61.003 Y141.366 F7200
G1 X61.003 Y107.509 E288.2414 F2400
G0 X60.603 Y108.695 F7200
G1 X60.603 Y142.420 E289.9239 F2400
G0 X60.203 Y143.474 F7200
G1 X60.203 Y109.749 E291.6065 F2400
G0 X59.803 Y110.803 F7200
G1 X59.803 Y144.528 E293.2890 F2400
G0 X59.403 Y145.582 F7200
G1 X59.403 Y111.857 E294.9716 F2400
G0 X59.003 Y112.910 F7200
G1 X59.003 Y146.768 E296.6607 F2400
G0 X58.603 Y147.821 F7200
G1 X58.603 Y114.096 E298.3433 F2400
G0 X58.203 Y115.150 F7200
G1 X58.203 Y148.875 E300.0259 F2400
G0 X57.803 Y149.929 F7200
G1 X57.803 Y116.204 E301.7084 F2400
G0 X57.403 Y117.258 F7200
G1 X57.403 Y151.115 E303.3976 F2400
G0 X57.003 Y152.169 F7200
G1 X57.003 Y118.444 E305.0801 F2400
G0 X56.603 Y119.497 F7200
G1 X56.603 Y153.223 E306.7627 F2400
G0 X56.203 Y154.277 F7200
G1 X56.203 Y120.551 E308.4452 F2400
G0 X55.803 Y121.605 F7200
G1 X55.803 Y155.462 E310.1344 F2400
G0 X55.403 Y156.516 F7200
G1 X55.403 Y122.791 E311.8169 F2400
G0 X55.003 Y123.845 F7200
G1 X55.003 Y157.570 E313.4995 F2400
G0 X54.603 Y158.624 F7200
G1 X54.603 Y124.899 E315.1820 F2400
G0 X54.203 Y125.953 F7200
G1 X54.203 Y159.810 E316.8712 F2400
G0 X53.803 Y160.864 F7200
G1 X53.803 Y127.138 E318.5538 F2400
G0 X53.403 Y128.192 F7200
G1 X53.403 Y161.918 E320.2363 F2400
G0 X53.003 Y162.971 F7200
G1 X53.003 Y129.246 E321.9189 F2400
G0 X52.603 Y130.300 F7200
G1 X52.603 Y164.157 E323.6080 F2400
G0 X52.203 Y165.606 F7200
G1 X52.203 Y131.749 E325.2972 F2400
G0 X51.803 Y132.935 F7200
G1 X51.803 Y166.660 E326.9797 F2400
G1 X51.403 Y167.319 E327.0182
G1 X51.403 Y133.989 E328.6810
G0 X51.003 Y135.043 F7200
G1 X51.003 Y167.714 E330.3110 F2400
G1 X50.603 Y168.109 E330.3390
G1 X50.603 Y136.097 E331.9361
G0 X50.203 Y137.282 F7200
G1 X50.203 Y168.505 E333.4938 F2400
G1 X49.803 Y168.505 E333.5138
G1 X49.803 Y138.336 E335.0189
G0 X49.403 Y139.390 F7200
G1 X49.403 Y168.505 E336.4714 F2400
G1 X49.003 Y168.505 E336.4913
G1 X49.003 Y140.444 E337.8913
G0 X48.603 Y141.630 F7200
G1 X48.603 Y168.505 E339.2321 F2400
G1 X48.203 Y168.505 E339.2520
G1 X48.203 Y142.684 E340.5402
G0 X47.803 Y143.737 F7200
G1 X47.803 Y168.505 E341.7759 F2400
G1 X47.403 Y168.505 E341.7958
G1 X47.403 Y144.791 E342.9789
G0 X47.003 Y145.845 F7200
G1 X47.003 Y168.505 E344.1093 F2400
G1 X46.603 Y168.505 E344.1293
G1 X46.603 Y147.031 E345.2006
G0 X46.203 Y148.085 F7200
G1 X46.203 Y168.505 E346.2193 F2400
G1 X45.803 Y168.505 E346.2393
G1 X45.803 Y149.139 E347.2055
G0 X45.403 Y150.193 F7200
G1 X45.403 Y168.505 E348.1190 F2400
G1 X45.003 Y168.505 E348.1390
G1 X45.003 Y151.378 E348.9934
G0 X44.603 Y152.432 F7200
G1 X44.603 Y168.505 E349.7953 F2400
G1 X44.203 Y168.505 E349.8152
G1 X44.203 Y153.486 E350.5645
G0 X43.803 Y154.540 F7200
G1 X43.803 Y168.505 E351.2612 F2400
G1 X43.403 Y168.505 E351.2811
G1 X43.403 Y155.726 E351.9187
G0 X43.003 Y156.780 F7200
G1 X43.003 Y168.505 E352.5036 F2400
G1 X42.603 Y168.505 E352.5236
G1 X42.603 Y157.834 E353.0560
G0 X42.203 Y158.888 F7200
G1 X42.203 Y168.505 E353.5358 F2400
G1 X41.803 Y168.505 E353.5557
G1 X41.803 Y160.073 E353.9764
G0 X41.403 Y161.522 F7200
G1 X41.403 Y168.373 E354.3182 F2400
G1 X41.003 Y167.978 E354.3462
G1 X41.003 Y162.576 E354.6157
G0 X40.603 Y163.630 F7200
G1 X40.603 Y167.582 E354.8128 F2400
G1 X40.203 Y167.187 E354.8409
G1 X40.203 Y164.684 E354.9658
G0 F3000 E353.9658
G0 X72.603 Y75.760 F7200
G0 F3000 E354.9658
G1 X72.603 Y109.880 E356.6680 F2400
G1 X73.003 Y108.958 E356.7182
G1 X73.003 Y74.574 E358.4336
G0 F3000 E357.4336
G0 X74.203 Y71.413 F7200
G0 F3000 E358.4336
G1 X74.203 Y105.797 E360.1490 F2400
G1 X74.603 Y104.874 E360.1992
G1 X74.603 Y70.227 E361.9277
G0 X75.003 Y68.778 F7200
G1 X75.003 Y103.425 E363.6563 F2400
G1 X75.403 Y102.503 E363.7065
G1 X75.403 Y67.724 E365.4416
G0 F3000 E364.4416
G0 X76.603 Y64.430 F7200
G0 F3000 E365.4416
G1 X76.603 Y99.341 E367.1833 F2400
G1 X77.003 Y98.419 E367.2334
G1 X77.003 Y63.376 E368.9817
G0 F3000 E367.9817
G0 X79.803 Y55.736 F7200
G0 F3000 E368.9817
G1 X79.803 Y91.569 E370.7695 F2400
G1 X80.203 Y90.646 E370.8196
G1 X80.203 Y54.682 E372.6139
G0 X80.603 Y53.628 F7200
G1 X80.603 Y89.724 E374.4147 F2400
G1 X81.003 Y88.802 E374.4649
G1 X81.003 Y52.574 E376.2723



; ------------------------------------
; Raft Layer #3
; ------------------------------------
M106 S255 ;set fan speed
G92 E0 ;reset extr
G0 F1200 Z1.200
;segType:Raft
G0 F3000 E-1.0000
G0 F1200 Z3.200
G0 X89.293 Y31.797 F7200
G0 F1200 Z1.200
G0 F3000 E0.0000
G1 X217.343 Y31.797 E6.3885 F2400
G1 X217.738 Y32.197 E6.4165
G1 X88.897 Y32.197 E12.8444
G1 X88.502 Y32.597 E12.8725
G1 X218.134 Y32.597 E19.3398
G1 X218.529 Y32.997 E19.3679
G1 X88.107 Y32.997 E25.8747
G1 X87.843 Y33.397 E25.8986
G1 X218.661 Y33.397 E32.4251
G1 X218.661 Y33.797 E32.4450
G1 X87.712 Y33.797 E38.9781
G1 X87.580 Y34.197 E38.9991
G1 X218.661 Y34.197 E45.5388
G1 X218.661 Y34.597 E45.5587
G1 X87.448 Y34.597 E52.1049
G1 X87.316 Y34.997 E52.1259
G1 X218.661 Y34.997 E58.6787
G1 X218.397 Y35.397 E58.7026
G1 X87.185 Y35.397 E65.2489
G1 X86.921 Y35.797 E65.2727
G1 X218.002 Y35.797 E71.8124
G1 X217.607 Y36.197 E71.8404
G1 X86.789 Y36.197 E78.3669
G1 X86.658 Y36.597 E78.3880
G1 X215.104 Y36.597 E84.7961
G0 F3000 E83.7961
G0 X208.385 Y36.997 F7200
G0 F3000 E84.7961
G1 X86.526 Y36.997 E90.8757 F2400
G1 X86.394 Y37.397 E90.8967
G1 X201.666 Y37.397 E96.6477
G0 F3000 E95.6477
G0 X194.948 Y37.797 F7200
G0 F3000 E96.6477
G1 X86.263 Y37.797 E102.0700 F2400
G1 X86.131 Y38.197 E102.0910
G1 X188.229 Y38.197 E107.1847
G0 F3000 E106.1847
G0 X176.504 Y38.597 F7200
G0 F3000 E107.1847
G1 X85.999 Y38.597 E111.7000 F2400
G1 X85.867 Y38.997 E111.7210
G1 X168.731 Y38.997 E115.8551
G0 F3000 E114.8551
G0 X161.091 Y39.397 F7200
G0 F3000 E115.8551
G1 X85.736 Y39.397 E119.6146 F2400
G1 X85.604 Y39.797 E119.6356
G1 X153.318 Y39.797 E123.0139
G0 F3000 E122.0139
G0 X146.336 Y40.197 F7200
G0 F3000 E123.0139
G1 X85.340 Y40.197 E126.0570 F2400
G1 X85.209 Y40.597 E126.0780
G1 X141.066 Y40.597 E128.8647
G0 F3000 E127.8647
G0 X136.192 Y40.997 F7200
G0 F3000 E128.8647
G1 X85.077 Y40.997 E131.4148 F2400
G1 X84.945 Y41.397 E131.4358
G1 X133.030 Y41.397 E133.8348
G0 F3000 E132.8348
G0 X129.868 Y41.797 F7200
G0 F3000 E133.8348
G1 X84.813 Y41.797 E136.0826 F2400
G1 X84.682 Y42.197 E136.1036
G1 X127.365 Y42.197 E138.2331
G0 X125.389 Y42.597 F7200
G1 X84.550 Y42.597 E140.2706 F2400
G1 X84.418 Y42.997 E140.2916
G1 X123.413 Y42.997 E142.2371
G0 X121.832 Y43.397 F7200
G1 X84.286 Y43.397 E144.1102 F2400
G1 X84.155 Y43.797 E144.1312
G1 X120.383 Y43.797 E145.9387
G0 X119.066 Y44.197 F7200
G1 X84.023 Y44.197 E147.6870 F2400
G1 X83.759 Y44.597 E147.7109
G1 X117.616 Y44.597 E149.4000
G0 X116.563 Y44.997 F7200
G1 X83.628 Y44.997 E151.0431 F2400
G1 X83.496 Y45.397 E151.0641
G1 X115.245 Y45.397 E152.6481
G0 X114.191 Y45.797 F7200
G1 X83.364 Y45.797 E154.1861 F2400
G1 X83.232 Y46.197 E154.2071
G1 X113.137 Y46.197 E155.6990
G1 X112.347 Y46.597 E155.7432
G1 X83.101 Y46.597 E157.2023
G1 X82.969 Y46.997 E157.2233
G1 X111.556 Y46.997 E158.6496
G1 X110.766 Y47.397 E158.6938
G1 X82.706 Y47.397 E160.0937
G1 X82.574 Y47.797 E160.1147
G1 X110.107 Y47.797 E161.4884
G1 X109.317 Y48.197 E161.5326
G1 X82.442 Y48.197 E162.8734
G1 X82.310 Y48.597 E162.8944
G1 X108.526 Y48.597 E164.2023
G1 X108.000 Y48.997 E164.2353
G1 X82.179 Y48.997 E165.5235
G1 X82.047 Y49.397 E165.5445
G1 X107.341 Y49.397 E166.8064
G1 X106.814 Y49.797 E166.8394
G1 X81.915 Y49.797 E168.0816
G1 X81.783 Y50.197 E168.1027
G1 X106.155 Y50.197 E169.3186
G1 X105.628 Y50.597 E169.3516
G1 X81.652 Y50.597 E170.5478
G1 X81.520 Y50.997 E170.5688
G1 X104.970 Y50.997 E171.7387
G1 X104.443 Y51.397 E171.7717
G1 X81.256 Y51.397 E172.9285
G1 X81.125 Y51.797 E172.9495
G1 X104.047 Y51.797 E174.0931
G1 X103.520 Y52.197 E174.1261
G1 X80.993 Y52.197 E175.2500
G1 X80.861 Y52.597 E175.2710
G1 X103.125 Y52.597 E176.3818
G1 X102.598 Y52.997 E176.4148
G1 X80.729 Y52.997 E177.5058
G1 X80.598 Y53.397 E177.5268
G1 X102.203 Y53.397 E178.6047
G1 X101.676 Y53.797 E178.6377
G1 X80.466 Y53.797 E179.6959
G1 X80.334 Y54.197 E179.7169
G1 X101.149 Y54.197 E180.7553
G1 X100.754 Y54.597 E180.7834
G1 X80.202 Y54.597 E181.8087
G1 X80.071 Y54.997 E181.8297
G1 X100.490 Y54.997 E182.8485
G1 X100.095 Y55.397 E182.8765
G1 X79.939 Y55.397 E183.8821
G1 X79.676 Y55.797 E183.9060
G1 X99.700 Y55.797 E184.9050
G1 X99.305 Y56.197 E184.9331
G1 X79.544 Y56.197 E185.9190
G1 X79.412 Y56.597 E185.9400
G1 X98.909 Y56.597 E186.9127
G1 X98.514 Y56.997 E186.9408
G1 X79.280 Y56.997 E187.9004
G1 X79.149 Y57.397 E187.9214
G1 X98.119 Y57.397 E188.8678
G1 X97.856 Y57.797 E188.8917
G1 X79.017 Y57.797 E189.8316
G1 X78.885 Y58.197 E189.8526
G1 X97.460 Y58.197 E190.7793
G1 X97.197 Y58.597 E190.8032
G1 X78.622 Y58.597 E191.7299
G1 X78.490 Y58.997 E191.7509
G1 X96.933 Y58.997 E192.6711
G1 X96.670 Y59.397 E192.6950
G1 X78.358 Y59.397 E193.6086
G1 X78.226 Y59.797 E193.6296
G1 X96.275 Y59.797 E194.5300
G1 X96.011 Y60.197 E194.5539
G1 X78.095 Y60.197 E195.4478
G1 X77.963 Y60.597 E195.4688
G1 X95.748 Y60.597 E196.3561
G1 X95.484 Y60.997 E196.3800
G1 X77.831 Y60.997 E197.2607
G1 X77.699 Y61.397 E197.2817
G1 X95.221 Y61.397 E198.1558
G1 X94.826 Y61.797 E198.1839
G1 X77.568 Y61.797 E199.0449
G1 X77.436 Y62.197 E199.0659
G1 X94.562 Y62.197 E199.9203
G1 X94.299 Y62.597 E199.9442
G1 X77.304 Y62.597 E200.7921
G1 X77.041 Y62.997 E200.8160
G1 X94.035 Y62.997 E201.6638
G1 X93.772 Y63.397 E201.6877
G1 X76.909 Y63.397 E202.5290
G1 X76.777 Y63.797 E202.5500
G1 X93.508 Y63.797 E203.3847
G1 X93.245 Y64.197 E203.4086
G1 X76.646 Y64.197 E204.2367
G1 X76.514 Y64.597 E204.2578
G1 X93.113 Y64.597 E205.0859
G1 X92.849 Y64.997 E205.1098
G1 X76.382 Y64.997 E205.9314
G1 X76.250 Y65.397 E205.9524
G1 X92.586 Y65.397 E206.7674
G1 X92.323 Y65.797 E206.7913
G1 X76.119 Y65.797 E207.5997
G1 X75.987 Y66.197 E207.6207
G1 X92.059 Y66.197 E208.4225
G1 X91.796 Y66.597 E208.4464
G1 X75.855 Y66.597 E209.2417
G1 X75.723 Y66.997 E209.2627
G1 X91.532 Y66.997 E210.0514
G1 X91.269 Y67.397 E210.0753
G1 X75.460 Y67.397 E210.8640
G1 X75.328 Y67.797 E210.8850
G1 X91.005 Y67.797 E211.6672
G1 X90.742 Y68.197 E211.6911
G1 X75.196 Y68.197 E212.4666
G1 X75.065 Y68.597 E212.4876
G1 X90.610 Y68.597 E213.2632
G1 X90.346 Y68.997 E213.2871
G1 X74.933 Y68.997 E214.0561
G1 X74.801 Y69.397 E214.0771
G1 X90.083 Y69.397 E214.8395
G1 X89.951 Y69.797 E214.8605
G1 X74.669 Y69.797 E215.6229
G1 X74.406 Y70.197 E215.6468
G1 X89.688 Y70.197 E216.4092
G1 X89.556 Y70.597 E216.4302
G1 X74.274 Y70.597 E217.1926
G1 X74.142 Y70.998 E217.2136
G1 X89.293 Y70.998 E217.9695
G1 X89.029 Y71.398 E217.9934
G1 X74.011 Y71.398 E218.7426
G1 X73.879 Y71.798 E218.7636
G1 X88.897 Y71.798 E219.5129
G1 X88.634 Y72.198 E219.5368
G1 X73.747 Y72.198 E220.2795
G1 X73.616 Y72.598 E220.3005
G1 X88.502 Y72.598 E221.0432
G1 X88.239 Y72.998 E221.0671
G1 X73.484 Y72.998 E221.8032
G1 X73.352 Y73.398 E221.8242
G1 X87.975 Y73.398 E222.5538
G1 X87.843 Y73.798 E222.5748
G1 X73.220 Y73.798 E223.3043
G1 X73.089 Y74.198 E223.3253
G1 X87.580 Y74.198 E224.0483
G1 X87.448 Y74.598 E224.0693
G1 X72.825 Y74.598 E224.7989
G1 X72.693 Y74.998 E224.8199
G1 X87.185 Y74.998 E225.5429
G1 X86.921 Y75.398 E225.5668
G1 X72.562 Y75.398 E226.2832
G1 X72.430 Y75.798 E226.3042
G1 X86.789 Y75.798 E227.0206
G1 X86.526 Y76.198 E227.0445
G1 X72.298 Y76.198 E227.7543
G1 X72.166 Y76.598 E227.7753
G1 X86.394 Y76.598 E228.4851
G1 X86.263 Y76.998 E228.5061
G1 X72.035 Y76.998 E229.2160
G1 X71.903 Y77.398 E229.2370
G1 X85.999 Y77.398 E229.9402
G1 X85.867 Y77.798 E229.9613
G1 X71.771 Y77.798 E230.6645
G1 X71.508 Y78.198 E230.6884
G1 X85.604 Y78.198 E231.3917
G1 X85.472 Y78.598 E231.4127
G1 X71.376 Y78.598 E232.1159
G1 X71.244 Y78.998 E232.1370
G1 X85.209 Y78.998 E232.8336
G1 X85.077 Y79.398 E232.8547
G1 X71.112 Y79.398 E233.5513
G1 X70.981 Y79.798 E233.5724
G1 X84.813 Y79.798 E234.2625
G1 X84.682 Y80.198 E234.2835
G1 X70.849 Y80.198 E234.9736
G1 X70.717 Y80.598 E234.9946
G1 X84.550 Y80.598 E235.6847
G1 X84.286 Y80.998 E235.7086
G1 X70.586 Y80.998 E236.3921
G1 X70.322 Y81.398 E236.4160
G1 X84.155 Y81.398 E237.1062
G1 X83.891 Y81.798 E237.1300
G1 X70.190 Y81.798 E237.8136
G1 X70.059 Y82.198 E237.8346
G1 X83.759 Y82.198 E238.5182
G1 X83.628 Y82.598 E238.5392
G1 X69.927 Y82.598 E239.2227
G1 X69.795 Y82.998 E239.2437
G1 X83.364 Y82.998 E239.9207
G1 X83.232 Y83.398 E239.9417
G1 X69.663 Y83.398 E240.6187
G1 X69.532 Y83.798 E240.6397
G1 X82.969 Y83.798 E241.3101
G1 X82.837 Y84.198 E241.3311
G1 X69.400 Y84.198 E242.0015
G1 X69.268 Y84.598 E242.0225
G1 X82.706 Y84.598 E242.6929
G1 X82.442 Y84.998 E242.7168
G1 X69.136 Y84.998 E243.3806
G1 X69.005 Y85.398 E243.4016
G1 X82.310 Y85.398 E244.0654
G1 X82.179 Y85.798 E244.0865
G1 X68.741 Y85.798 E244.7568
G1 X68.609 Y86.198 E244.7779
G1 X82.047 Y86.198 E245.4483
G1 X81.783 Y86.598 E245.4721
G1 X68.478 Y86.598 E246.1360
G1 X68.346 Y86.998 E246.1570
G1 X81.652 Y86.998 E246.8208
G1 X81.520 Y87.398 E246.8418
G1 X68.214 Y87.398 E247.5056
G1 X68.082 Y87.798 E247.5266
G1 X81.388 Y87.798 E248.1905
G1 X81.125 Y88.198 E248.2144
G1 X67.951 Y88.198 E248.8716
G1 X67.819 Y88.598 E248.8926
G1 X80.993 Y88.598 E249.5499
G1 X80.861 Y88.998 E249.5709
G1 X67.687 Y88.998 E250.2281
G1 X67.424 Y89.398 E250.2520
G1 X80.598 Y89.398 E250.9093
G1 X80.466 Y89.798 E250.9303
G1 X67.292 Y89.798 E251.5876
G1 X67.160 Y90.198 E251.6086
G1 X80.334 Y90.198 E252.2658
G1 X80.071 Y90.598 E252.2897
G1 X67.029 Y90.598 E252.9404
G1 X66.897 Y90.998 E252.9614
G1 X79.939 Y90.998 E253.6121
G1 X79.807 Y91.398 E253.6331
G1 X66.765 Y91.398 E254.2838
G1 X66.633 Y91.798 E254.3048
G1 X79.676 Y91.798 E254.9555
G1 X79.412 Y92.198 E254.9794
G1 X66.502 Y92.198 E255.6235
G1 X66.370 Y92.598 E255.6445
G1 X79.280 Y92.598 E256.2886
G1 X79.149 Y92.998 E256.3096
G1 X66.106 Y92.998 E256.9603
G1 X65.975 Y93.398 E256.9813
G1 X79.017 Y93.398 E257.6319
G1 X78.753 Y93.798 E257.6558
G1 X65.843 Y93.798 E258.2999
G1 X65.711 Y94.198 E258.3209
G1 X78.622 Y94.198 E258.9650
G1 X78.490 Y94.598 E258.9860
G1 X65.579 Y94.598 E259.6301
G1 X65.448 Y94.998 E259.6511
G1 X78.358 Y94.998 E260.2952
G1 X78.095 Y95.398 E260.3191
G1 X65.316 Y95.398 E260.9567
G1 X65.184 Y95.798 E260.9777
G1 X77.963 Y95.798 E261.6152
G1 X77.831 Y96.198 E261.6362
G1 X65.052 Y96.198 E262.2738
G1 X64.921 Y96.598 E262.2948
G1 X77.699 Y96.598 E262.9323
G1 X77.436 Y96.998 E262.9562
G1 X64.789 Y96.998 E263.5871
G1 X64.525 Y97.398 E263.6110
G1 X77.304 Y97.398 E264.2486
G1 X77.172 Y97.798 E264.2696
G1 X64.394 Y97.798 E264.9071
G1 X64.262 Y98.198 E264.9281
G1 X77.041 Y98.198 E265.5657
G1 X76.909 Y98.598 E265.5867
G1 X64.130 Y98.598 E266.2242
G1 X63.999 Y98.998 E266.2452
G1 X76.777 Y98.998 E266.8827
G1 X76.514 Y99.398 E266.9066
G1 X63.867 Y99.398 E267.5376
G1 X63.735 Y99.798 E267.5586
G1 X76.382 Y99.798 E268.1895
G1 X76.250 Y100.198 E268.2105
G1 X63.472 Y100.198 E268.8481
G1 X63.340 Y100.598 E268.8691
G1 X76.119 Y100.598 E269.5066
G1 X75.855 Y100.998 E269.5305
G1 X63.208 Y100.998 E270.1615
G1 X63.076 Y101.398 E270.1824
G1 X75.723 Y101.398 E270.8134
G1 X75.592 Y101.798 E270.8344
G1 X62.945 Y101.798 E271.4653
G1 X62.813 Y102.198 E271.4863
G1 X75.460 Y102.198 E272.1173
G1 X75.328 Y102.598 E272.1383
G1 X62.681 Y102.598 E272.7692
G1 X62.549 Y102.998 E272.7902
G1 X75.196 Y102.998 E273.4212
G1 X74.933 Y103.398 E273.4451
G1 X62.418 Y103.398 E274.0695
G1 X62.286 Y103.798 E274.0905
G1 X74.801 Y103.798 E274.7149
G1 X74.669 Y104.198 E274.7359
G1 X62.154 Y104.198 E275.3602
G1 X61.891 Y104.598 E275.3841
G1 X74.538 Y104.598 E276.0151
G1 X74.406 Y104.998 E276.0361
G1 X61.759 Y104.998 E276.6670
G1 X61.627 Y105.398 E276.6880
G1 X74.274 Y105.398 E277.3190
G1 X74.011 Y105.798 E277.3429
G1 X61.495 Y105.798 E277.9673
G1 X61.364 Y106.198 E277.9883
G1 X73.879 Y106.198 E278.6127
G1 X73.747 Y106.598 E278.6336
G1 X61.232 Y106.598 E279.2580
G1 X61.100 Y106.998 E279.2790
G1 X73.616 Y106.998 E279.9034
G1 X73.484 Y107.398 E279.9244
G1 X60.969 Y107.398 E280.5488
G1 X60.837 Y107.798 E280.5698
G1 X73.352 Y107.798 E281.1942
G1 X73.220 Y108.198 E281.2152
G1 X60.705 Y108.198 E281.8396
G1 X60.573 Y108.598 E281.8606
G1 X72.957 Y108.598 E282.4784
G1 X72.825 Y108.998 E282.4994
G1 X60.310 Y108.998 E283.1238
G1 X60.178 Y109.398 E283.1448
G1 X72.693 Y109.398 E283.7692
G1 X72.562 Y109.798 E283.7902
G1 X60.046 Y109.798 E284.4146
G1 X59.915 Y110.198 E284.4356
G1 X72.430 Y110.198 E285.0599
G1 X72.298 Y110.598 E285.0809
G1 X59.783 Y110.598 E285.7053
G1 X59.651 Y110.998 E285.7263
G1 X72.035 Y110.998 E286.3442
G1 X71.903 Y111.398 E286.3652
G1 X59.519 Y111.398 E286.9830
G1 X59.256 Y111.798 E287.0069
G1 X71.771 Y111.798 E287.6313
G1 X71.639 Y112.198 E287.6523
G1 X59.124 Y112.198 E288.2767
G1 X58.992 Y112.598 E288.2977
G1 X71.376 Y112.598 E288.9155
G1 X71.244 Y112.998 E288.9365
G1 X58.861 Y112.998 E289.5543
G1 X58.729 Y113.398 E289.5753
G1 X71.112 Y113.398 E290.1931
G1 X70.981 Y113.798 E290.2141
G1 X58.597 Y113.798 E290.8320
G1 X58.465 Y114.198 E290.8529
G1 X70.849 Y114.198 E291.4708
G1 X70.717 Y114.598 E291.4918
G1 X58.334 Y114.598 E292.1096
G1 X58.202 Y114.998 E292.1306
G1 X70.586 Y114.998 E292.7484
G1 X70.454 Y115.398 E292.7694
G1 X58.070 Y115.398 E293.3873
G1 X57.807 Y115.798 E293.4111
G1 X70.322 Y115.798 E294.0355
G1 X70.059 Y116.198 E294.0594
G1 X57.675 Y116.198 E294.6773
G1 X57.543 Y116.598 E294.6983
G1 X69.927 Y116.598 E295.3161
G1 X69.795 Y116.998 E295.3371
G1 X57.412 Y116.998 E295.9549
G1 X57.280 Y117.398 E295.9759
G1 X69.663 Y117.398 E296.5937
G1 X69.532 Y117.798 E296.6147
G1 X57.148 Y117.798 E297.2326
G1 X57.016 Y118.198 E297.2536
G1 X69.400 Y118.198 E297.8714
G1 X69.268 Y118.598 E297.8924
G1 X56.885 Y118.598 E298.5102
G1 X56.753 Y118.998 E298.5312
G1 X69.136 Y118.998 E299.1490
G1 X69.005 Y119.398 E299.1700
G1 X56.621 Y119.398 E299.7879
G1 X56.489 Y119.798 E299.8089
G1 X68.873 Y119.798 E300.4267
G1 X68.609 Y120.198 E300.4506
G1 X56.226 Y120.198 E301.0684
G1 X56.094 Y120.598 E301.0894
G1 X68.478 Y120.598 E301.7072
G1 X68.346 Y120.998 E301.7282
G1 X55.962 Y120.998 E302.3461
G1 X55.831 Y121.398 E302.3670
G1 X68.214 Y121.398 E302.9849
G1 X68.082 Y121.798 E303.0059
G1 X55.699 Y121.798 E303.6237
G1 X55.567 Y122.198 E303.6447
G1 X67.951 Y122.198 E304.2625
G1 X67.687 Y122.598 E304.2864
G1 X55.435 Y122.598 E304.8977
G1 X55.172 Y122.998 E304.9216
G1 X67.556 Y122.998 E305.5394
G1 X67.424 Y123.398 E305.5604
G1 X55.040 Y123.398 E306.1782
G1 X54.909 Y123.798 E306.1992
G1 X67.292 Y123.798 E306.8170
G1 X67.160 Y124.198 E306.8380
G1 X54.777 Y124.198 E307.4559
G1 X54.645 Y124.598 E307.4768
G1 X67.029 Y124.598 E308.0947
G1 X66.897 Y124.998 E308.1157
G1 X54.513 Y124.998 E308.7335
G1 X54.382 Y125.398 E308.7545
G1 X66.765 Y125.398 E309.3723
G1 X66.633 Y125.798 E309.3933
G1 X54.250 Y125.798 E310.0112
G1 X54.118 Y126.198 E310.0321
G1 X66.370 Y126.198 E310.6434
G1 X66.238 Y126.598 E310.6644
G1 X53.986 Y126.598 E311.2756
G1 X53.855 Y126.998 E311.2966
G1 X66.106 Y126.998 E311.9078
G1 X65.975 Y127.398 E311.9288
G1 X53.591 Y127.398 E312.5467
G1 X53.459 Y127.798 E312.5677
G1 X65.843 Y127.798 E313.1855
G1 X65.711 Y128.198 E313.2065
G1 X53.328 Y128.198 E313.8243
G1 X53.196 Y128.598 E313.8453
G1 X65.579 Y128.598 E314.4631
G1 X65.448 Y128.998 E314.4841
G1 X53.064 Y128.998 E315.1020
G1 X52.932 Y129.398 E315.1230
G1 X65.316 Y129.398 E315.7408
G1 X65.184 Y129.798 E315.7618
G1 X52.801 Y129.798 E316.3796
G1 X52.669 Y130.198 E316.4006
G1 X64.921 Y130.198 E317.0119
G1 X64.789 Y130.598 E317.0328
G1 X52.537 Y130.598 E317.6441
G1 X52.405 Y130.998 E317.6651
G1 X64.657 Y130.998 E318.2763
G1 X64.525 Y131.398 E318.2973
G1 X52.274 Y131.398 E318.9086
G1 X52.010 Y131.798 E318.9324
G1 X64.394 Y131.798 E319.5503
G1 X64.262 Y132.198 E319.5713
G1 X51.879 Y132.198 E320.1891
G1 X51.747 Y132.598 E320.2101
G1 X64.130 Y132.598 E320.8279
G1 X63.999 Y132.998 E320.8489
G1 X51.615 Y132.998 E321.4667
G1 X51.483 Y133.398 E321.4877
G1 X63.735 Y133.398 E322.0990
G1 X63.603 Y133.798 E322.1200
G1 X51.352 Y133.798 E322.7312
G1 X51.220 Y134.198 E322.7522
G1 X63.472 Y134.198 E323.3634
G1 X63.340 Y134.598 E323.3844
G1 X50.956 Y134.598 E324.0023
G1 X50.825 Y134.998 E324.0233
G1 X63.208 Y134.998 E324.6411
G1 X63.076 Y135.398 E324.6621
G1 X50.693 Y135.398 E325.2799
G1 X50.561 Y135.798 E325.3009
G1 X62.945 Y135.798 E325.9187
G1 X62.813 Y136.198 E325.9397
G1 X50.429 Y136.198 E326.5576
G1 X50.298 Y136.598 E326.5786
G1 X62.549 Y136.598 E327.1898
G1 X62.418 Y136.998 E327.2108
G1 X50.166 Y136.998 E327.8220
G1 X50.034 Y137.398 E327.8430
G1 X62.286 Y137.398 E328.4543
G1 X62.154 Y137.798 E328.4753
G1 X49.902 Y137.798 E329.0865
G1 X49.771 Y138.198 E329.1075
G1 X62.022 Y138.198 E329.7187
G1 X61.891 Y138.598 E329.7397
G1 X49.639 Y138.598 E330.3510
G1 X49.375 Y138.998 E330.3749
G1 X61.759 Y138.998 E330.9927
G1 X61.627 Y139.398 E331.0137
G1 X49.244 Y139.398 E331.6315
G1 X49.112 Y139.798 E331.6525
G1 X61.495 Y139.798 E332.2703
G1 X61.232 Y140.198 E332.2942
G1 X48.980 Y140.198 E332.9055
G1 X48.848 Y140.598 E332.9265
G1 X61.100 Y140.598 E333.5377
G1 X60.969 Y140.998 E333.5587
G1 X48.717 Y140.998 E334.1699
G1 X48.585 Y141.398 E334.1909
G1 X60.837 Y141.398 E334.8022
G1 X60.705 Y141.798 E334.8232
G1 X48.453 Y141.798 E335.4344
G1 X48.322 Y142.198 E335.4554
G1 X60.573 Y142.198 E336.0666
G1 X60.442 Y142.598 E336.0876
G1 X48.190 Y142.598 E336.6989
G1 X48.058 Y142.998 E336.7199
G1 X60.310 Y142.998 E337.3311
G1 X60.178 Y143.398 E337.3521
G1 X47.795 Y143.398 E337.9699
G1 X47.663 Y143.798 E337.9909
G1 X59.915 Y143.798 E338.6022
G1 X59.783 Y144.198 E338.6232
G1 X47.531 Y144.198 E339.2344
G1 X47.399 Y144.598 E339.2554
G1 X59.651 Y144.598 E339.8666
G1 X59.519 Y144.998 E339.8876
G1 X47.268 Y144.998 E340.4989
G1 X47.136 Y145.398 E340.5198
G1 X59.388 Y145.398 E341.1311
G1 X59.256 Y145.798 E341.1521
G1 X46.872 Y145.798 E341.7699
G1 X46.741 Y146.198 E341.7909
G1 X59.124 Y146.198 E342.4087
G1 X58.992 Y146.598 E342.4297
G1 X46.609 Y146.598 E343.0476
G1 X46.477 Y146.998 E343.0686
G1 X58.729 Y146.998 E343.6798
G1 X58.597 Y147.398 E343.7008
G1 X46.345 Y147.398 E344.3120
G1 X46.214 Y147.798 E344.3330
G1 X58.465 Y147.798 E344.9443
G1 X58.334 Y148.198 E344.9653
G1 X46.082 Y148.198 E345.5765
G1 X45.950 Y148.598 E345.5975
G1 X58.202 Y148.598 E346.2087
G1 X58.070 Y148.998 E346.2297
G1 X45.818 Y148.998 E346.8410
G1 X45.687 Y149.398 E346.8620
G1 X57.939 Y149.398 E347.4732
G1 X57.807 Y149.798 E347.4942
G1 X45.555 Y149.798 E348.1054
G1 X45.292 Y150.198 E348.1293
G1 X57.675 Y150.198 E348.7471
G1 X57.543 Y150.598 E348.7681
G1 X45.160 Y150.598 E349.3860
G1 X45.028 Y150.998 E349.4070
G1 X57.412 Y150.998 E350.0248
G1 X57.148 Y151.398 E350.0487
G1 X44.896 Y151.398 E350.6599
G1 X44.765 Y151.798 E350.6809
G1 X57.016 Y151.798 E351.2922
G1 X56.885 Y152.198 E351.3132
G1 X44.633 Y152.198 E351.9244
G1 X44.501 Y152.598 E351.9454
G1 X56.753 Y152.598 E352.5566
G1 X56.621 Y152.998 E352.5776
G1 X44.369 Y152.998 E353.1889
G1 X44.238 Y153.398 E353.2099
G1 X56.489 Y153.398 E353.8211
G1 X56.358 Y153.798 E353.8421
G1 X44.106 Y153.798 E354.4533
G1 X43.974 Y154.198 E354.4743
G1 X56.226 Y154.198 E355.0856
G1 X56.094 Y154.598 E355.1065
G1 X43.711 Y154.598 E355.7244
G1 X43.579 Y154.998 E355.7454
G1 X55.962 Y154.998 E356.3632
G1 X55.699 Y155.398 E356.3871
G1 X43.447 Y155.398 E356.9983
G1 X43.315 Y155.798 E357.0193
G1 X55.567 Y155.798 E357.6306
G1 X55.435 Y156.198 E357.6516
G1 X43.184 Y156.198 E358.2628
G1 X43.052 Y156.598 E358.2838
G1 X55.304 Y156.598 E358.8950
G1 X55.172 Y156.998 E358.9160
G1 X42.920 Y156.998 E359.5273
G1 X42.657 Y157.398 E359.5512
G1 X55.040 Y157.398 E360.1690
G1 X54.909 Y157.798 E360.1900
G1 X42.525 Y157.798 E360.8078
G1 X42.393 Y158.198 E360.8288
G1 X54.777 Y158.198 E361.4466
G1 X54.513 Y158.598 E361.4705
G1 X42.262 Y158.598 E362.0818
G1 X42.130 Y158.998 E362.1028
G1 X54.382 Y158.998 E362.7140
G1 X54.250 Y159.398 E362.7350
G1 X41.998 Y159.398 E363.3462
G1 X41.866 Y159.798 E363.3672
G1 X54.118 Y159.798 E363.9785
G1 X53.986 Y160.198 E363.9995
G1 X41.735 Y160.198 E364.6107
G1 X41.603 Y160.598 E364.6317
G1 X53.855 Y160.598 E365.2429
G1 X53.723 Y160.998 E365.2639
G1 X41.471 Y160.998 E365.8752
G1 X41.339 Y161.398 E365.8962
G1 X53.591 Y161.398 E366.5074
G1 X53.459 Y161.798 E366.5284
G1 X41.076 Y161.798 E367.1462
G1 X40.944 Y162.198 E367.1672
G1 X53.328 Y162.198 E367.7850
G1 X53.196 Y162.598 E367.8060
G1 X40.812 Y162.598 E368.4239
G1 X40.681 Y162.998 E368.4449
G1 X52.932 Y162.998 E369.0561
G1 X52.801 Y163.398 E369.0771
G1 X40.549 Y163.398 E369.6883
G1 X40.417 Y163.798 E369.7093
G1 X52.669 Y163.798 E370.3206
G1 X52.537 Y164.198 E370.3416
G1 X40.285 Y164.198 E370.9528
G1 X40.154 Y164.598 E370.9738
G1 X52.405 Y164.598 E371.5850
G1 X52.274 Y164.998 E371.6060
G1 X40.022 Y164.998 E372.2173
G1 X40.022 Y165.398 E372.2372
G1 X52.142 Y165.398 E372.8419
G1 X52.010 Y165.798 E372.8629
G1 X40.022 Y165.798 E373.4610
G1 X40.022 Y166.198 E373.4809
G1 X51.879 Y166.198 E374.0725
G1 X51.615 Y166.598 E374.0964
G1 X40.022 Y166.598 E374.6747
G1 X40.022 Y166.998 E374.6947
G1 X51.483 Y166.998 E375.2665
G1 X51.088 Y167.398 E375.2945
G1 X40.417 Y167.398 E375.8269
G1 X40.812 Y167.798 E375.8550
G1 X50.693 Y167.798 E376.3479
G1 X50.298 Y168.198 E376.3760
G1 X41.208 Y168.198 E376.8294



; ------------------------------------
; Raft Layer #4
; ------------------------------------
G92 E0 ;reset extr
G0 F1200 Z1.400
;segType:Raft
G0 F3000 E-1.0000
G0 F1200 Z3.400
G0 X40.203 Y164.684 F7200
G0 F1200 Z1.400
G0 F3000 E0.0000
G1 X40.203 Y167.187 E0.0833 F2400
G1 X40.603 Y167.582 E0.1020
G1 X40.603 Y163.630 E0.2334
G0 X41.003 Y162.576 F7200
G1 X41.003 Y167.978 E0.4131 F2400
G1 X41.403 Y168.373 E0.4318
G1 X41.403 Y161.522 E0.6596
G0 X41.803 Y160.073 F7200
G1 X41.803 Y168.505 E0.9400 F2400
G1 X42.203 Y168.505 E0.9533
G1 X42.203 Y158.888 E1.2732
G0 X42.603 Y157.834 F7200
G1 X42.603 Y168.505 E1.6281 F2400
G1 X43.003 Y168.505 E1.6414
G1 X43.003 Y156.780 E2.0314
G0 X43.403 Y155.726 F7200
G1 X43.403 Y168.505 E2.4564 F2400
G1 X43.803 Y168.505 E2.4697
G1 X43.803 Y154.540 E2.9342
G0 X44.203 Y153.486 F7200
G1 X44.203 Y168.505 E3.4337 F2400
G1 X44.603 Y168.505 E3.4470
G1 X44.603 Y152.432 E3.9815
G0 X45.003 Y151.378 F7200
G1 X45.003 Y168.505 E4.5512 F2400
G1 X45.403 Y168.505 E4.5645
G1 X45.403 Y150.193 E5.1735
G0 X45.803 Y149.139 F7200
G1 X45.803 Y168.505 E5.8176 F2400
G1 X46.203 Y168.505 E5.8309
G1 X46.203 Y148.085 E6.5101
G0 X46.603 Y147.031 F7200
G1 X46.603 Y168.505 E7.2243 F2400
G1 X47.003 Y168.505 E7.2376
G1 X47.003 Y145.845 E7.9912
G0 X47.403 Y144.791 F7200
G1 X47.403 Y168.505 E8.7800 F2400
G1 X47.803 Y168.505 E8.7933
G1 X47.803 Y143.737 E9.6170
G0 X48.203 Y142.684 F7200
G1 X48.203 Y168.505 E10.4758 F2400
G1 X48.603 Y168.505 E10.4891
G1 X48.603 Y141.630 E11.3830
G0 X49.003 Y140.444 F7200
G1 X49.003 Y168.505 E12.3163 F2400
G1 X49.403 Y168.505 E12.3296
G1 X49.403 Y139.390 E13.2979
G0 X49.803 Y138.336 F7200
G1 X49.803 Y168.505 E14.3013 F2400
G1 X50.203 Y168.505 E14.3146
G1 X50.203 Y137.282 E15.3531
G0 X50.603 Y136.097 F7200
G1 X50.603 Y168.109 E16.4178 F2400
G1 X51.003 Y167.714 E16.4365
G1 X51.003 Y135.043 E17.5232
G0 X51.403 Y133.989 F7200
G1 X51.403 Y167.319 E18.6318 F2400
G1 X51.803 Y166.660 E18.6574
G1 X51.803 Y132.935 E19.7791
G0 X52.203 Y131.749 F7200
G1 X52.203 Y165.606 E20.9052 F2400
G0 X52.603 Y164.157 F7200
G1 X52.603 Y130.300 E22.0313 F2400
G0 X53.003 Y129.246 F7200
G1 X53.003 Y162.971 E23.1530 F2400
G0 X53.403 Y161.918 F7200
G1 X53.403 Y128.192 E24.2747 F2400
G0 X53.803 Y127.138 F7200
G1 X53.803 Y160.864 E25.3964 F2400
G0 X54.203 Y159.810 F7200
G1 X54.203 Y125.953 E26.5225 F2400
G0 X54.603 Y124.899 F7200
G1 X54.603 Y158.624 E27.6442 F2400
G0 X55.003 Y157.570 F7200
G1 X55.003 Y123.845 E28.7659 F2400
G0 X55.403 Y122.791 F7200
G1 X55.403 Y156.516 E29.8876 F2400
G0 X55.803 Y155.462 F7200
G1 X55.803 Y121.605 E31.0137 F2400
G0 X56.203 Y120.551 F7200
G1 X56.203 Y154.277 E32.1354 F2400
G0 X56.603 Y153.223 F7200
G1 X56.603 Y119.497 E33.2571 F2400
G0 X57.003 Y118.444 F7200
G1 X57.003 Y152.169 E34.3788 F2400
G0 X57.403 Y151.115 F7200
G1 X57.403 Y117.258 E35.5049 F2400
G0 X57.803 Y116.204 F7200
G1 X57.803 Y149.929 E36.6266 F2400
G0 X58.203 Y148.875 F7200
G1 X58.203 Y115.150 E37.7483 F2400
G0 X58.603 Y114.096 F7200
G1 X58.603 Y147.821 E38.8700 F2400
G0 X59.003 Y146.768 F7200
G1 X59.003 Y112.910 E39.9961 F2400
G0 X59.403 Y111.857 F7200
G1 X59.403 Y145.582 E41.1178 F2400
G0 X59.803 Y144.528 F7200
G1 X59.803 Y110.803 E42.2395 F2400
G0 X60.203 Y109.749 F7200
G1 X60.203 Y143.474 E43.3613 F2400
G0 X60.603 Y142.420 F7200
G1 X60.603 Y108.695 E44.4830 F2400
G0 X61.003 Y107.509 F7200
G1 X61.003 Y141.366 E45.6091 F2400
G0 X61.403 Y140.181 F7200
G1 X61.403 Y106.455 E46.7308 F2400
G0 X61.803 Y105.401 F7200
G1 X61.803 Y139.127 E47.8525 F2400
G0 X62.203 Y138.073 F7200
G1 X62.203 Y104.347 E48.9742 F2400
G0 X62.603 Y103.162 F7200
G1 X62.603 Y137.019 E50.1003 F2400
G0 X63.003 Y135.965 F7200
G1 X63.003 Y102.108 E51.2264 F2400
G0 X63.403 Y101.054 F7200
G1 X63.403 Y134.911 E52.3525 F2400
G0 X63.803 Y133.462 F7200
G1 X63.803 Y99.605 E53.4785 F2400
G0 X64.203 Y98.551 F7200
G1 X64.203 Y132.408 E54.6046 F2400
G0 X64.603 Y131.354 F7200
G1 X64.603 Y97.365 E55.7351 F2400
G0 X65.003 Y96.311 F7200
G1 X65.003 Y130.168 E56.8612 F2400
G0 X65.403 Y129.114 F7200
G1 X65.403 Y95.257 E57.9873 F2400
G0 X65.803 Y94.203 F7200
G1 X65.803 Y128.061 E59.1134 F2400
G0 X66.203 Y127.007 F7200
G1 X66.203 Y93.018 E60.2439 F2400
G0 X66.603 Y91.964 F7200
G1 X66.603 Y125.953 E61.3743 F2400
G0 X67.003 Y124.899 F7200
G1 X67.003 Y90.910 E62.5048 F2400
G0 X67.403 Y89.856 F7200
G1 X67.403 Y123.713 E63.6309 F2400
G0 X67.803 Y122.659 F7200
G1 X67.803 Y88.670 E64.7614 F2400
G0 X68.203 Y87.616 F7200
G1 X68.203 Y121.605 E65.8918 F2400
G0 X68.603 Y120.551 F7200
G1 X68.603 Y86.563 E67.0223 F2400
G0 X69.003 Y85.509 F7200
G1 X69.003 Y119.497 E68.1528 F2400
G0 X69.403 Y118.444 F7200
G1 X69.403 Y84.323 E69.2876 F2400
G0 X69.803 Y83.269 F7200
G1 X69.803 Y117.390 E70.4225 F2400
G0 X70.203 Y116.204 F7200
G1 X70.203 Y82.215 E71.5529 F2400
G0 X70.603 Y81.161 F7200
G1 X70.603 Y115.150 E72.6834 F2400
G0 X71.003 Y114.096 F7200
G1 X71.003 Y80.107 E73.8139 F2400
G0 X71.403 Y78.922 F7200
G1 X71.403 Y113.042 E74.9487 F2400
G0 X71.803 Y111.988 F7200
G1 X71.803 Y77.868 E76.0836 F2400
G0 X72.203 Y76.814 F7200
G1 X72.203 Y110.934 E77.2184 F2400
G0 F3000 E76.2184
G0 X73.403 Y107.904 F7200
G0 F3000 E77.2184
G1 X73.403 Y73.520 E78.3620 F2400
G0 X73.003 Y74.574 F7200
G1 X73.003 Y108.958 E79.5057 F2400
G1 X72.603 Y109.880 E79.5391
G1 X72.603 Y75.760 E80.6739
G0 F3000 E79.6739
G0 X73.803 Y72.466 F7200
G0 F3000 E80.6739
G1 X73.803 Y106.850 E81.8176 F2400
G0 F3000 E80.8176
G0 X75.803 Y101.449 F7200
G0 F3000 E81.8176
G1 X75.803 Y66.670 E82.9743 F2400
G0 X75.403 Y67.724 F7200
G1 X75.403 Y102.503 E84.1311 F2400
G1 X75.003 Y103.425 E84.1645
G1 X75.003 Y68.778 E85.3169
G0 X74.603 Y70.227 F7200
G1 X74.603 Y104.874 E86.4693 F2400
G1 X74.203 Y105.797 E86.5027
G1 X74.203 Y71.413 E87.6463
G0 F3000 E86.6463
G0 X76.203 Y65.616 F7200
G0 F3000 E87.6463
G1 X76.203 Y100.395 E88.8031 F2400
G0 F3000 E87.8031
G0 X77.403 Y97.365 F7200
G0 F3000 E88.8031
G1 X77.403 Y62.323 E89.9686 F2400
G0 X77.003 Y63.376 F7200
G1 X77.003 Y98.419 E91.1341 F2400
G1 X76.603 Y99.341 E91.1676
G1 X76.603 Y64.430 E92.3287
G0 F3000 E91.3287
G0 X77.803 Y61.269 F7200
G0 F3000 E92.3287
G1 X77.803 Y96.311 E93.4942 F2400
G1 X78.203 Y95.389 E93.5277
G1 X78.203 Y60.083 E94.7020
G0 X78.603 Y59.029 F7200
G1 X78.603 Y94.467 E95.8806 F2400
G1 X79.003 Y93.545 E95.9141
G1 X79.003 Y57.975 E97.0971
G0 X79.403 Y56.921 F7200
G1 X79.403 Y92.623 E98.2845 F2400
G0 F3000 E97.2845
G0 X81.403 Y87.880 F7200
G0 F3000 E98.2845
G1 X81.403 Y51.388 E99.4983 F2400
G0 X81.803 Y50.334 F7200
G1 X81.803 Y86.826 E100.7120 F2400
G1 X82.203 Y85.904 E100.7454
G1 X82.203 Y49.280 E101.9635
G0 X82.603 Y48.226 F7200
G1 X82.603 Y84.982 E103.1860 F2400
G1 X83.003 Y84.060 E103.2194
G1 X83.003 Y47.172 E104.4463
G0 X83.403 Y45.987 F7200
G1 X83.403 Y83.269 E105.6863 F2400
G1 X83.803 Y82.479 E105.7158
G1 X83.803 Y44.933 E106.9646
G0 X84.203 Y43.879 F7200
G1 X84.203 Y81.556 E108.2177 F2400
G1 X84.603 Y80.766 E108.2472
G1 X84.603 Y42.825 E109.5091
G0 X85.003 Y41.639 F7200
G1 X85.003 Y79.844 E110.7798 F2400
G1 X85.403 Y79.053 E110.8093
G1 X85.403 Y40.586 E112.0887
G0 X85.803 Y39.136 F7200
G1 X85.803 Y77.868 E113.3769 F2400
G1 X86.203 Y77.077 E113.4064
G1 X86.203 Y38.082 E114.7034
G0 X86.603 Y37.029 F7200
G1 X86.603 Y76.155 E116.0047 F2400
G1 X87.003 Y75.365 E116.0342
G1 X87.003 Y35.843 E117.3487
G0 X87.403 Y34.789 F7200
G1 X87.403 Y74.706 E118.6763 F2400
G1 X87.803 Y73.916 E118.7058
G1 X87.803 Y33.735 E120.0422
G1 X88.203 Y32.945 E120.0717
G1 X88.203 Y73.125 E121.4081
G1 X88.603 Y72.466 E121.4337
G1 X88.603 Y32.549 E122.7614
G1 X89.003 Y32.154 E122.7801
G1 X89.003 Y71.676 E124.0945
G1 X89.403 Y70.886 E124.1240
G1 X89.403 Y31.759 E125.4254
G1 X89.803 Y31.759 E125.4387
G1 X89.803 Y70.227 E126.7181
G1 X90.203 Y69.436 E126.7476
G1 X90.203 Y31.759 E128.0007
G1 X90.603 Y31.759 E128.0140
G1 X90.603 Y68.778 E129.2453
G1 X91.003 Y67.987 E129.2748
G1 X91.003 Y31.759 E130.4797
G1 X91.403 Y31.759 E130.4930
G1 X91.403 Y67.460 E131.6805
G1 X91.803 Y66.802 E131.7061
G1 X91.803 Y31.759 E132.8716
G1 X92.203 Y31.759 E132.8849
G1 X92.203 Y66.143 E134.0285
G1 X92.603 Y65.484 E134.0542
G1 X92.603 Y31.759 E135.1759
G1 X93.003 Y31.759 E135.1892
G1 X93.003 Y64.826 E136.2890
G1 X93.403 Y64.167 E136.3146
G1 X93.403 Y31.759 E137.3925
G1 X93.803 Y31.759 E137.4058
G1 X93.803 Y63.508 E138.4618
G1 X94.203 Y62.981 E138.4838
G1 X94.203 Y31.759 E139.5223
G1 X94.603 Y31.759 E139.5356
G1 X94.603 Y62.323 E140.5521
G1 X95.003 Y61.796 E140.5741
G1 X95.003 Y31.759 E141.5731
G1 X95.403 Y31.759 E141.5864
G1 X95.403 Y61.269 E142.5679
G1 X95.803 Y60.742 E142.5899
G1 X95.803 Y31.759 E143.5539
G1 X96.203 Y31.759 E143.5672
G1 X96.203 Y60.215 E144.5136
G1 X96.603 Y59.688 E144.5357
G1 X96.603 Y31.759 E145.4646
G1 X97.003 Y31.759 E145.4779
G1 X97.003 Y59.029 E146.3849
G1 X97.403 Y58.502 E146.4069
G1 X97.403 Y31.759 E147.2964
G1 X97.803 Y31.759 E147.3097
G1 X97.803 Y57.975 E148.1816
G1 X98.203 Y57.448 E148.2036
G1 X98.203 Y31.759 E149.0581
G1 X98.603 Y31.759 E149.0714
G1 X98.603 Y57.053 E149.9126
G1 X99.003 Y56.658 E149.9313
G1 X99.003 Y31.759 E150.7595
G1 X99.403 Y31.759 E150.7728
G1 X99.403 Y56.262 E151.5878
G1 X99.803 Y55.736 E151.6098
G1 X99.803 Y31.759 E152.4072
G1 X100.203 Y31.759 E152.4206
G1 X100.203 Y55.340 E153.2049
G1 X100.603 Y54.945 E153.2236
G1 X100.603 Y31.759 E153.9948
G1 X101.003 Y31.759 E154.0081
G1 X101.003 Y54.418 E154.7617
G1 X101.403 Y54.155 E154.7776
G1 X101.403 Y31.759 E155.5225
G1 X101.803 Y31.759 E155.5358
G1 X101.803 Y53.759 E156.2676
G1 X102.203 Y53.496 E156.2835
G1 X102.203 Y31.759 E157.0065
G1 X102.603 Y31.759 E157.0198
G1 X102.603 Y53.101 E157.7296
G1 X103.003 Y52.837 E157.7455
G1 X103.003 Y31.759 E158.4466
G1 X103.403 Y31.759 E158.4599
G1 X103.403 Y52.442 E159.1478
G1 X103.803 Y52.047 E159.1665
G1 X103.803 Y31.759 E159.8413
G1 X104.203 Y31.759 E159.8546
G1 X104.203 Y51.783 E160.5206
G1 X104.603 Y51.388 E160.5393
G1 X104.603 Y31.759 E161.1922
G1 X105.003 Y31.759 E161.2055
G1 X105.003 Y51.125 E161.8496
G1 X105.403 Y50.861 E161.8655
G1 X105.403 Y31.759 E162.5009
G1 X105.803 Y31.759 E162.5142
G1 X105.803 Y50.598 E163.1408
G1 X106.203 Y50.334 E163.1567
G1 X106.203 Y31.759 E163.7745
G1 X106.603 Y31.759 E163.7878
G1 X106.603 Y50.071 E164.3969
G1 X107.003 Y49.807 E164.4128
G1 X107.003 Y31.759 E165.0131
G1 X107.403 Y31.759 E165.0264
G1 X107.403 Y49.544 E165.6179
G1 X107.803 Y49.149 E165.6366
G1 X107.803 Y31.759 E166.2150
G1 X108.203 Y31.759 E166.2283
G1 X108.203 Y48.885 E166.7979
G1 X108.603 Y48.622 E166.8139
G1 X108.603 Y31.759 E167.3747
G1 X109.003 Y31.759 E167.3880
G1 X109.003 Y48.490 E167.9445
G1 X109.403 Y48.226 E167.9604
G1 X109.403 Y31.759 E168.5081
G1 X109.803 Y31.759 E168.5214
G1 X109.803 Y48.095 E169.0648
G1 X110.203 Y47.831 E169.0807
G1 X110.203 Y31.759 E169.6153
G1 X110.603 Y31.759 E169.6286
G1 X110.603 Y47.568 E170.1544
G1 X111.003 Y47.436 E170.1684
G1 X111.003 Y31.759 E170.6898
G1 X111.403 Y31.759 E170.7031
G1 X111.403 Y47.172 E171.2158
G1 X111.803 Y47.041 E171.2298
G1 X111.803 Y31.759 E171.7380
G1 X112.203 Y31.759 E171.7513
G1 X112.203 Y46.777 E172.2509
G1 X112.603 Y46.646 E172.2649
G1 X112.603 Y31.759 E172.7600
G1 X113.003 Y31.759 E172.7733
G1 X113.003 Y46.382 E173.2597
G1 X113.403 Y46.250 E173.2737
G1 X113.403 Y31.759 E173.7557
G1 X113.803 Y31.759 E173.7690
G1 X113.803 Y46.119 E174.2466
G1 X114.203 Y45.987 E174.2606
G1 X114.203 Y31.759 E174.7338
G1 X114.603 Y31.759 E174.7471
G1 X114.603 Y45.855 E175.2159
G1 X115.003 Y45.592 E175.2319
G1 X115.003 Y31.759 E175.6919
G1 X115.403 Y31.759 E175.7053
G1 X115.403 Y45.460 E176.1609
G1 X115.803 Y45.328 E176.1749
G1 X115.803 Y31.759 E176.6263
G1 X116.203 Y31.759 E176.6396
G1 X116.203 Y45.196 E177.0865
G1 X116.603 Y45.065 E177.1005
G1 X116.603 Y31.759 E177.5431
G1 X117.003 Y31.759 E177.5564
G1 X117.003 Y44.933 E177.9945
G1 X117.403 Y44.669 E178.0105
G1 X117.403 Y31.759 E178.4399
G1 X117.803 Y31.759 E178.4532
G1 X117.803 Y44.538 E178.8782
G1 X118.203 Y44.538 E178.8915
G1 X118.203 Y31.759 E179.3165
G1 X118.603 Y31.759 E179.3298
G1 X118.603 Y44.406 E179.7504
G1 X119.003 Y44.274 E179.7645
G1 X119.003 Y31.759 E180.1807
G1 X119.403 Y31.759 E180.1940
G1 X119.403 Y44.142 E180.6059
G1 X119.803 Y44.011 E180.6199
G1 X119.803 Y31.759 E181.0274
G1 X120.203 Y31.759 E181.0407
G1 X120.203 Y43.879 E181.4438
G1 X120.603 Y43.747 E181.4578
G1 X120.603 Y31.759 E181.8566
G1 X121.003 Y31.759 E181.8699
G1 X121.003 Y43.616 E182.2642
G1 X121.403 Y43.484 E182.2782
G1 X121.403 Y31.759 E182.6682
G1 X121.803 Y31.759 E182.6815
G1 X121.803 Y43.484 E183.0715
G1 X122.203 Y43.352 E183.0855
G1 X122.203 Y31.759 E183.4711
G1 X122.603 Y31.759 E183.4844
G1 X122.603 Y43.220 E183.8656
G1 X123.003 Y43.089 E183.8796
G1 X123.003 Y31.759 E184.2564
G1 X123.403 Y31.759 E184.2697
G1 X123.403 Y43.089 E184.6466
G1 X123.803 Y42.957 E184.6606
G1 X123.803 Y31.759 E185.0330
G1 X124.203 Y31.759 E185.0463
G1 X124.203 Y42.825 E185.4144
G1 X124.603 Y42.825 E185.4277
G1 X124.603 Y31.759 E185.7957
G1 X125.003 Y31.759 E185.8090
G1 X125.003 Y42.693 E186.1727
G1 X125.403 Y42.693 E186.1860
G1 X125.403 Y31.759 E186.5497
G1 X125.803 Y31.759 E186.5630
G1 X125.803 Y42.562 E186.9223
G1 X126.203 Y42.430 E186.9363
G1 X126.203 Y31.759 E187.2912
G1 X126.603 Y31.759 E187.3045
G1 X126.603 Y42.430 E187.6594
G1 X127.003 Y42.298 E187.6735
G1 X127.003 Y31.759 E188.0240
G1 X127.403 Y31.759 E188.0373
G1 X127.403 Y42.298 E188.3878
G1 X127.803 Y42.166 E188.4018
G1 X127.803 Y31.759 E188.7480
G1 X128.203 Y31.759 E188.7613
G1 X128.203 Y42.035 E189.1031
G1 X128.603 Y42.035 E189.1164
G1 X128.603 Y31.759 E189.4581
G1 X129.003 Y31.759 E189.4714
G1 X129.003 Y42.035 E189.8132
G1 X129.403 Y41.903 E189.8272
G1 X129.403 Y31.759 E190.1646
G1 X129.803 Y31.759 E190.1779
G1 X129.803 Y41.903 E190.5153
G1 X130.203 Y41.771 E190.5293
G1 X130.203 Y31.759 E190.8623
G1 X130.603 Y31.759 E190.8756
G1 X130.603 Y41.771 E191.2086
G1 X131.003 Y41.639 E191.2226
G1 X131.003 Y31.759 E191.5513
G1 X131.403 Y31.759 E191.5646
G1 X131.403 Y41.639 E191.8932
G1 X131.803 Y41.639 E191.9065
G1 X131.803 Y31.759 E192.2351
G1 X132.203 Y31.759 E192.2484
G1 X132.203 Y41.508 E192.5727
G1 X132.603 Y41.508 E192.5860
G1 X132.603 Y31.759 E192.9102
G1 X133.003 Y31.759 E192.9235
G1 X133.003 Y41.508 E193.2478
G1 X133.403 Y41.376 E193.2618
G1 X133.403 Y31.759 E193.5817
G1 X133.803 Y31.759 E193.5950
G1 X133.803 Y41.376 E193.9148
G1 X134.203 Y41.244 E193.9288
G1 X134.203 Y31.759 E194.2443
G1 X134.603 Y31.759 E194.2576
G1 X134.603 Y41.244 E194.5731
G1 X135.003 Y41.244 E194.5864
G1 X135.003 Y31.759 E194.9019
G1 X135.403 Y31.759 E194.9152
G1 X135.403 Y41.112 E195.2263
G1 X135.803 Y41.112 E195.2396
G1 X135.803 Y31.759 E195.5507
G1 X136.203 Y31.759 E195.5640
G1 X136.203 Y41.112 E195.8751
G1 X136.603 Y40.981 E195.8891
G1 X136.603 Y31.759 E196.1958
G1 X137.003 Y31.759 E196.2091
G1 X137.003 Y40.981 E196.5158
G1 X137.403 Y40.981 E196.5291
G1 X137.403 Y31.759 E196.8358
G1 X137.803 Y31.759 E196.8491
G1 X137.803 Y40.849 E197.1515
G1 X138.203 Y40.849 E197.1648
G1 X138.203 Y31.759 E197.4671
G1 X138.603 Y31.759 E197.4804
G1 X138.603 Y40.849 E197.7828
G1 X139.003 Y40.849 E197.7961
G1 X139.003 Y31.759 E198.0984
G1 X139.403 Y31.759 E198.1117
G1 X139.403 Y40.849 E198.4141
G1 X139.803 Y40.717 E198.4281
G1 X139.803 Y31.759 E198.7260
G1 X140.203 Y31.759 E198.7393
G1 X140.203 Y40.717 E199.0373
G1 X140.603 Y40.717 E199.0506
G1 X140.603 Y31.759 E199.3485
G1 X141.003 Y31.759 E199.3619
G1 X141.003 Y40.717 E199.6598
G1 X141.403 Y40.586 E199.6738
G1 X141.403 Y31.759 E199.9674
G1 X141.803 Y31.759 E199.9807
G1 X141.803 Y40.586 E200.2743
G1 X142.203 Y40.586 E200.2876
G1 X142.203 Y31.759 E200.5812
G1 X142.603 Y31.759 E200.5945
G1 X142.603 Y40.586 E200.8881
G1 X143.003 Y40.454 E200.9021
G1 X143.003 Y31.759 E201.1912
G1 X143.403 Y31.759 E201.2046
G1 X143.403 Y40.454 E201.4937
G1 X143.803 Y40.454 E201.5070
G1 X143.803 Y31.759 E201.7962
G1 X144.203 Y31.759 E201.8095
G1 X144.203 Y40.454 E202.0987
G1 X144.603 Y40.454 E202.1120
G1 X144.603 Y31.759 E202.4012
G1 X145.003 Y31.759 E202.4145
G1 X145.003 Y40.322 E202.6993
G1 X145.403 Y40.322 E202.7126
G1 X145.403 Y31.759 E202.9974
G1 X145.803 Y31.759 E203.0107
G1 X145.803 Y40.322 E203.2955
G1 X146.203 Y40.322 E203.3088
G1 X146.203 Y31.759 E203.5936
G1 X146.603 Y31.759 E203.6070
G1 X146.603 Y40.190 E203.8874
G1 X147.003 Y40.190 E203.9007
G1 X147.003 Y31.759 E204.1811
G1 X147.403 Y31.759 E204.1944
G1 X147.403 Y40.190 E204.4748
G1 X147.803 Y40.190 E204.4882
G1 X147.803 Y31.759 E204.7686
G1 X148.203 Y31.759 E204.7819
G1 X148.203 Y40.190 E205.0623
G1 X148.603 Y40.059 E205.0763
G1 X148.603 Y31.759 E205.3524
G1 X149.003 Y31.759 E205.3657
G1 X149.003 Y40.059 E205.6417
G1 X149.403 Y40.059 E205.6550
G1 X149.403 Y31.759 E205.9311
G1 X149.803 Y31.759 E205.9444
G1 X149.803 Y40.059 E206.2204
G1 X150.203 Y40.059 E206.2337
G1 X150.203 Y31.759 E206.5098
G1 X150.603 Y31.759 E206.5231
G1 X150.603 Y40.059 E206.7991
G1 X151.003 Y40.059 E206.8124
G1 X151.003 Y31.759 E207.0885
G1 X151.403 Y31.759 E207.1018
G1 X151.403 Y39.927 E207.3734
G1 X151.803 Y39.927 E207.3868
G1 X151.803 Y31.759 E207.6584
G1 X152.203 Y31.759 E207.6717
G1 X152.203 Y39.927 E207.9434
G1 X152.603 Y39.927 E207.9567
G1 X152.603 Y31.759 E208.2284
G1 X153.003 Y31.759 E208.2417
G1 X153.003 Y39.927 E208.5133
G1 X153.403 Y39.795 E208.5274
G1 X153.403 Y31.759 E208.7946
G1 X153.803 Y31.759 E208.8079
G1 X153.803 Y39.795 E209.0752
G1 X154.203 Y39.795 E209.0885
G1 X154.203 Y31.759 E209.3558
G1 X154.603 Y31.759 E209.3691
G1 X154.603 Y39.795 E209.6364
G1 X155.003 Y39.795 E209.6497
G1 X155.003 Y31.759 E209.9170
G1 X155.403 Y31.759 E209.9303
G1 X155.403 Y39.795 E210.1976
G1 X155.803 Y39.795 E210.2109
G1 X155.803 Y31.759 E210.4782
G1 X156.203 Y31.759 E210.4915
G1 X156.203 Y39.663 E210.7544
G1 X156.603 Y39.663 E210.7677
G1 X156.603 Y31.759 E211.0306
G1 X157.003 Y31.759 E211.0439
G1 X157.003 Y39.663 E211.3068
G1 X157.403 Y39.663 E211.3201
G1 X157.403 Y31.759 E211.5830
G1 X157.804 Y31.759 E211.5963
G1 X157.804 Y39.663 E211.8592
G1 X158.203 Y39.663 E211.8725
G1 X158.203 Y31.759 E212.1354
G1 X158.603 Y31.759 E212.1487
G1 X158.603 Y39.663 E212.4116
G1 X159.004 Y39.532 E212.4256
G1 X159.004 Y31.759 E212.6841
G1 X159.404 Y31.759 E212.6974
G1 X159.404 Y39.532 E212.9559
G1 X159.804 Y39.532 E212.9693
G1 X159.804 Y31.759 E213.2278
G1 X160.203 Y31.759 E213.2411
G1 X160.203 Y39.532 E213.4996
G1 X160.604 Y39.532 E213.5129
G1 X160.604 Y31.759 E213.7714
G1 X161.004 Y31.759 E213.7847
G1 X161.004 Y39.532 E214.0432
G1 X161.404 Y39.400 E214.0572
G1 X161.404 Y31.759 E214.3114
G1 X161.804 Y31.759 E214.3247
G1 X161.804 Y39.400 E214.5788
G1 X162.204 Y39.400 E214.5921
G1 X162.204 Y31.759 E214.8462
G1 X162.604 Y31.759 E214.8596
G1 X162.604 Y39.400 E215.1137
G1 X163.004 Y39.400 E215.1270
G1 X163.004 Y31.759 E215.3811
G1 X163.404 Y31.759 E215.3944
G1 X163.404 Y39.400 E215.6486
G1 X163.804 Y39.268 E215.6626
G1 X163.804 Y31.759 E215.9123
G1 X164.204 Y31.759 E215.9256
G1 X164.204 Y39.268 E216.1754
G1 X164.604 Y39.268 E216.1887
G1 X164.604 Y31.759 E216.4385
G1 X165.004 Y31.759 E216.4518
G1 X165.004 Y39.268 E216.7015
G1 X165.404 Y39.268 E216.7148
G1 X165.404 Y31.759 E216.9646
G1 X165.804 Y31.759 E216.9779
G1 X165.804 Y39.268 E217.2276
G1 X166.204 Y39.268 E217.2409
G1 X166.204 Y31.759 E217.4907
G1 X166.604 Y31.759 E217.5040
G1 X166.604 Y39.136 E217.7494
G1 X167.004 Y39.136 E217.7627
G1 X167.004 Y31.759 E218.0081
G1 X167.404 Y31.759 E218.0214
G1 X167.404 Y39.136 E218.2668
G1 X167.804 Y39.136 E218.2801
G1 X167.804 Y31.759 E218.5254
G1 X168.204 Y31.759 E218.5387
G1 X168.204 Y39.136 E218.7841
G1 X168.604 Y39.136 E218.7974
G1 X168.604 Y31.759 E219.0428
G1 X169.004 Y31.759 E219.0561
G1 X169.004 Y39.005 E219.2971
G1 X169.404 Y39.005 E219.3104
G1 X169.404 Y31.759 E219.5514
G1 X169.804 Y31.759 E219.5647
G1 X169.804 Y39.005 E219.8057
G1 X170.204 Y39.005 E219.8190
G1 X170.204 Y31.759 E220.0600
G1 X170.604 Y31.759 E220.0733
G1 X170.604 Y39.005 E220.3143
G1 X171.004 Y39.005 E220.3276
G1 X171.004 Y31.759 E220.5686
G1 X171.404 Y31.759 E220.5819
G1 X171.404 Y39.005 E220.8229
G1 X171.804 Y38.873 E220.8369
G1 X171.804 Y31.759 E221.0735
G1 X172.204 Y31.759 E221.0868
G1 X172.204 Y38.873 E221.3234
G1 X172.604 Y38.873 E221.3367
G1 X172.604 Y31.759 E221.5733
G1 X173.004 Y31.759 E221.5867
G1 X173.004 Y38.873 E221.8233
G1 X173.403 Y38.873 E221.8366
G1 X173.403 Y31.759 E222.0732
G1 X173.803 Y31.759 E222.0865
G1 X173.803 Y38.873 E222.3231
G1 X174.203 Y38.741 E222.3371
G1 X174.203 Y31.759 E222.5693
G1 X174.603 Y31.759 E222.5826
G1 X174.603 Y38.741 E222.8148
G1 X175.003 Y38.741 E222.8281
G1 X175.003 Y31.759 E223.0604
G1 X175.403 Y31.759 E223.0737
G1 X175.403 Y38.741 E223.3059
G1 X175.803 Y38.741 E223.3192
G1 X175.803 Y31.759 E223.5514
G1 X176.203 Y31.759 E223.5647
G1 X176.203 Y38.741 E223.7969
G1 X176.603 Y38.609 E223.8110
G1 X176.603 Y31.759 E224.0388
G1 X177.003 Y31.759 E224.0521
G1 X177.003 Y38.609 E224.2800
G1 X177.403 Y38.609 E224.2933
G1 X177.403 Y31.759 E224.5211
G1 X177.803 Y31.759 E224.5344
G1 X177.803 Y38.609 E224.7623
G1 X178.203 Y38.609 E224.7756
G1 X178.203 Y31.759 E225.0034
G1 X178.603 Y31.759 E225.0167
G1 X178.603 Y38.609 E225.2445
G1 X179.003 Y38.609 E225.2579
G1 X179.003 Y31.759 E225.4857
G1 X179.403 Y31.759 E225.4990
G1 X179.403 Y38.478 E225.7225
G1 X179.803 Y38.478 E225.7358
G1 X179.803 Y31.759 E225.9592
G1 X180.203 Y31.759 E225.9725
G1 X180.203 Y38.478 E226.1960
G1 X180.603 Y38.478 E226.2093
G1 X180.603 Y31.759 E226.4328
G1 X181.003 Y31.759 E226.4461
G1 X181.003 Y38.478 E226.6696
G1 X181.403 Y38.478 E226.6829
G1 X181.403 Y31.759 E226.9063
G1 X181.803 Y31.759 E226.9196
G1 X181.803 Y38.478 E227.1431
G1 X182.203 Y38.478 E227.1564
G1 X182.203 Y31.759 E227.3799
G1 X182.603 Y31.759 E227.3932
G1 X182.603 Y38.478 E227.6166
G1 X183.003 Y38.478 E227.6299
G1 X183.003 Y31.759 E227.8534
G1 X183.403 Y31.759 E227.8667
G1 X183.403 Y38.478 E228.0902
G1 X183.803 Y38.478 E228.1035
G1 X183.803 Y31.759 E228.3269
G1 X184.203 Y31.759 E228.3403
G1 X184.203 Y38.478 E228.5637
G1 X184.603 Y38.478 E228.5770
G1 X184.603 Y31.759 E228.8005
G1 X185.003 Y31.759 E228.8138
G1 X185.003 Y38.478 E229.0373
G1 X185.403 Y38.478 E229.0506
G1 X185.403 Y31.759 E229.2740
G1 X185.803 Y31.759 E229.2873
G1 X185.803 Y38.478 E229.5108
G1 X186.203 Y38.346 E229.5248
G1 X186.203 Y31.759 E229.7439
G1 X186.603 Y31.759 E229.7572
G1 X186.603 Y38.346 E229.9763
G1 X187.003 Y38.346 E229.9896
G1 X187.003 Y31.759 E230.2087
G1 X187.403 Y31.759 E230.2220
G1 X187.403 Y38.346 E230.4411
G1 X187.803 Y38.346 E230.4544
G1 X187.803 Y31.759 E230.6735
G1 X188.203 Y31.759 E230.6868
G1 X188.203 Y38.346 E230.9059
G1 X188.603 Y38.214 E230.9199
G1 X188.603 Y31.759 E231.1346
G1 X189.003 Y31.759 E231.1479
G1 X189.003 Y38.214 E231.3626
G1 X189.403 Y38.214 E231.3759
G1 X189.403 Y31.759 E231.5906
G1 X189.803 Y31.759 E231.6039
G1 X189.803 Y38.214 E231.8186
G1 X190.203 Y38.214 E231.8319
G1 X190.203 Y31.759 E232.0466
G1 X190.603 Y31.759 E232.0599
G1 X190.603 Y38.082 E232.2702
G1 X191.003 Y38.082 E232.2836
G1 X191.003 Y31.759 E232.4939
G1 X191.403 Y31.759 E232.5072
G1 X191.403 Y38.082 E232.7175
G1 X191.803 Y38.082 E232.7308
G1 X191.803 Y31.759 E232.9411
G1 X192.203 Y31.759 E232.9544
G1 X192.203 Y38.082 E233.1648
G1 X192.603 Y38.082 E233.1781
G1 X192.603 Y31.759 E233.3884
G1 X193.003 Y31.759 E233.4017
G1 X193.003 Y37.951 E233.6076
G1 X193.403 Y37.951 E233.6210
G1 X193.403 Y31.759 E233.8269
G1 X193.803 Y31.759 E233.8402
G1 X193.803 Y37.951 E234.0461
G1 X194.203 Y37.951 E234.0594
G1 X194.203 Y31.759 E234.2654
G1 X194.603 Y31.759 E234.2787
G1 X194.603 Y37.951 E234.4846
G1 X195.003 Y37.951 E234.4979
G1 X195.003 Y31.759 E234.7038
G1 X195.403 Y31.759 E234.7171
G1 X195.403 Y37.819 E234.9187
G1 X195.803 Y37.819 E234.9320
G1 X195.803 Y31.759 E235.1336
G1 X196.203 Y31.759 E235.1469
G1 X196.203 Y37.819 E235.3484
G1 X196.603 Y37.819 E235.3617
G1 X196.603 Y31.759 E235.5633
G1 X197.003 Y31.759 E235.5766
G1 X197.003 Y37.819 E235.7781
G1 X197.403 Y37.687 E235.7921
G1 X197.403 Y31.759 E235.9893
G1 X197.803 Y31.759 E236.0026
G1 X197.803 Y37.687 E236.1998
G1 X198.203 Y37.687 E236.2131
G1 X198.203 Y31.759 E236.4103
G1 X198.603 Y31.759 E236.4236
G1 X198.603 Y37.687 E236.6208
G1 X199.003 Y37.687 E236.6341
G1 X199.003 Y31.759 E236.8312
G1 X199.403 Y31.759 E236.8445
G1 X199.403 Y37.687 E237.0417
G1 X199.803 Y37.555 E237.0557
G1 X199.803 Y31.759 E237.2485
G1 X200.203 Y31.759 E237.2618
G1 X200.203 Y37.555 E237.4546
G1 X200.603 Y37.555 E237.4679
G1 X200.603 Y31.759 E237.6607
G1 X201.003 Y31.759 E237.6740
G1 X201.003 Y37.555 E237.8668
G1 X201.403 Y37.555 E237.8801
G1 X201.403 Y31.759 E238.0729
G1 X201.803 Y31.759 E238.0862
G1 X201.803 Y37.424 E238.2746
G1 X202.203 Y37.424 E238.2879
G1 X202.203 Y31.759 E238.4764
G1 X202.603 Y31.759 E238.4897
G1 X202.603 Y37.424 E238.6781
G1 X203.003 Y37.424 E238.6914
G1 X203.003 Y31.759 E238.8798
G1 X203.403 Y31.759 E238.8931
G1 X203.403 Y37.424 E239.0815
G1 X203.803 Y37.424 E239.0948
G1 X203.803 Y31.759 E239.2832
G1 X204.203 Y31.759 E239.2966
G1 X204.203 Y37.292 E239.4806
G1 X204.603 Y37.292 E239.4939
G1 X204.603 Y31.759 E239.6779
G1 X205.003 Y31.759 E239.6912
G1 X205.003 Y37.292 E239.8753
G1 X205.403 Y37.292 E239.8886
G1 X205.403 Y31.759 E240.0726
G1 X205.803 Y31.759 E240.0859
G1 X205.803 Y37.292 E240.2700
G1 X206.203 Y37.292 E240.2833
G1 X206.203 Y31.759 E240.4673
G1 X206.603 Y31.759 E240.4806
G1 X206.603 Y37.160 E240.6602
G1 X207.003 Y37.160 E240.6736
G1 X207.003 Y31.759 E240.8532
G1 X207.403 Y31.759 E240.8665
G1 X207.403 Y37.160 E241.0461
G1 X207.803 Y37.160 E241.0594
G1 X207.803 Y31.759 E241.2391
G1 X208.203 Y31.759 E241.2524
G1 X208.203 Y37.160 E241.4320
G1 X208.603 Y37.029 E241.4460
G1 X208.603 Y31.759 E241.6213
G1 X209.003 Y31.759 E241.6346
G1 X209.003 Y37.029 E241.8099
G1 X209.403 Y37.029 E241.8232
G1 X209.403 Y31.759 E241.9984
G1 X209.803 Y31.759 E242.0117
G1 X209.803 Y37.029 E242.1870
G1 X210.203 Y37.029 E242.2003
G1 X210.203 Y31.759 E242.3756
G1 X210.603 Y31.759 E242.3889
G1 X210.603 Y37.029 E242.5641
G1 X211.003 Y36.897 E242.5782
G1 X211.003 Y31.759 E242.7490
G1 X211.403 Y31.759 E242.7623
G1 X211.403 Y36.897 E242.9332
G1 X211.803 Y36.897 E242.9465
G1 X211.803 Y31.759 E243.1174
G1 X212.203 Y31.759 E243.1307
G1 X212.203 Y36.897 E243.3016
G1 X212.603 Y36.897 E243.3149
G1 X212.603 Y31.759 E243.4858
G1 X213.003 Y31.759 E243.4991
G1 X213.003 Y36.765 E243.6656
G1 X213.403 Y36.765 E243.6789
G1 X213.403 Y31.759 E243.8454
G1 X213.803 Y31.759 E243.8587
G1 X213.803 Y36.765 E244.0252
G1 X214.203 Y36.765 E244.0385
G1 X214.203 Y31.759 E244.2050
G1 X214.603 Y31.759 E244.2183
G1 X214.603 Y36.765 E244.3848
G1 X215.003 Y36.765 E244.3981
G1 X215.003 Y31.759 E244.5646
G1 X215.403 Y31.759 E244.5780
G1 X215.403 Y36.633 E244.7401
G1 X215.803 Y36.633 E244.7534
G1 X215.803 Y31.759 E244.9155
G1 X216.203 Y31.759 E244.9288
G1 X216.203 Y36.633 E245.0909
G1 X216.603 Y36.633 E245.1042
G1 X216.603 Y31.759 E245.2664
G1 X217.003 Y31.759 E245.2797
G1 X217.003 Y36.633 E245.4418
G1 X217.403 Y36.633 E245.4551
G1 X217.403 Y31.759 E245.6172
G1 X217.803 Y32.154 E245.6359
G1 X217.803 Y36.238 E245.7718
G1 X218.203 Y35.711 E245.7938
G1 X218.203 Y32.681 E245.8946
G1 X218.603 Y33.076 E245.9133
G1 X218.603 Y35.316 E245.9878
G0 F3000 E244.9878
G0 X81.003 Y52.574 F7200
G0 F3000 E245.9878
G1 X81.003 Y88.802 E247.1927 F2400
G1 X80.603 Y89.724 E247.2261
G1 X80.603 Y53.628 E248.4267
G0 X80.203 Y54.682 F7200
G1 X80.203 Y90.646 E249.6229 F2400
G1 X79.803 Y91.569 E249.6564
G1 X79.803 Y55.736 E250.8482


; ------------------------------------
; Layer #0
; ------------------------------------
G21 ; mm
G90 ; abs
G92 E0 ;reset extr
G0 F1200 Z1.950
;segType:HShell
G0 F3000 E-1.0000
G0 X47.000 Y165.059 F5400
G0 F3000 E0.0000
G1 X44.685 Y162.745 E0.1633 F2400
G0 X44.534 Y163.160 F5400
G1 X46.434 Y165.059 E0.2973 F2400
G0 X45.868 Y165.059 F5400
G1 X44.383 Y163.575 E0.4021 F2400
G0 X44.232 Y163.989 F5400
G1 X45.302 Y165.059 E0.4776 F2400
G0 X44.737 Y165.059 F5400
G1 X44.081 Y164.404 E0.5238 F2400
;segType:Perimeter
G0 X42.766 Y165.794 F5400
G1 X90.674 Y34.180 E7.5115 F1440
G1 X207.414 Y34.180 E13.3357
G1 X207.528 Y34.279 E13.3470
G1 X207.643 Y34.275 E13.3554
G1 X207.757 Y34.272 E13.3637
G1 X207.871 Y34.269 E13.3719
G1 X207.985 Y34.265 E13.3800
G1 X208.100 Y34.262 E13.3881
G1 X208.214 Y34.258 E13.3960
G1 X208.328 Y34.255 E13.4038
G1 X208.443 Y34.252 E13.4116
G1 X208.557 Y34.248 E13.4192
G1 X208.671 Y34.245 E13.4267
G1 X208.785 Y34.241 E13.4342
G1 X208.900 Y34.238 E13.4415
G1 X209.014 Y34.235 E13.4488
G1 X209.128 Y34.231 E13.4559
G1 X209.243 Y34.228 E13.4630
G1 X209.357 Y34.224 E13.4700
G1 X209.471 Y34.221 E13.4768
G1 X209.585 Y34.218 E13.4836
G1 X209.700 Y34.214 E13.4903
G1 X209.814 Y34.211 E13.4968
G1 X209.928 Y34.207 E13.5033
G1 X210.043 Y34.204 E13.5097
G1 X210.157 Y34.201 E13.5160
G1 X210.271 Y34.197 E13.5221
G1 X210.385 Y34.194 E13.5282
G1 X210.500 Y34.190 E13.5342
G1 X210.614 Y34.187 E13.5401
G1 X210.728 Y34.184 E13.5459
G1 X210.843 Y34.180 E13.5516
G1 X210.957 Y34.177 E13.5572
G1 X211.071 Y34.173 E13.5627
G1 X211.185 Y34.170 E13.5681
G1 X211.300 Y34.167 E13.5734
G1 X211.414 Y34.163 E13.5787
G1 X211.528 Y34.160 E13.5838
G1 X211.643 Y34.156 E13.5888
G1 X211.757 Y34.153 E13.5937
G1 X211.871 Y34.150 E13.5986
G1 X211.985 Y34.146 E13.6033
G1 X212.100 Y34.143 E13.6079
G1 X212.214 Y34.139 E13.6125
G1 X212.328 Y34.136 E13.6169
G1 X212.443 Y34.133 E13.6212
G1 X212.557 Y34.129 E13.6255
G1 X212.671 Y34.126 E13.6296
G1 X212.785 Y34.122 E13.6337
G1 X212.900 Y34.119 E13.6376
G1 X213.014 Y34.116 E13.6415
G1 X213.128 Y34.112 E13.6453
G1 X213.243 Y34.109 E13.6489
G1 X213.357 Y34.106 E13.6525
G1 X213.471 Y34.102 E13.6560
G1 X213.585 Y34.099 E13.6593
G1 X213.700 Y34.095 E13.6626
G1 X213.814 Y34.092 E13.6658
G1 X213.928 Y34.089 E13.6689
G1 X214.043 Y34.085 E13.6719
G1 X214.157 Y34.082 E13.6747
G0 X207.528 Y34.279 F5400
G1 X207.414 Y34.384 E13.6825 F1440
G1 X183.771 Y35.791 E14.8642
G1 X178.746 Y35.791 E15.1149
G1 X156.328 Y36.954 E16.2348
G1 X146.818 Y37.463 E16.7099
G1 X135.768 Y38.283 E17.2627
G1 X127.676 Y39.308 E17.6697
G1 X121.817 Y40.461 E17.9676
G1 X116.652 Y41.914 E18.2353
G1 X111.999 Y43.710 E18.4841
G1 X107.720 Y45.903 E18.7240
G1 X103.692 Y48.582 E18.9653
G1 X99.838 Y51.844 E19.2172
G1 X99.243 Y52.419 E19.2585
G1 X95.404 Y56.634 E19.5429
G1 X91.910 Y61.322 E19.8346
G1 X88.319 Y67.061 E20.1724
G1 X84.490 Y74.228 E20.5778
G1 X80.204 Y83.428 E21.0842
G1 X75.097 Y95.680 E21.7464
G1 X68.751 Y112.150 E22.6269
G1 X57.817 Y141.851 E24.2059
G1 X57.649 Y142.308 E24.2302
G1 X49.088 Y165.820 E25.4786
G1 X42.784 Y165.820 E25.7931
;segType:Loop
G0 X43.498 Y164.954 F5400
G1 X90.954 Y34.580 E32.7149 F2400
G1 X193.928 Y34.580 E37.8524
G1 X194.043 Y34.680 E37.8637
G1 X194.157 Y34.676 E37.8721
G1 X194.271 Y34.673 E37.8805
G1 X194.385 Y34.670 E37.8887
G1 X194.500 Y34.666 E37.8969
G1 X194.614 Y34.663 E37.9049
G1 X194.728 Y34.659 E37.9129
G1 X194.843 Y34.656 E37.9207
G1 X194.957 Y34.653 E37.9285
G1 X195.071 Y34.649 E37.9362
G1 X195.185 Y34.646 E37.9437
G1 X195.300 Y34.642 E37.9512
G1 X195.414 Y34.639 E37.9586
G1 X195.528 Y34.636 E37.9659
G1 X195.643 Y34.632 E37.9731
G1 X195.757 Y34.629 E37.9801
G1 X195.871 Y34.625 E37.9871
G1 X195.985 Y34.622 E37.9940
G1 X196.100 Y34.619 E38.0008
G1 X196.214 Y34.615 E38.0075
G1 X196.328 Y34.612 E38.0141
G1 X196.443 Y34.608 E38.0206
G1 X196.557 Y34.605 E38.0270
G1 X196.671 Y34.602 E38.0333
G1 X196.785 Y34.598 E38.0395
G1 X196.900 Y34.595 E38.0457
G1 X197.014 Y34.591 E38.0517
G1 X197.128 Y34.588 E38.0576
G1 X197.243 Y34.585 E38.0634
G1 X197.357 Y34.581 E38.0692
G1 X197.471 Y34.578 E38.0748
G1 X197.585 Y34.574 E38.0803
G1 X197.700 Y34.571 E38.0858
G1 X197.814 Y34.568 E38.0911
G1 X197.928 Y34.564 E38.0963
G1 X198.043 Y34.561 E38.1015
G1 X198.157 Y34.557 E38.1065
G1 X198.271 Y34.554 E38.1115
G1 X198.385 Y34.551 E38.1163
G1 X198.500 Y34.547 E38.1211
G1 X198.614 Y34.544 E38.1258
G1 X198.728 Y34.540 E38.1303
G1 X198.843 Y34.537 E38.1348
G1 X198.957 Y34.534 E38.1392
G1 X199.071 Y34.530 E38.1434
G1 X199.185 Y34.527 E38.1476
G1 X199.300 Y34.523 E38.1517
G1 X199.414 Y34.520 E38.1557
G1 X199.528 Y34.517 E38.1596
G1 X199.643 Y34.513 E38.1634
G1 X199.757 Y34.510 E38.1671
G1 X199.871 Y34.506 E38.1707
G1 X199.985 Y34.503 E38.1742
G1 X200.100 Y34.500 E38.1776
G1 X200.214 Y34.496 E38.1809
G1 X200.328 Y34.493 E38.1841
G1 X200.443 Y34.489 E38.1872
G1 X200.557 Y34.486 E38.1902
G1 X200.671 Y34.483 E38.1931
G0 X194.043 Y34.680 F5400
G1 X193.928 Y34.786 E38.2009 F2400
G1 X183.759 Y35.391 E38.7092
G1 X178.735 Y35.391 E38.9598
G1 X156.328 Y36.553 E40.0792
G1 X146.792 Y37.064 E40.5556
G1 X135.728 Y37.885 E41.1091
G1 X127.612 Y38.912 E41.5173
G1 X121.723 Y40.072 E41.8167
G1 X116.525 Y41.534 E42.0861
G1 X111.835 Y43.344 E42.3369
G1 X107.518 Y45.558 E42.5789
G1 X103.452 Y48.261 E42.8226
G1 X99.569 Y51.548 E43.0763
G1 X98.956 Y52.139 E43.1189
G1 X95.095 Y56.379 E43.4049
G1 X91.579 Y61.096 E43.6984
G1 X87.973 Y66.861 E44.0377
G1 X84.132 Y74.049 E44.4443
G1 X79.838 Y83.267 E44.9516
G1 X74.726 Y95.531 E45.6145
G1 X68.377 Y112.009 E46.4955
G1 X57.433 Y141.736 E48.0759
G1 X57.265 Y142.193 E48.1002
G1 X48.808 Y165.420 E49.3334
G1 X43.328 Y165.420 E49.6068
G1 X43.430 Y165.142 E49.6215
;segType:HShell
G0 X47.565 Y165.059 F5400
G1 X44.836 Y162.330 E49.8141 F2400
G0 X44.987 Y161.916 F5400
G1 X48.131 Y165.059 E50.0359 F2400
G0 X48.594 Y164.957 F5400
G1 X45.138 Y161.501 E50.2797 F2400
G0 X45.289 Y161.086 F5400
G1 X48.745 Y164.542 E50.5235 F2400
G0 X48.896 Y164.127 F5400
G1 X45.440 Y160.671 E50.7674 F2400
G0 X45.591 Y160.257 F5400
G1 X49.047 Y163.713 E51.0112 F2400
G0 X49.198 Y163.298 F5400
G1 X45.742 Y159.842 E51.2550 F2400
G0 X45.893 Y159.427 F5400
G1 X49.349 Y162.883 E51.4988 F2400
G0 X49.500 Y162.468 F5400
G1 X46.044 Y159.013 E51.7427 F2400
G0 X46.195 Y158.598 F5400
G1 X49.651 Y162.054 E51.9865 F2400
G0 X49.802 Y161.639 F5400
G1 X46.346 Y158.183 E52.2303 F2400
G0 X46.497 Y157.768 F5400
G1 X49.953 Y161.224 E52.4742 F2400
G0 X50.104 Y160.810 F5400
G1 X46.648 Y157.354 E52.7180 F2400
G0 X46.799 Y156.939 F5400
G1 X50.255 Y160.395 E52.9619 F2400
G0 X50.406 Y159.980 F5400
G1 X46.950 Y156.524 E53.2057 F2400
G0 X47.101 Y156.110 F5400
G1 X50.557 Y159.566 E53.4496 F2400
G0 X50.708 Y159.151 F5400
G1 X47.252 Y155.695 E53.6934 F2400
G0 X47.402 Y155.280 F5400
G1 X50.859 Y158.736 E53.9373 F2400
G0 X51.010 Y158.322 F5400
G1 X47.553 Y154.865 E54.1811 F2400
G0 X47.704 Y154.451 F5400
G1 X51.161 Y157.907 E54.4250 F2400
G0 X51.312 Y157.492 F5400
G1 X47.855 Y154.036 E54.6688 F2400
G0 X48.006 Y153.621 F5400
G1 X51.463 Y157.077 E54.9127 F2400
G0 X51.614 Y156.663 F5400
G1 X48.157 Y153.206 E55.1566 F2400
G0 X48.308 Y152.792 F5400
G1 X51.765 Y156.248 E55.4004 F2400
G0 X51.916 Y155.833 F5400
G1 X48.459 Y152.377 E55.6443 F2400
G0 X48.610 Y151.962 F5400
G1 X52.067 Y155.419 E55.8882 F2400
G0 X52.218 Y155.004 F5400
G1 X48.761 Y151.548 E56.1320 F2400
G0 X48.912 Y151.133 F5400
G1 X52.369 Y154.589 E56.3759 F2400
G0 X52.520 Y154.175 F5400
G1 X49.063 Y150.718 E56.6198 F2400
G0 X49.214 Y150.303 F5400
G1 X52.671 Y153.760 E56.8637 F2400
G0 X52.822 Y153.345 F5400
G1 X49.365 Y149.889 E57.1075 F2400
G0 X49.516 Y149.474 F5400
