; GCode generated by CraftWare

G28 X0 Y0
G28 Z0


M104 S215 ;set head temp (no wait)
M190 S60 ;set bed temp (wait)
M109 S215 ;set head temp (wait)

; ------------------------------------
; Raft Layer #0
; ------------------------------------
M106 S0 ;turn off fan
G21 ; mm
G90 ; abs
G92 E0 ;reset extr
G0 F1200 Z0.300
;segType:Raft
G0 F3000 E-1.0000
G0 F1200 Z2.300
G0 X152.211 Y132.104 F5400
G0 F1200 Z0.300
G0 F3000 E0.0000
G1 X150.769 Y125.159 E0.3539 F600
G1 X149.197 Y118.345 E0.7028
G1 X146.576 Y110.483 E1.1162
G1 X143.955 Y104.717 E1.4322
G1 X140.941 Y99.345 E1.7395
G1 X140.155 Y98.034 E1.8158
G1 X138.386 Y95.610 E1.9655
G1 X136.552 Y93.252 E2.1146
G1 X134.652 Y90.958 E2.2632
G1 X132.555 Y88.862 E2.4111
G1 X130.262 Y86.962 E2.5596
G1 X127.903 Y85.127 E2.7087
G1 X125.348 Y83.489 E2.8602
G1 X122.662 Y81.982 E3.0138
G1 X119.910 Y80.541 E3.1688
G1 X116.961 Y79.296 E3.3285
G1 X113.882 Y78.182 E3.4918
G1 X110.672 Y77.199 E3.6594
G1 X105.627 Y75.955 E3.9186
G1 X103.792 Y75.693 E4.0110
G1 X102.154 Y74.185 E4.1221
G1 X102.154 Y64.751 E4.5928
G1 X103.071 Y63.571 E4.6673
G1 X103.661 Y63.112 E4.7046
G1 X105.758 Y63.112 E4.8092
G1 X111.917 Y65.340 E5.1360
G1 X114.931 Y66.519 E5.2974
G1 X118.076 Y67.568 E5.4628
G1 X121.089 Y68.747 E5.6243
G1 X124.234 Y69.795 E5.7897
G1 X127.248 Y70.975 E5.9512
G1 X130.393 Y72.023 E6.1165
G1 X133.407 Y73.202 E6.2780
G1 X136.552 Y74.251 E6.4434
G1 X139.566 Y75.430 E6.6049
G1 X154.963 Y80.999 E7.4217
G1 X156.405 Y81.655 E7.5007
G1 X157.453 Y82.703 E7.5747
G1 X157.715 Y83.489 E7.6160
G1 X157.715 Y134.856 E10.1788
G1 X157.453 Y135.642 E10.2201
G1 X156.405 Y136.691 E10.2941
G1 X154.373 Y136.757 E10.3955
G1 X154.045 Y136.560 E10.4145
G1 X152.997 Y135.511 E10.4885
G1 X152.211 Y132.104 E10.6630
G0 F3000 E9.6630
G0 X153.803 Y135.249 F5400
G0 F3000 E10.6630
G1 X153.803 Y81.655 E13.3368 F600
G0 F3000 E12.3368
G0 X149.803 Y80.082 F5400
G0 F3000 E13.3368
G1 X149.803 Y117.559 E15.2065 F600
G0 F3000 E14.2065
G0 X145.803 Y106.814 F5400
G0 F3000 E15.2065
G1 X145.803 Y78.641 E16.6121 F600
G0 F3000 E15.6121
G0 X141.803 Y77.199 F5400
G0 F3000 E16.6121
G1 X141.803 Y99.083 E17.7039 F600
G0 F3000 E16.7039
G0 X137.803 Y93.579 F5400
G0 F3000 E17.7039
G1 X137.803 Y75.758 E18.5930 F600
G0 F3000 E17.5930
G0 X133.803 Y74.316 F5400
G0 F3000 E18.5930
G1 X133.803 Y88.993 E19.3252 F600
G0 F3000 E18.3252
G0 X129.803 Y85.586 F5400
G0 F3000 E19.3252
G1 X129.803 Y72.875 E19.9593 F600
G0 F3000 E18.9593
G0 X125.803 Y71.434 F5400
G0 F3000 E19.9593
G1 X125.803 Y82.834 E20.5281 F600
G0 F3000 E19.5281
G0 X121.803 Y80.606 F5400
G0 F3000 E20.5281
G1 X121.803 Y69.861 E21.0642 F600
G0 F3000 E20.0642
G0 X117.803 Y68.551 F5400
G0 F3000 E21.0642
G1 X117.803 Y78.772 E21.5741 F600
G0 F3000 E20.5741
G0 X113.803 Y77.330 F5400
G0 F3000 E21.5741
G1 X113.803 Y66.978 E22.0906 F600
G0 F3000 E21.0906
G0 X109.803 Y65.537 F5400
G0 F3000 E22.0906
G1 X109.803 Y76.151 E22.6201 F600
G0 F3000 E21.6201
G0 X105.803 Y75.234 F5400
G0 F3000 E22.6201
G1 X105.803 Y64.095 E23.1758 F600



; ------------------------------------
; Raft Layer #1
; ------------------------------------
M106 S0 ;turn off fan
G92 E0 ;reset extr
G0 F1200 Z0.600
;segType:Raft
G0 X108.772 Y64.197 F7200
G1 X102.351 Y64.197 E0.3203 F2400
G0 X102.089 Y65.530 F7200
G1 X112.310 Y65.530 E0.8303 F2400
G0 F3000 E-0.1697
G0 X115.979 Y66.863 F7200
G0 F3000 E0.8303
G1 X102.089 Y66.863 E1.5232 F2400
G1 X102.089 Y68.197 E1.5898
G1 X119.517 Y68.197 E2.4593
G0 F3000 E1.4593
G0 X123.186 Y69.530 F7200
G0 F3000 E2.4593
G1 X102.089 Y69.530 E3.5118 F2400
G1 X102.089 Y70.863 E3.5783
G1 X127.117 Y70.863 E4.8270
G0 F3000 E3.8270
G0 X130.786 Y72.197 F7200
G0 F3000 E4.8270
G1 X102.089 Y72.197 E6.2587 F2400
G1 X102.089 Y73.530 E6.3252
G1 X134.324 Y73.530 E7.9335
G0 F3000 E6.9335
G0 X137.993 Y74.863 F7200
G0 F3000 E7.9335
G1 X102.744 Y74.863 E9.6921 F2400
G0 F3000 E8.6921
G0 X106.282 Y76.197 F7200
G0 F3000 E9.6921
G1 X141.531 Y76.197 E11.4507 F2400
G0 F3000 E10.4507
G0 X145.463 Y77.530 F7200
G0 F3000 E11.4507
G1 X111.917 Y77.530 E13.1243 F2400
G0 F3000 E12.1243
G0 X115.848 Y78.863 F7200
G0 F3000 E13.1243
G1 X149.132 Y78.863 E14.7848 F2400
G0 F3000 E13.7848
G0 X152.670 Y80.197 F7200
G0 F3000 E14.7848
G1 X119.124 Y80.197 E16.4584 F2400
G0 F3000 E15.4584
G0 X121.876 Y81.530 F7200
G0 F3000 E16.4584
G1 X156.208 Y81.530 E18.1713 F2400
G0 X157.518 Y82.863 F7200
G1 X124.234 Y82.863 E19.8318 F2400
G0 X126.331 Y84.197 F7200
G1 X157.649 Y84.197 E21.3943 F2400
G1 X157.649 Y85.530 E21.4608
G1 X128.428 Y85.530 E22.9187
G0 X130.131 Y86.863 F7200
G1 X157.649 Y86.863 E24.2915 F2400
G1 X157.649 Y88.197 E24.3581
G1 X131.704 Y88.197 E25.6525
G0 X133.145 Y89.530 F7200
G1 X157.649 Y89.530 E26.8750 F2400
G1 X157.649 Y90.863 E26.9415
G1 X134.455 Y90.863 E28.0987
G0 X135.635 Y92.197 F7200
G1 X157.649 Y92.197 E29.1970 F2400
G1 X157.649 Y93.530 E29.2635
G1 X136.814 Y93.530 E30.3030
G0 X137.862 Y94.863 F7200
G1 X157.649 Y94.863 E31.2901 F2400
G1 X157.649 Y96.197 E31.3567
G1 X138.780 Y96.197 E32.2981
G0 X139.697 Y97.530 F7200
G1 X157.649 Y97.530 E33.1937 F2400
G1 X157.649 Y98.863 E33.2602
G1 X140.483 Y98.863 E34.1167
G0 X141.400 Y100.197 F7200
G1 X157.649 Y100.197 E34.9273 F2400
G1 X157.649 Y101.530 E34.9938
G1 X142.187 Y101.530 E35.7653
G0 X142.842 Y102.863 F7200
G1 X157.649 Y102.863 E36.5040 F2400
G1 X157.649 Y104.197 E36.5705
G1 X143.628 Y104.197 E37.2700
G0 X144.283 Y105.530 F7200
G1 X157.649 Y105.530 E37.9369 F2400
G1 X157.649 Y106.863 E38.0034
G1 X144.938 Y106.863 E38.6375
G0 X145.463 Y108.197 F7200
G1 X157.649 Y108.197 E39.2455 F2400
G1 X157.649 Y109.530 E39.3120
G1 X146.118 Y109.530 E39.8873
G0 X146.642 Y110.863 F7200
G1 X157.649 Y110.863 E40.4365 F2400
G1 X157.649 Y112.197 E40.5030
G1 X147.035 Y112.197 E41.0326
G0 X147.559 Y113.530 F7200
G1 X157.649 Y113.530 E41.5359 F2400
G1 X157.649 Y114.863 E41.6025
G1 X147.952 Y114.863 E42.0862
G0 X148.476 Y116.197 F7200
G1 X157.649 Y116.197 E42.5439 F2400
G1 X157.649 Y117.530 E42.6104
G1 X148.870 Y117.530 E43.0484
G0 X149.263 Y118.863 F7200
G1 X157.649 Y118.863 E43.4668 F2400
G1 X157.649 Y120.197 E43.5333
G1 X149.525 Y120.197 E43.9387
G0 X149.918 Y121.530 F7200
G1 X157.649 Y121.530 E44.3244 F2400
G1 X157.649 Y122.863 E44.3909
G1 X150.180 Y122.863 E44.7635
G0 X150.442 Y124.197 F7200
G1 X157.649 Y124.197 E45.1231 F2400
G1 X157.649 Y125.530 E45.1896
G1 X150.835 Y125.530 E45.5296
G0 X151.097 Y126.863 F7200
G1 X157.649 Y126.863 E45.8564 F2400
G1 X157.649 Y128.197 E45.9230
G1 X151.359 Y128.197 E46.2368
G0 X151.621 Y129.530 F7200
G1 X157.649 Y129.530 E46.5375 F2400
G1 X157.649 Y130.863 E46.6040
G1 X151.883 Y130.863 E46.8917
G0 X152.146 Y132.197 F7200
G1 X157.649 Y132.197 E47.1662 F2400
G1 X157.649 Y133.530 E47.2328
G1 X152.408 Y133.530 E47.4943
G0 X152.670 Y134.863 F7200
G1 X157.649 Y134.863 E47.7427 F2400
G0 X156.863 Y136.197 F7200
G1 X153.587 Y136.197 E47.9061 F2400



; ------------------------------------
; Raft Layer #2
; ------------------------------------
M106 S0 ;turn off fan
G92 E0 ;reset extr
G0 F1200 Z0.900
;segType:Raft
G0 X153.003 Y135.642 F7200
G1 X153.003 Y80.344 E2.7588 F2400
G1 X153.403 Y80.475 E2.7798
G1 X153.403 Y136.036 E5.5518
G1 X153.803 Y136.429 E5.5797
G1 X153.803 Y80.606 E8.3647
G1 X154.203 Y80.868 E8.3886
G1 X154.203 Y136.822 E11.1801
G1 X154.603 Y136.822 E11.2001
G1 X154.603 Y80.999 E13.9851
G1 X155.003 Y81.130 E14.0061
G1 X155.003 Y136.822 E16.7845
G1 X155.403 Y136.822 E16.8045
G1 X155.403 Y81.262 E19.5764
G1 X155.803 Y81.393 E19.5974
G1 X155.803 Y136.822 E22.3628
G1 X156.203 Y136.822 E22.3827
G1 X156.203 Y81.524 E25.1416
G1 X156.603 Y81.917 E25.1695
G1 X156.603 Y136.560 E27.8957
G1 X157.003 Y136.167 E27.9237
G1 X157.003 Y82.310 E30.6106
G1 X157.403 Y82.703 E30.6386
G1 X157.403 Y135.774 E33.2863
G0 F3000 E32.2863
G0 X152.603 Y133.808 F7200
G0 F3000 E33.2863
G1 X152.603 Y80.213 E35.9602 F2400
G1 X152.203 Y80.082 E35.9812
G1 X152.203 Y131.842 E38.5635
G0 X151.803 Y130.008 F7200
G1 X151.803 Y79.951 E41.0608 F2400
G1 X151.403 Y79.820 E41.0818
G1 X151.403 Y128.042 E43.4876
G0 X151.003 Y126.077 F7200
G1 X151.003 Y79.558 E45.8085 F2400
G1 X150.603 Y79.427 E45.8295
G1 X150.603 Y124.373 E48.0718
G0 X150.203 Y122.670 F7200
G1 X150.203 Y79.296 E50.2358 F2400
G1 X149.803 Y79.165 E50.2568
G1 X149.803 Y120.835 E52.3357
G0 X149.403 Y119.394 F7200
G1 X149.403 Y79.034 E54.3493 F2400
G1 X149.003 Y78.903 E54.3703
G1 X149.003 Y117.952 E56.3185
G0 X148.603 Y116.642 F7200
G1 X148.603 Y78.772 E58.2078 F2400
G1 X148.203 Y78.641 E58.2288
G1 X148.203 Y115.332 E60.0593
G0 X147.803 Y114.152 F7200
G1 X147.803 Y78.510 E61.8375 F2400
G1 X147.403 Y78.379 E61.8585
G1 X147.403 Y112.973 E63.5844
G0 X147.003 Y111.925 F7200
G1 X147.003 Y78.248 E65.2646 F2400
G1 X146.603 Y77.986 E65.2884
G1 X146.603 Y110.876 E66.9294
G1 X146.203 Y109.959 E66.9793
G1 X146.203 Y77.854 E68.5810
G1 X145.803 Y77.723 E68.6020
G1 X145.803 Y109.042 E70.1645
G1 X145.403 Y108.124 E70.2144
G1 X145.403 Y77.592 E71.7376
G1 X145.003 Y77.461 E71.7586
G1 X145.003 Y106.814 E73.2230
G1 X144.603 Y106.028 E73.2670
G1 X144.603 Y77.330 E74.6988
G1 X144.203 Y77.199 E74.7198
G1 X144.203 Y105.242 E76.1188
G1 X143.803 Y104.455 E76.1628
G1 X143.803 Y76.937 E77.5357
G1 X143.403 Y76.806 E77.5567
G1 X143.403 Y103.669 E78.8969
G1 X143.003 Y103.014 E78.9352
G1 X143.003 Y76.675 E80.2492
G1 X142.603 Y76.544 E80.2702
G1 X142.603 Y102.228 E81.5516
G1 X142.203 Y101.572 E81.5899
G1 X142.203 Y76.413 E82.8451
G1 X141.803 Y76.282 E82.8661
G1 X141.803 Y100.786 E84.0886
G1 X141.403 Y100.131 E84.1269
G1 X141.403 Y76.151 E85.3233
G1 X141.003 Y76.020 E85.3443
G1 X141.003 Y99.476 E86.5145
G1 X140.603 Y98.952 E86.5474
G1 X140.603 Y75.889 E87.6980
G1 X140.203 Y75.758 E87.7190
G1 X140.203 Y98.297 E88.8435
G1 X139.803 Y97.641 E88.8818
G1 X139.803 Y75.627 E89.9801
G1 X139.403 Y75.365 E90.0039
G1 X139.403 Y97.117 E91.0892
G1 X139.003 Y96.593 E91.1221
G1 X139.003 Y75.234 E92.1877
G1 X138.603 Y75.103 E92.2087
G1 X138.603 Y96.069 E93.2547
G1 X138.203 Y95.414 E93.2930
G1 X138.203 Y74.972 E94.3129
G1 X137.803 Y74.841 E94.3339
G1 X137.803 Y94.890 E95.3341
G1 X137.403 Y94.234 E95.3724
G1 X137.403 Y74.710 E96.3465
G1 X137.003 Y74.579 E96.3675
G1 X137.003 Y93.841 E97.3285
G1 X136.603 Y93.317 E97.3614
G1 X136.603 Y74.316 E98.3094
G1 X136.203 Y74.185 E98.3304
G1 X136.203 Y92.793 E99.2587
G1 X135.803 Y92.269 E99.2916
G1 X135.803 Y74.054 E100.2003
G1 X135.403 Y73.923 E100.2213
G1 X135.403 Y91.876 E101.1170
G1 X135.003 Y91.483 E101.1449
G1 X135.003 Y73.792 E102.0275
G1 X134.603 Y73.661 E102.0485
G1 X134.603 Y90.958 E102.9115
G1 X134.203 Y90.565 E102.9394
G1 X134.203 Y73.530 E103.7893
G1 X133.803 Y73.399 E103.8103
G1 X133.803 Y90.172 E104.6471
G1 X133.403 Y89.779 E104.6751
G1 X133.403 Y73.268 E105.4988
G1 X133.003 Y73.137 E105.5198
G1 X133.003 Y89.386 E106.3305
G1 X132.603 Y88.993 E106.3585
G1 X132.603 Y73.006 E107.1560
G1 X132.203 Y72.744 E107.1799
G1 X132.203 Y88.731 E107.9775
G1 X131.803 Y88.338 E108.0055
G1 X131.803 Y72.613 E108.7900
G1 X131.403 Y72.482 E108.8110
G1 X131.403 Y88.076 E109.5889
G1 X131.003 Y87.682 E109.6169
G1 X131.003 Y72.351 E110.3818
G1 X130.603 Y72.220 E110.4028
G1 X130.603 Y87.289 E111.1546
G1 X130.203 Y87.027 E111.1785
G1 X130.203 Y72.089 E111.9238
G1 X129.803 Y71.958 E111.9447
G1 X129.803 Y86.634 E112.6769
G1 X129.403 Y86.372 E112.7008
G1 X129.403 Y71.696 E113.4330
G1 X129.003 Y71.565 E113.4540
G1 X129.003 Y85.979 E114.1731
G1 X128.603 Y85.717 E114.1970
G1 X128.603 Y71.434 E114.9096
G1 X128.203 Y71.303 E114.9306
G1 X128.203 Y85.455 E115.6366
G1 X127.803 Y85.193 E115.6605
G1 X127.803 Y71.172 E116.3600
G1 X127.403 Y71.040 E116.3810
G1 X127.403 Y84.800 E117.0674
G1 X127.003 Y84.537 E117.0913
G1 X127.003 Y70.909 E117.7712
G1 X126.603 Y70.778 E117.7922
G1 X126.603 Y84.406 E118.4721
G1 X126.203 Y84.144 E118.4960
G1 X126.203 Y70.647 E119.1693
G1 X125.803 Y70.516 E119.1903
G1 X125.803 Y83.882 E119.8572
G1 X125.403 Y83.620 E119.8810
G1 X125.403 Y70.385 E120.5413
G1 X125.003 Y70.123 E120.5652
G1 X125.003 Y83.358 E121.2255
G1 X124.603 Y83.096 E121.2493
G1 X124.603 Y69.992 E121.9031
G1 X124.203 Y69.861 E121.9241
G1 X124.203 Y82.834 E122.5713
G1 X123.803 Y82.703 E122.5923
G1 X123.803 Y69.730 E123.2395
G1 X123.403 Y69.599 E123.2605
G1 X123.403 Y82.441 E123.9012
G1 X123.003 Y82.179 E123.9250
G1 X123.003 Y69.468 E124.5592
G1 X122.603 Y69.337 E124.5802
G1 X122.603 Y82.048 E125.2143
G1 X122.203 Y81.655 E125.2423
G1 X122.203 Y69.075 E125.8699
G1 X121.803 Y68.944 E125.8909
G1 X121.803 Y81.524 E126.5185
G1 X121.403 Y81.393 E126.5395
G1 X121.403 Y68.813 E127.1671
G1 X121.003 Y68.682 E127.1881
G1 X121.003 Y81.130 E127.8091
G1 X120.603 Y80.999 E127.8301
G1 X120.603 Y68.551 E128.4512
G1 X120.203 Y68.420 E128.4722
G1 X120.203 Y80.737 E129.0867
G1 X119.803 Y80.606 E129.1077
G1 X119.803 Y68.289 E129.7223
G1 X119.403 Y68.158 E129.7433
G1 X119.403 Y80.344 E130.3512
G1 X119.003 Y80.213 E130.3722
G1 X119.003 Y68.027 E130.9802
G1 X118.603 Y67.896 E131.0012
G1 X118.603 Y80.082 E131.6092
G1 X118.203 Y79.820 E131.6331
G1 X118.203 Y67.765 E132.2345
G1 X117.803 Y67.633 E132.2555
G1 X117.803 Y79.689 E132.8570
G1 X117.403 Y79.558 E132.8780
G1 X117.403 Y67.371 E133.4860
G1 X117.003 Y67.240 E133.5070
G1 X117.003 Y79.427 E134.1150
G1 X116.603 Y79.296 E134.1359
G1 X116.603 Y67.109 E134.7439
G1 X116.203 Y66.978 E134.7649
G1 X116.203 Y79.034 E135.3664
G1 X115.803 Y78.903 E135.3874
G1 X115.803 Y66.847 E135.9888
G1 X115.403 Y66.716 E136.0098
G1 X115.403 Y78.772 E136.6113
G1 X115.003 Y78.641 E136.6323
G1 X115.003 Y66.585 E137.2337
G1 X114.603 Y66.454 E137.2547
G1 X114.603 Y78.510 E137.8562
G1 X114.203 Y78.379 E137.8772
G1 X114.203 Y66.192 E138.4852
G1 X113.803 Y66.061 E138.5062
G1 X113.803 Y78.248 E139.1142
G1 X113.403 Y78.117 E139.1352
G1 X113.403 Y65.930 E139.7431
G1 X113.003 Y65.799 E139.7641
G1 X113.003 Y77.986 E140.3721
G1 X112.603 Y77.854 E140.3931
G1 X112.603 Y65.668 E141.0011
G1 X112.203 Y65.537 E141.0221
G1 X112.203 Y77.723 E141.6301
G1 X111.803 Y77.592 E141.6511
G1 X111.803 Y65.406 E142.2591
G1 X111.403 Y65.275 E142.2801
G1 X111.403 Y77.461 E142.8881
G1 X111.003 Y77.330 E142.9090
G1 X111.003 Y65.144 E143.5170
G1 X110.603 Y65.013 E143.5380
G1 X110.603 Y77.199 E144.1460
G1 X110.203 Y77.199 E144.1660
G1 X110.203 Y64.751 E144.7870
G1 X109.803 Y64.620 E144.8080
G1 X109.803 Y77.068 E145.4291
G1 X109.403 Y76.937 E145.4501
G1 X109.403 Y64.489 E146.0712
G1 X109.003 Y64.358 E146.0922
G1 X109.003 Y76.806 E146.7132
G1 X108.603 Y76.675 E146.7342
G1 X108.603 Y64.226 E147.3553
G1 X108.203 Y64.095 E147.3763
G1 X108.203 Y76.675 E148.0039
G1 X107.803 Y76.544 E148.0249
G1 X107.803 Y63.964 E148.6525
G1 X107.403 Y63.833 E148.6735
G1 X107.403 Y76.413 E149.3011
G1 X107.003 Y76.413 E149.3211
G1 X107.003 Y63.702 E149.9552
G1 X106.603 Y63.440 E149.9791
G1 X106.603 Y76.282 E150.6197
G1 X106.203 Y76.151 E150.6407
G1 X106.203 Y63.309 E151.2814
G1 X105.803 Y63.178 E151.3024
G1 X105.803 Y76.151 E151.9496
G1 X105.403 Y76.020 E151.9706
G1 X105.403 Y63.178 E152.6113
G1 X105.003 Y63.178 E152.6313
G1 X105.003 Y75.889 E153.2654
G1 X104.603 Y75.889 E153.2854
G1 X104.603 Y63.178 E153.9195
G1 X104.203 Y63.178 E153.9395
G1 X104.203 Y75.758 E154.5671
G1 X103.803 Y75.758 E154.5870
G1 X103.803 Y63.178 E155.2147
G1 X103.403 Y63.309 E155.2356
G1 X103.403 Y75.496 E155.8436
G1 X103.003 Y75.103 E155.8716
G1 X103.003 Y63.702 E156.4404
G1 X102.603 Y64.095 E156.4684
G1 X102.603 Y74.710 E156.9979
G1 X102.203 Y74.316 E157.0259
G1 X102.203 Y64.489 E157.5162



; ------------------------------------
; Raft Layer #3
; ------------------------------------
M106 S255 ;set fan speed
G92 E0 ;reset extr
G0 F1200 Z1.200
;segType:Raft
G0 X103.137 Y63.396 F7200
G1 X106.544 Y63.396 E0.1700 F2400
G0 X107.592 Y63.796 F7200
G1 X102.744 Y63.796 E0.4119 F2400
G1 X102.351 Y64.196 E0.4398
G1 X108.772 Y64.196 E0.7602
G0 X109.820 Y64.596 F7200
G1 X102.089 Y64.596 E1.1459 F2400
G1 X102.089 Y64.996 E1.1659
G1 X110.868 Y64.996 E1.6039
G0 X111.917 Y65.396 F7200
G1 X102.089 Y65.396 E2.0942 F2400
G1 X102.089 Y65.796 E2.1141
G1 X113.096 Y65.796 E2.6633
G0 X114.144 Y66.196 F7200
G1 X102.089 Y66.196 E3.2647 F2400
G1 X102.089 Y66.596 E3.2847
G1 X115.193 Y66.596 E3.9385
G0 X116.241 Y66.996 F7200
G1 X102.089 Y66.996 E4.6445 F2400
G1 X102.089 Y67.396 E4.6645
G1 X117.420 Y67.396 E5.4294
G0 X118.469 Y67.796 F7200
G1 X102.089 Y67.796 E6.2466 F2400
G1 X102.089 Y68.196 E6.2665
G1 X119.517 Y68.196 E7.1360
G0 X120.696 Y68.596 F7200
G1 X102.089 Y68.596 E8.0643 F2400
G1 X102.089 Y68.996 E8.0843
G1 X121.745 Y68.996 E9.0649
G0 X122.793 Y69.396 F7200
G1 X102.089 Y69.396 E10.0979 F2400
G1 X102.089 Y69.796 E10.1178
G1 X124.234 Y69.796 E11.2227
G0 X125.283 Y70.196 F7200
G1 X102.089 Y70.196 E12.3798 F2400
G1 X102.089 Y70.596 E12.3998
G1 X126.462 Y70.596 E13.6157
G0 X127.510 Y70.996 F7200
G1 X102.089 Y70.996 E14.8840 F2400
G1 X102.089 Y71.396 E14.9040
G1 X128.559 Y71.396 E16.2246
G0 X129.607 Y71.796 F7200
G1 X102.089 Y71.796 E17.5974 F2400
G1 X102.089 Y72.196 E17.6174
G1 X130.786 Y72.196 E19.0491
G0 X131.835 Y72.596 F7200
G1 X102.089 Y72.596 E20.5331 F2400
G1 X102.089 Y72.996 E20.5531
G1 X132.883 Y72.996 E22.0894
G0 X133.931 Y73.396 F7200
G1 X102.089 Y73.396 E23.6780 F2400
G1 X102.089 Y73.796 E23.6980
G1 X135.111 Y73.796 E25.3455
G0 X136.159 Y74.196 F7200
G1 X102.089 Y74.196 E27.0452 F2400
G1 X102.482 Y74.596 E27.0732
G1 X137.207 Y74.596 E28.8056
G0 X138.255 Y74.996 F7200
G1 X102.875 Y74.996 E30.5708 F2400
G1 X103.268 Y75.396 E30.5988
G1 X139.435 Y75.396 E32.4031
G0 X140.483 Y75.796 F7200
G1 X104.316 Y75.796 E34.2075 F2400
G0 X106.282 Y76.196 F7200
G1 X141.531 Y76.196 E35.9661 F2400
G0 X142.580 Y76.596 F7200
G1 X108.117 Y76.596 E37.6854 F2400
G0 X109.689 Y76.996 F7200
G1 X143.759 Y76.996 E39.3852 F2400
G0 X145.200 Y77.396 F7200
G1 X111.524 Y77.396 E41.0654 F2400
G0 X112.834 Y77.796 F7200
G1 X146.249 Y77.796 E42.7324 F2400
G0 X147.297 Y78.196 F7200
G1 X114.013 Y78.196 E44.3930 F2400
G0 X115.193 Y78.596 F7200
G1 X148.345 Y78.596 E46.0470 F2400
G0 X149.525 Y78.996 F7200
G1 X116.241 Y78.996 E47.7075 F2400
G1 X117.158 Y79.396 E47.7574
G1 X150.573 Y79.396 E49.4245
G0 X151.621 Y79.796 F7200
G1 X118.207 Y79.796 E51.0916 F2400
G1 X119.124 Y80.196 E51.1415
G1 X152.670 Y80.196 E52.8151
G0 X153.849 Y80.596 F7200
G1 X119.910 Y80.596 E54.5083 F2400
G1 X120.696 Y80.996 E54.5523
G1 X154.897 Y80.996 E56.2586
G0 X155.946 Y81.396 F7200
G1 X121.614 Y81.396 E57.9715 F2400
G1 X122.269 Y81.796 E58.0098
G1 X156.470 Y81.796 E59.7161
G1 X156.863 Y82.196 E59.7440
G1 X123.055 Y82.196 E61.4307
G1 X123.710 Y82.596 E61.4690
G1 X157.256 Y82.596 E63.1426
G1 X157.649 Y82.996 E63.1706
G1 X124.496 Y82.996 E64.8246
G1 X125.021 Y83.396 E64.8575
G1 X157.649 Y83.396 E66.4854
G1 X157.649 Y83.796 E66.5053
G1 X125.676 Y83.796 E68.1005
G1 X126.331 Y84.196 E68.1388
G1 X157.649 Y84.196 E69.7012
G1 X157.649 Y84.596 E69.7212
G1 X126.986 Y84.596 E71.2510
G1 X127.641 Y84.996 E71.2893
G1 X157.649 Y84.996 E72.7864
G1 X157.649 Y85.396 E72.8063
G1 X128.165 Y85.396 E74.2773
G1 X128.690 Y85.796 E74.3102
G1 X157.649 Y85.796 E75.7550
G1 X157.649 Y86.196 E75.7749
G1 X129.214 Y86.196 E77.1936
G1 X129.869 Y86.596 E77.2319
G1 X157.649 Y86.596 E78.6178
G1 X157.649 Y86.996 E78.6378
G1 X130.262 Y86.996 E80.0041
G1 X130.786 Y87.396 E80.0370
G1 X157.649 Y87.396 E81.3772
G1 X157.649 Y87.796 E81.3972
G1 X131.179 Y87.796 E82.7178
G1 X131.704 Y88.196 E82.7507
G1 X157.649 Y88.196 E84.0451
G1 X157.649 Y88.596 E84.0651
G1 X132.097 Y88.596 E85.3399
G1 X132.621 Y88.996 E85.3728
G1 X157.649 Y88.996 E86.6215
G1 X157.649 Y89.396 E86.6414
G1 X133.014 Y89.396 E87.8705
G1 X133.407 Y89.796 E87.8985
G1 X157.649 Y89.796 E89.1079
G1 X157.649 Y90.196 E89.1279
G1 X133.800 Y90.196 E90.3177
G1 X134.193 Y90.596 E90.3457
G1 X157.649 Y90.596 E91.5159
G1 X157.649 Y90.996 E91.5358
G1 X134.586 Y90.996 E92.6865
G1 X134.848 Y91.396 E92.7103
G1 X157.649 Y91.396 E93.8478
G1 X157.649 Y91.796 E93.8678
G1 X135.242 Y91.796 E94.9857
G1 X135.635 Y92.196 E95.0137
G1 X157.649 Y92.196 E96.1120
G1 X157.649 Y92.597 E96.1320
G1 X136.028 Y92.597 E97.2107
G1 X136.290 Y92.997 E97.2345
G1 X157.649 Y92.997 E98.3001
G1 X157.649 Y93.397 E98.3201
G1 X136.683 Y93.397 E99.3661
G1 X136.945 Y93.797 E99.3900
G1 X157.649 Y93.797 E100.4229
G1 X157.649 Y94.197 E100.4428
G1 X137.338 Y94.197 E101.4562
G1 X137.600 Y94.597 E101.4800
G1 X157.649 Y94.597 E102.4803
G1 X157.649 Y94.997 E102.5002
G1 X137.993 Y94.997 E103.4809
G1 X138.255 Y95.397 E103.5047
G1 X157.649 Y95.397 E104.4723
G1 X157.649 Y95.797 E104.4922
G1 X138.518 Y95.797 E105.4467
G1 X138.780 Y96.197 E105.4706
G1 X157.649 Y96.197 E106.4120
G1 X157.649 Y96.597 E106.4319
G1 X139.042 Y96.597 E107.3603
G1 X139.304 Y96.997 E107.3841
G1 X157.649 Y96.997 E108.2994
G1 X157.649 Y97.397 E108.3193
G1 X139.566 Y97.397 E109.2215
G1 X139.828 Y97.797 E109.2454
G1 X157.649 Y97.797 E110.1345
G1 X157.649 Y98.197 E110.1544
G1 X140.090 Y98.197 E111.0305
G1 X140.352 Y98.597 E111.0543
G1 X157.649 Y98.597 E111.9173
G1 X157.649 Y98.997 E111.9372
G1 X140.614 Y98.997 E112.7871
G1 X140.876 Y99.397 E112.8110
G1 X157.649 Y99.397 E113.6478
G1 X157.649 Y99.797 E113.6677
G1 X141.138 Y99.797 E114.4915
G1 X141.400 Y100.197 E114.5153
G1 X157.649 Y100.197 E115.3260
G1 X157.649 Y100.597 E115.3459
G1 X141.662 Y100.597 E116.1435
G1 X141.925 Y100.997 E116.1674
G1 X157.649 Y100.997 E116.9519
G1 X157.649 Y101.397 E116.9718
G1 X142.056 Y101.397 E117.7498
G1 X142.318 Y101.797 E117.7737
G1 X157.649 Y101.797 E118.5386
G1 X157.649 Y102.197 E118.5585
G1 X142.580 Y102.197 E119.3103
G1 X142.711 Y102.597 E119.3313
G1 X157.649 Y102.597 E120.0766
G1 X157.649 Y102.997 E120.0966
G1 X142.973 Y102.997 E120.8288
G1 X143.235 Y103.397 E120.8526
G1 X157.649 Y103.397 E121.5718
G1 X157.649 Y103.797 E121.5917
G1 X143.366 Y103.797 E122.3043
G1 X143.628 Y104.197 E122.3282
G1 X157.649 Y104.197 E123.0277
G1 X157.649 Y104.597 E123.0476
G1 X143.759 Y104.597 E123.7406
G1 X144.021 Y104.997 E123.7645
G1 X157.649 Y104.997 E124.4444
G1 X157.649 Y105.397 E124.4643
G1 X144.152 Y105.397 E125.1377
G1 X144.414 Y105.797 E125.1616
G1 X157.649 Y105.797 E125.8219
G1 X157.649 Y106.197 E125.8418
G1 X144.545 Y106.197 E126.4956
G1 X144.807 Y106.597 E126.5194
G1 X157.649 Y106.597 E127.1601
G1 X157.649 Y106.997 E127.1801
G1 X144.938 Y106.997 E127.8142
G1 X145.069 Y107.397 E127.8352
G1 X157.649 Y107.397 E128.4628
G1 X157.649 Y107.797 E128.4828
G1 X145.332 Y107.797 E129.0973
G1 X145.463 Y108.197 E129.1183
G1 X157.649 Y108.197 E129.7263
G1 X157.649 Y108.597 E129.7462
G1 X145.725 Y108.597 E130.3411
G1 X145.856 Y108.997 E130.3621
G1 X157.649 Y108.997 E130.9505
G1 X157.649 Y109.397 E130.9705
G1 X145.987 Y109.397 E131.5523
G1 X146.118 Y109.797 E131.5733
G1 X157.649 Y109.797 E132.1486
G1 X157.649 Y110.197 E132.1686
G1 X146.380 Y110.197 E132.7308
G1 X146.511 Y110.597 E132.7518
G1 X157.649 Y110.597 E133.3075
G1 X157.649 Y110.997 E133.3275
G1 X146.642 Y110.997 E133.8766
G1 X146.773 Y111.397 E133.8976
G1 X157.649 Y111.397 E134.4402
G1 X157.649 Y111.797 E134.4602
G1 X146.904 Y111.797 E134.9963
G1 X147.035 Y112.197 E135.0172
G1 X157.649 Y112.197 E135.5468
G1 X157.649 Y112.597 E135.5667
G1 X147.166 Y112.597 E136.0898
G1 X147.428 Y112.997 E136.1136
G1 X157.649 Y112.997 E136.6236
G1 X157.649 Y113.397 E136.6435
G1 X147.559 Y113.397 E137.1469
G1 X147.690 Y113.797 E137.1679
G1 X157.649 Y113.797 E137.6648
G1 X157.649 Y114.197 E137.6847
G1 X147.821 Y114.197 E138.1750
G1 X147.952 Y114.597 E138.1960
G1 X157.649 Y114.597 E138.6798
G1 X157.649 Y114.997 E138.6998
G1 X148.083 Y114.997 E139.1770
G1 X148.214 Y115.397 E139.1980
G1 X157.649 Y115.397 E139.6687
G1 X157.649 Y115.797 E139.6887
G1 X148.345 Y115.797 E140.1528
G1 X148.476 Y116.197 E140.1738
G1 X157.649 Y116.197 E140.6314
G1 X157.649 Y116.597 E140.6514
G1 X148.607 Y116.597 E141.1025
G1 X148.739 Y116.997 E141.1235
G1 X157.649 Y116.997 E141.5680
G1 X157.649 Y117.397 E141.5880
G1 X148.870 Y117.397 E142.0260
G1 X148.870 Y117.797 E142.0460
G1 X157.649 Y117.797 E142.4840
G1 X157.649 Y118.197 E142.5040
G1 X149.001 Y118.197 E142.9354
G1 X149.132 Y118.597 E142.9564
G1 X157.649 Y118.597 E143.3814
G1 X157.649 Y118.997 E143.4013
G1 X149.263 Y118.997 E143.8197
G1 X149.394 Y119.397 E143.8407
G1 X157.649 Y119.397 E144.2526
G1 X157.649 Y119.797 E144.2725
G1 X149.394 Y119.797 E144.6844
G1 X149.525 Y120.197 E144.7054
G1 X157.649 Y120.197 E145.1107
G1 X157.649 Y120.597 E145.1307
G1 X149.656 Y120.597 E145.5295
G1 X149.787 Y120.997 E145.5505
G1 X157.649 Y120.997 E145.9427
G1 X157.649 Y121.397 E145.9627
G1 X149.787 Y121.397 E146.3550
G1 X149.918 Y121.797 E146.3760
G1 X157.649 Y121.797 E146.7617
G1 X157.649 Y122.197 E146.7816
G1 X150.049 Y122.197 E147.1608
G1 X150.049 Y122.597 E147.1808
G1 X157.649 Y122.597 E147.5599
G1 X157.649 Y122.997 E147.5799
G1 X150.180 Y122.997 E147.9525
G1 X150.311 Y123.397 E147.9735
G1 X157.649 Y123.397 E148.3396
G1 X157.649 Y123.797 E148.3596
G1 X150.442 Y123.797 E148.7192
G1 X150.442 Y124.197 E148.7391
G1 X157.649 Y124.197 E149.0987
G1 X157.649 Y124.597 E149.1186
G1 X150.573 Y124.597 E149.4717
G1 X150.704 Y124.997 E149.4927
G1 X157.649 Y124.997 E149.8391
G1 X157.649 Y125.397 E149.8591
G1 X150.704 Y125.397 E150.2056
G1 X150.835 Y125.797 E150.2266
G1 X157.649 Y125.797 E150.5665
G1 X157.649 Y126.197 E150.5865
G1 X150.966 Y126.197 E150.9199
G1 X150.966 Y126.597 E150.9399
G1 X157.649 Y126.597 E151.2733
G1 X157.649 Y126.997 E151.2933
G1 X151.097 Y126.997 E151.6201
G1 X151.228 Y127.397 E151.6411
G1 X157.649 Y127.397 E151.9615
G1 X157.649 Y127.797 E151.9814
G1 X151.228 Y127.797 E152.3018
G1 X151.359 Y128.197 E152.3228
G1 X157.649 Y128.197 E152.6366
G1 X157.649 Y128.597 E152.6565
G1 X151.359 Y128.597 E152.9703
G1 X151.490 Y128.997 E152.9913
G1 X157.649 Y128.997 E153.2986
G1 X157.649 Y129.397 E153.3185
G1 X151.621 Y129.397 E153.6193
G1 X151.621 Y129.797 E153.6392
G1 X157.649 Y129.797 E153.9399
G1 X157.649 Y130.197 E153.9599
G1 X151.752 Y130.197 E154.2541
G1 X151.752 Y130.597 E154.2741
G1 X157.649 Y130.597 E154.5682
G1 X157.649 Y130.997 E154.5882
G1 X151.883 Y130.997 E154.8759
G1 X152.014 Y131.397 E154.8969
G1 X157.649 Y131.397 E155.1780
G1 X157.649 Y131.797 E155.1979
G1 X152.146 Y131.797 E155.4725
G1 X152.146 Y132.197 E155.4925
G1 X157.649 Y132.197 E155.7671
G1 X157.649 Y132.597 E155.7870
G1 X152.277 Y132.597 E156.0550
G1 X152.277 Y132.997 E156.0750
G1 X157.649 Y132.997 E156.3430
G1 X157.649 Y133.397 E156.3630
G1 X152.408 Y133.397 E156.6245
G1 X152.539 Y133.797 E156.6455
G1 X157.649 Y133.797 E156.9005
G1 X157.649 Y134.197 E156.9204
G1 X152.539 Y134.197 E157.1754
G1 X152.670 Y134.597 E157.1964
G1 X157.649 Y134.597 E157.4448
G1 X157.649 Y134.997 E157.4648
G1 X152.801 Y134.997 E157.7066
G1 X152.801 Y135.397 E157.7266
G1 X157.649 Y135.397 E157.9685
G1 X157.256 Y135.797 E157.9965
G1 X153.194 Y135.797 E158.1991
G1 X153.587 Y136.197 E158.2271
G1 X156.863 Y136.197 E158.3906
G1 X156.470 Y136.597 E158.4185
G1 X153.980 Y136.597 E158.5427



; ------------------------------------
; Raft Layer #4
; ------------------------------------
G92 E0 ;reset extr
G0 F1200 Z1.400
;segType:Raft
G0 X153.003 Y135.642 F7200
G1 X153.003 Y80.344 E1.8392 F2400
G1 X153.403 Y80.475 E1.8532
G1 X153.403 Y136.036 E3.7012
G1 X153.803 Y136.429 E3.7198
G1 X153.803 Y80.606 E5.5765
G1 X154.203 Y80.868 E5.5924
G1 X154.203 Y136.822 E7.4534
G1 X154.603 Y136.822 E7.4667
G1 X154.603 Y80.999 E9.3234
G1 X155.003 Y81.130 E9.3374
G1 X155.003 Y136.822 E11.1897
G1 X155.403 Y136.822 E11.2030
G1 X155.403 Y81.262 E13.0509
G1 X155.803 Y81.393 E13.0649
G1 X155.803 Y136.822 E14.9085
G1 X156.203 Y136.822 E14.9218
G1 X156.203 Y81.524 E16.7610
G1 X156.603 Y81.917 E16.7797
G1 X156.603 Y136.560 E18.5971
G1 X157.003 Y136.167 E18.6158
G1 X157.003 Y82.310 E20.4071
G1 X157.403 Y82.703 E20.4257
G1 X157.403 Y135.774 E22.1909
G0 F3000 E21.1909
G0 X152.603 Y133.808 F7200
G0 F3000 E22.1909
G1 X152.603 Y80.213 E23.9734 F2400
G1 X152.203 Y80.082 E23.9874
G1 X152.203 Y131.842 E25.7090
G0 X151.803 Y130.008 F7200
G1 X151.803 Y79.951 E27.3739 F2400
G1 X151.403 Y79.820 E27.3879
G1 X151.403 Y128.042 E28.9918
G0 X151.003 Y126.077 F7200
G1 X151.003 Y79.558 E30.5390 F2400
G1 X150.603 Y79.427 E30.5530
G1 X150.603 Y124.373 E32.0479
G0 X150.203 Y122.670 F7200
G1 X150.203 Y79.296 E33.4905 F2400
G1 X149.803 Y79.165 E33.5045
G1 X149.803 Y120.835 E34.8905
G0 X149.403 Y119.394 F7200
G1 X149.403 Y79.034 E36.2328 F2400
G1 X149.003 Y78.903 E36.2468
G1 X149.003 Y117.952 E37.5456
G0 X148.603 Y116.642 F7200
G1 X148.603 Y78.772 E38.8052 F2400
G1 X148.203 Y78.641 E38.8192
G1 X148.203 Y115.332 E40.0395
G0 X147.803 Y114.152 F7200
G1 X147.803 Y78.510 E41.2250 F2400
G1 X147.403 Y78.379 E41.2390
G1 X147.403 Y112.973 E42.3896
G0 X147.003 Y111.925 F7200
G1 X147.003 Y78.248 E43.5097 F2400
G1 X146.603 Y77.986 E43.5256
G1 X146.603 Y110.876 E44.6196
G1 X146.203 Y109.959 E44.6529
G1 X146.203 Y77.854 E45.7207
G1 X145.803 Y77.723 E45.7347
G1 X145.803 Y109.042 E46.7763
G1 X145.403 Y108.124 E46.8096
G1 X145.403 Y77.592 E47.8251
G1 X145.003 Y77.461 E47.8391
G1 X145.003 Y106.814 E48.8154
G1 X144.603 Y106.028 E48.8447
G1 X144.603 Y77.330 E49.7992
G1 X144.203 Y77.199 E49.8132
G1 X144.203 Y105.242 E50.7459
G1 X143.803 Y104.455 E50.7752
G1 X143.803 Y76.937 E51.6905
G1 X143.403 Y76.806 E51.7045
G1 X143.403 Y103.669 E52.5979
G1 X143.003 Y103.014 E52.6235
G1 X143.003 Y76.675 E53.4995
G1 X142.603 Y76.544 E53.5135
G1 X142.603 Y102.228 E54.3677
G1 X142.203 Y101.572 E54.3933
G1 X142.203 Y76.413 E55.2301
G1 X141.803 Y76.282 E55.2441
G1 X141.803 Y100.786 E56.0591
G1 X141.403 Y100.131 E56.0846
G1 X141.403 Y76.151 E56.8822
G1 X141.003 Y76.020 E56.8962
G1 X141.003 Y99.476 E57.6763
G1 X140.603 Y98.952 E57.6983
G1 X140.603 Y75.889 E58.4653
G1 X140.203 Y75.758 E58.4793
G1 X140.203 Y98.297 E59.2290
G1 X139.803 Y97.641 E59.2545
G1 X139.803 Y75.627 E59.9867
G1 X139.403 Y75.365 E60.0026
G1 X139.403 Y97.117 E60.7261
G1 X139.003 Y96.593 E60.7480
G1 X139.003 Y75.234 E61.4584
G1 X138.603 Y75.103 E61.4724
G1 X138.603 Y96.069 E62.1698
G1 X138.203 Y95.414 E62.1953
G1 X138.203 Y74.972 E62.8752
G1 X137.803 Y74.841 E62.8892
G1 X137.803 Y94.890 E63.5560
G1 X137.403 Y94.234 E63.5816
G1 X137.403 Y74.710 E64.2310
G1 X137.003 Y74.579 E64.2450
G1 X137.003 Y93.841 E64.8857
G1 X136.603 Y93.317 E64.9076
G1 X136.603 Y74.316 E65.5395
G1 X136.203 Y74.185 E65.5535
G1 X136.203 Y92.793 E66.1724
G1 X135.803 Y92.269 E66.1944
G1 X135.803 Y74.054 E66.8002
G1 X135.403 Y73.923 E66.8142
G1 X135.403 Y91.876 E67.4113
G1 X135.003 Y91.483 E67.4299
G1 X135.003 Y73.792 E68.0183
G1 X134.603 Y73.661 E68.0323
G1 X134.603 Y90.958 E68.6076
G1 X134.203 Y90.565 E68.6263
G1 X134.203 Y73.530 E69.1928
G1 X133.803 Y73.399 E69.2068
G1 X133.803 Y90.172 E69.7647
G1 X133.403 Y89.779 E69.7834
G1 X133.403 Y73.268 E70.3325
G1 X133.003 Y73.137 E70.3465
G1 X133.003 Y89.386 E70.8870
G1 X132.603 Y88.993 E70.9056
G1 X132.603 Y73.006 E71.4373
G1 X132.203 Y72.744 E71.4532
G1 X132.203 Y88.731 E71.9850
G1 X131.803 Y88.338 E72.0036
G1 X131.803 Y72.613 E72.5266
G1 X131.403 Y72.482 E72.5406
G1 X131.403 Y88.076 E73.0593
G1 X131.003 Y87.682 E73.0779
G1 X131.003 Y72.351 E73.5878
G1 X130.603 Y72.220 E73.6018
G1 X130.603 Y87.289 E74.1031
G1 X130.203 Y87.027 E74.1190
G1 X130.203 Y72.089 E74.6158
G1 X129.803 Y71.958 E74.6298
G1 X129.803 Y86.634 E75.1180
G1 X129.403 Y86.372 E75.1339
G1 X129.403 Y71.696 E75.6220
G1 X129.003 Y71.565 E75.6360
G1 X129.003 Y85.979 E76.1154
G1 X128.603 Y85.717 E76.1313
G1 X128.603 Y71.434 E76.6064
G1 X128.203 Y71.303 E76.6204
G1 X128.203 Y85.455 E77.0911
G1 X127.803 Y85.193 E77.1070
G1 X127.803 Y71.172 E77.5733
G1 X127.403 Y71.040 E77.5873
G1 X127.403 Y84.800 E78.0450
G1 X127.003 Y84.537 E78.0609
G1 X127.003 Y70.909 E78.5141
G1 X126.603 Y70.778 E78.5281
G1 X126.603 Y84.406 E78.9814
G1 X126.203 Y84.144 E78.9973
G1 X126.203 Y70.647 E79.4462
G1 X125.803 Y70.516 E79.4602
G1 X125.803 Y83.882 E79.9048
G1 X125.403 Y83.620 E79.9207
G1 X125.403 Y70.385 E80.3609
G1 X125.003 Y70.123 E80.3768
G1 X125.003 Y83.358 E80.8170
G1 X124.603 Y83.096 E80.8329
G1 X124.603 Y69.992 E81.2687
G1 X124.203 Y69.861 E81.2827
G1 X124.203 Y82.834 E81.7142
G1 X123.803 Y82.703 E81.7282
G1 X123.803 Y69.730 E82.1597
G1 X123.403 Y69.599 E82.1737
G1 X123.403 Y82.441 E82.6008
G1 X123.003 Y82.179 E82.6167
G1 X123.003 Y69.468 E83.0395
G1 X122.603 Y69.337 E83.0535
G1 X122.603 Y82.048 E83.4762
G1 X122.203 Y81.655 E83.4949
G1 X122.203 Y69.075 E83.9133
G1 X121.803 Y68.944 E83.9273
G1 X121.803 Y81.524 E84.3457
G1 X121.403 Y81.393 E84.3597
G1 X121.403 Y68.813 E84.7781
G1 X121.003 Y68.682 E84.7921
G1 X121.003 Y81.130 E85.2061
G1 X120.603 Y80.999 E85.2201
G1 X120.603 Y68.551 E85.6342
G1 X120.203 Y68.420 E85.6482
G1 X120.203 Y80.737 E86.0579
G1 X119.803 Y80.606 E86.0719
G1 X119.803 Y68.289 E86.4816
G1 X119.403 Y68.158 E86.4956
G1 X119.403 Y80.344 E86.9009
G1 X119.003 Y80.213 E86.9149
G1 X119.003 Y68.027 E87.3202
G1 X118.603 Y67.896 E87.3342
G1 X118.603 Y80.082 E87.7395
G1 X118.203 Y79.820 E87.7555
G1 X118.203 Y67.765 E88.1564
G1 X117.803 Y67.633 E88.1704
G1 X117.803 Y79.689 E88.5714
G1 X117.403 Y79.558 E88.5854
G1 X117.403 Y67.371 E88.9907
G1 X117.003 Y67.240 E89.0047
G1 X117.003 Y79.427 E89.4100
G1 X116.603 Y79.296 E89.4240
G1 X116.603 Y67.109 E89.8294
G1 X116.203 Y66.978 E89.8434
G1 X116.203 Y79.034 E90.2443
G1 X115.803 Y78.903 E90.2583
G1 X115.803 Y66.847 E90.6593
G1 X115.403 Y66.716 E90.6733
G1 X115.403 Y78.772 E91.0743
G1 X115.003 Y78.641 E91.0883
G1 X115.003 Y66.585 E91.4893
G1 X114.603 Y66.454 E91.5033
G1 X114.603 Y78.510 E91.9042
G1 X114.203 Y78.379 E91.9182
G1 X114.203 Y66.192 E92.3236
G1 X113.803 Y66.061 E92.3376
G1 X113.803 Y78.248 E92.7429
G1 X113.403 Y78.117 E92.7569
G1 X113.403 Y65.930 E93.1622
G1 X113.003 Y65.799 E93.1762
G1 X113.003 Y77.986 E93.5815
G1 X112.603 Y77.854 E93.5955
G1 X112.603 Y65.668 E94.0009
G1 X112.203 Y65.537 E94.0149
G1 X112.203 Y77.723 E94.4202
G1 X111.803 Y77.592 E94.4342
G1 X111.803 Y65.406 E94.8395
G1 X111.403 Y65.275 E94.8535
G1 X111.403 Y77.461 E95.2588
G1 X111.003 Y77.330 E95.2728
G1 X111.003 Y65.144 E95.6782
G1 X110.603 Y65.013 E95.6922
G1 X110.603 Y77.199 E96.0975
G1 X110.203 Y77.199 E96.1108
G1 X110.203 Y64.751 E96.5248
G1 X109.803 Y64.620 E96.5388
G1 X109.803 Y77.068 E96.9529
G1 X109.403 Y76.937 E96.9669
G1 X109.403 Y64.489 E97.3809
G1 X109.003 Y64.358 E97.3949
G1 X109.003 Y76.806 E97.8090
G1 X108.603 Y76.675 E97.8230
G1 X108.603 Y64.226 E98.2370
G1 X108.203 Y64.095 E98.2510
G1 X108.203 Y76.675 E98.6694
G1 X107.803 Y76.544 E98.6834
G1 X107.803 Y63.964 E99.1018
G1 X107.403 Y63.833 E99.1158
G1 X107.403 Y76.413 E99.5342
G1 X107.003 Y76.413 E99.5475
G1 X107.003 Y63.702 E99.9703
G1 X106.603 Y63.440 E99.9862
G1 X106.603 Y76.282 E100.4133
G1 X106.203 Y76.151 E100.4273
G1 X106.203 Y63.309 E100.8544
G1 X105.803 Y63.178 E100.8684
G1 X105.803 Y76.151 E101.2999
G1 X105.403 Y76.020 E101.3139
G1 X105.403 Y63.178 E101.7410
G1 X105.003 Y63.178 E101.7544
G1 X105.003 Y75.889 E102.1771
G1 X104.603 Y75.889 E102.1904
G1 X104.603 Y63.178 E102.6132
G1 X104.203 Y63.178 E102.6265
G1 X104.203 Y75.758 E103.0449
G1 X103.803 Y75.758 E103.0582
G1 X103.803 Y63.178 E103.4766
G1 X103.403 Y63.309 E103.4906
G1 X103.403 Y75.496 E103.8959
G1 X103.003 Y75.103 E103.9146
G1 X103.003 Y63.702 E104.2938
G1 X102.603 Y64.095 E104.3124
G1 X102.603 Y74.710 E104.6654
G1 X102.203 Y74.316 E104.6841
G1 X102.203 Y64.489 E105.0110


; ------------------------------------
; Layer #0
; ------------------------------------
G21 ; mm
G90 ; abs
G92 E0 ;reset extr
G0 F1200 Z1.950
;segType:HShell
G0 F3000 E-1.0000
G0 X113.085 Y74.141 F5400
G0 F3000 E0.0000
G1 X105.732 Y66.789 E0.5188 F2400
;segType:Perimeter
G0 X104.858 Y65.661 F5400
G1 X155.192 Y83.983 E3.1911 F1440
G1 X155.190 Y131.642 E5.5689
G1 X155.097 Y131.757 E5.5797
G1 X155.108 Y131.871 E5.5877
G1 X155.120 Y131.985 E5.5955
G1 X155.132 Y132.100 E5.6029
G1 X155.143 Y132.214 E5.6100
G1 X155.155 Y132.328 E5.6167
G1 X155.166 Y132.442 E5.6231
G1 X155.178 Y132.557 E5.6292
G1 X155.190 Y132.671 E5.6349
G1 X155.201 Y132.785 E5.6403
G1 X155.213 Y132.900 E5.6454
G1 X155.225 Y133.014 E5.6501
G1 X155.236 Y133.128 E5.6545
G1 X155.248 Y133.243 E5.6586
G1 X155.259 Y133.357 E5.6624
G1 X155.271 Y133.471 E5.6658
G1 X155.283 Y133.585 E5.6688
G0 X155.097 Y131.757 F5400
G1 X154.978 Y131.642 E5.6771 F1440
G1 X153.685 Y125.355 E5.9973
G1 X152.430 Y119.761 E6.2833
G1 X151.435 Y116.046 E6.4752
G1 X150.316 Y112.523 E6.6596
G1 X149.037 Y109.079 E6.8429
G1 X147.604 Y105.733 E7.0245
G1 X145.948 Y102.354 E7.2122
G1 X144.220 Y99.258 E7.3891
G1 X142.366 Y96.321 E7.5624
G1 X140.392 Y93.555 E7.7320
G1 X138.299 Y90.961 E7.8982
G1 X136.086 Y88.537 E8.0620
G1 X133.749 Y86.282 E8.2240
G1 X131.281 Y84.190 E8.3854
G1 X128.669 Y82.256 E8.5476
G1 X125.900 Y80.476 E8.7118
G1 X122.956 Y78.847 E8.8797
G1 X119.814 Y77.367 E9.0529
G1 X116.446 Y76.036 E9.2336
G1 X112.820 Y74.855 E9.4239
G1 X108.890 Y73.826 E9.6265
G1 X104.809 Y72.998 E9.8343
G1 X104.809 Y65.695 E10.1986
;segType:Loop
G0 X105.173 Y66.202 F5400
G1 X154.792 Y84.263 E12.8330 F2400
G1 X154.790 Y127.757 E15.0029
G1 X154.701 Y127.871 E15.0133
G1 X154.713 Y127.985 E15.0213
G1 X154.724 Y128.100 E15.0289
G1 X154.736 Y128.214 E15.0361
G1 X154.748 Y128.328 E15.0431
G1 X154.759 Y128.442 E15.0497
G1 X154.771 Y128.557 E15.0560
G1 X154.783 Y128.671 E15.0619
G1 X154.794 Y128.785 E15.0675
G1 X154.806 Y128.900 E15.0728
G1 X154.818 Y129.014 E15.0778
G1 X154.829 Y129.128 E15.0824
G1 X154.841 Y129.242 E15.0866
G1 X154.852 Y129.357 E15.0906
G1 X154.864 Y129.471 E15.0942
G1 X154.876 Y129.585 E15.0975
G1 X154.887 Y129.700 E15.1004
G0 X154.701 Y127.871 F5400
G1 X154.587 Y127.757 E15.1085 F2400
G1 X154.076 Y125.271 E15.2351
G1 X152.818 Y119.665 E15.5217
G1 X151.819 Y115.934 E15.7144
G1 X150.695 Y112.393 E15.8998
G1 X149.409 Y108.931 E16.0841
G1 X147.968 Y105.566 E16.2667
G1 X146.303 Y102.169 E16.4554
G1 X144.564 Y99.053 E16.6334
G1 X142.698 Y96.098 E16.8078
G1 X140.710 Y93.313 E16.9785
G1 X138.603 Y90.701 E17.1459
G1 X136.373 Y88.258 E17.3109
G1 X134.018 Y85.985 E17.4742
G1 X131.529 Y83.876 E17.6370
G1 X128.896 Y81.927 E17.8004
G1 X126.105 Y80.133 E17.9659
G1 X123.138 Y78.491 E18.1351
G1 X119.973 Y77.000 E18.3097
G1 X116.582 Y75.660 E18.4916
G1 X112.933 Y74.471 E18.6831
G1 X108.981 Y73.437 E18.8869
G1 X105.209 Y72.671 E19.0789
G1 X105.209 Y66.315 E19.3960
;segType:HShell
G0 X106.622 Y67.112 F5400
G1 X113.924 Y74.415 E19.9112 F2400
G0 X114.763 Y74.688 F5400
G1 X107.511 Y67.436 E20.4229 F2400
G0 X108.401 Y67.760 F5400
G1 X115.602 Y74.962 E20.9310 F2400
G0 X116.441 Y75.235 F5400
G1 X109.290 Y68.084 E21.4356 F2400
G0 X110.180 Y68.408 F5400
G1 X117.347 Y75.575 E21.9413 F2400
G0 X118.282 Y75.945 F5400
G1 X111.069 Y68.731 E22.4502 F2400
G0 X111.958 Y69.055 F5400
G1 X119.218 Y76.315 E22.9624 F2400
G0 X120.159 Y76.690 F5400
G1 X112.848 Y69.379 E23.4782 F2400
G0 X113.737 Y69.703 F5400
G1 X121.228 Y77.194 E24.0068 F2400
G0 X122.298 Y77.697 F5400
G1 X114.627 Y70.026 E24.5480 F2400
G0 X115.516 Y70.350 F5400
G1 X123.379 Y78.213 E25.1028 F2400
G0 X120.853 Y72.293 F5400
G1 X134.799 Y86.239 E26.0868 F2400
G0 X137.301 Y88.741 F5400
G1 X154.431 Y105.871 E27.2953 F2400
G0 X154.431 Y105.305 F5400
G1 X121.742 Y72.617 E29.6017 F2400
G0 X122.632 Y72.940 F5400
G1 X154.431 Y104.739 E31.8452 F2400
G0 X154.431 Y104.174 F5400
G1 X123.521 Y73.264 E34.0261 F2400
G0 X124.411 Y73.588 F5400
G1 X154.431 Y103.608 E36.1441 F2400
G0 X154.431 Y103.042 F5400
G1 X125.300 Y73.912 E38.1995 F2400
G0 X126.190 Y74.235 F5400
G1 X154.431 Y102.477 E40.1920 F2400
G0 X154.431 Y101.911 F5400
G1 X127.079 Y74.559 E42.1218 F2400
G0 X127.969 Y74.883 F5400
G1 X154.431 Y101.345 E43.9889 F2400
G0 X154.431 Y100.780 F5400
G1 X128.858 Y75.207 E45.7932 F2400
G0 X129.748 Y75.530 F5400
G1 X154.431 Y100.214 E47.5348 F2400
G0 X154.431 Y99.648 F5400
G1 X130.637 Y75.854 E49.2136 F2400
G0 X131.526 Y76.178 F5400
G1 X154.431 Y99.083 E50.8296 F2400
G0 X154.431 Y98.517 F5400
G1 X132.416 Y76.502 E52.3829 F2400
G0 X133.305 Y76.826 F5400
G1 X154.431 Y97.951 E53.8734 F2400
G0 X154.431 Y97.386 F5400
G1 X134.195 Y77.149 E55.3012 F2400
G0 X135.084 Y77.473 F5400
G1 X154.431 Y96.820 E56.6662 F2400
G0 X154.431 Y96.254 F5400
G1 X135.974 Y77.797 E57.9685 F2400
G0 X136.863 Y78.121 F5400
G1 X154.431 Y95.689 E59.2080 F2400
G0 X154.431 Y95.123 F5400
G1 X137.753 Y78.444 E60.3848 F2400
G0 X138.642 Y78.768 F5400
G1 X154.431 Y94.557 E61.4988 F2400
G0 X154.431 Y93.992 F5400
G1 X139.531 Y79.092 E62.5500 F2400
G0 X140.421 Y79.416 F5400
G1 X154.431 Y93.426 E63.5385 F2400
G0 X154.431 Y92.860 F5400
G1 X141.310 Y79.739 E64.4643 F2400
G0 X142.200 Y80.063 F5400
G1 X154.431 Y92.295 E65.3273 F2400
G0 X154.431 Y91.729 F5400
G1 X143.089 Y80.387 E66.1275 F2400
G0 X143.979 Y80.711 F5400
G1 X154.431 Y91.163 E66.8650 F2400
G0 X154.431 Y90.598 F5400
G1 X144.868 Y81.035 E67.5397 F2400
G0 X145.758 Y81.358 F5400
G1 X154.431 Y90.032 E68.1517 F2400
G0 X154.431 Y89.466 F5400
G1 X146.647 Y81.682 E68.7009 F2400
G0 X147.537 Y82.006 F5400
G1 X154.431 Y88.901 E69.1873 F2400
G0 X154.431 Y88.335 F5400
G1 X148.426 Y82.330 E69.6110 F2400
G0 X149.315 Y82.653 F5400
G1 X154.431 Y87.769 E69.9720 F2400
G0 X154.431 Y87.204 F5400
G1 X150.205 Y82.977 E70.2702 F2400
G0 X151.094 Y83.301 F5400
G1 X154.431 Y86.638 E70.5056 F2400
G0 X154.431 Y86.072 F5400
G1 X151.984 Y83.625 E70.6783 F2400
G0 X152.873 Y83.948 F5400
G1 X154.431 Y85.507 E70.7883 F2400
G0 X154.431 Y84.941 F5400
G1 X153.763 Y84.272 E70.8355 F2400
;segType:InnerHair
G0 X154.358 Y124.557 F5400
G1 X154.371 Y124.671 E70.8418 F2400
G1 X154.384 Y124.785 E70.8477
G1 X154.396 Y124.900 E70.8532
G1 X154.409 Y125.014 E70.8584
G1 X154.422 Y125.128 E70.8633
G1 X154.434 Y125.242 E70.8678
G1 X154.445 Y125.357 E70.8719
G1 X154.457 Y125.471 E70.8757
G1 X154.469 Y125.585 E70.8792
G1 X154.480 Y125.700 E70.8824
G1 X154.492 Y125.814 E70.8852
G1 X154.504 Y125.928 E70.8877
;segType:HShell
G0 X154.293 Y124.117 F5400
G1 X154.170 Y123.146 E70.9202 F2400
G0 X153.746 Y122.157 F5400
G1 X154.430 Y122.840 E70.9685 F2400
G0 X154.430 Y122.275 F5400
G1 X153.583 Y121.427 E71.0283 F2400
G0 X153.419 Y120.698 F5400
G1 X154.430 Y121.709 E71.0996 F2400
G0 X154.430 Y121.143 F5400
G1 X153.256 Y119.969 E71.1825 F2400
G0 X153.072 Y119.219 F5400
G1 X154.430 Y120.578 E71.2783 F2400
G0 X154.430 Y120.012 F5400
G1 X152.865 Y118.447 E71.3888 F2400
G0 X152.658 Y117.674 F5400
G1 X154.430 Y119.446 E71.5138 F2400
G0 X154.430 Y118.881 F5400
G1 X152.451 Y116.902 E71.6535 F2400
G0 X152.244 Y116.129 F5400
G1 X154.430 Y118.315 E71.8077 F2400
G0 X154.430 Y117.750 F5400
G1 X152.002 Y115.322 E71.9790 F2400
G0 X151.739 Y114.493 F5400
G1 X154.430 Y117.184 E72.1689 F2400
G0 X154.430 Y116.618 F5400
G1 X151.476 Y113.664 E72.3773 F2400
G0 X151.213 Y112.835 F5400
G1 X154.430 Y116.053 E72.6044 F2400
G0 X154.430 Y115.487 F5400
G1 X150.926 Y111.983 E72.8516 F2400
G0 X150.592 Y111.083 F5400
G1 X154.430 Y114.921 E73.1224 F2400
G0 X154.430 Y114.356 F5400
G1 X150.258 Y110.183 E73.4168 F2400
G0 X149.924 Y109.283 F5400
G1 X154.430 Y113.790 E73.7348 F2400
G0 X154.430 Y113.224 F5400
G1 X149.549 Y108.342 E74.0792 F2400
G0 X149.125 Y107.353 F5400
G1 X154.430 Y112.659 E74.4535 F2400
G0 X154.431 Y112.093 F5400
G1 X148.701 Y106.364 E74.8578 F2400
G0 X148.273 Y105.369 F5400
G1 X154.431 Y111.527 E75.2922 F2400
G0 X154.431 Y110.962 F5400
G1 X147.729 Y104.260 E75.7651 F2400
G0 X147.185 Y103.150 F5400
G1 X154.431 Y110.396 E76.2763 F2400
G0 X154.431 Y109.830 F5400
G1 X146.641 Y102.040 E76.8260 F2400
G0 X145.933 Y100.766 F5400
G1 X154.431 Y109.265 E77.4255 F2400
G0 X154.431 Y108.699 F5400
G1 X145.219 Y99.487 E78.0755 F2400
G0 X144.372 Y98.075 F5400
G1 X154.431 Y108.133 E78.7852 F2400
G0 X154.431 Y107.568 F5400
G1 X143.403 Y96.540 E79.5633 F2400
G0 X142.177 Y94.748 F5400
G1 X154.431 Y107.002 E80.4278 F2400
G0 X154.431 Y106.436 F5400
G1 X140.611 Y92.617 E81.4029 F2400
G0 X131.119 Y83.124 F5400
G1 X119.964 Y71.969 E82.1899 F2400
G0 X119.074 Y71.645 F5400
G1 X128.984 Y81.555 E82.8891 F2400
G0 X127.400 Y80.537 F5400
G1 X118.185 Y71.321 E83.5393 F2400
G0 X117.295 Y70.998 F5400
G1 X125.911 Y79.614 E84.1472 F2400
G0 X124.645 Y78.913 F5400
G1 X116.406 Y70.674 E84.7285 F2400
G0 X112.314 Y73.937 F5400
G1 X105.569 Y67.191 E85.2044 F2400
G0 X105.569 Y67.757 F5400
G1 X111.548 Y73.736 E85.6263 F2400
G0 X110.782 Y73.536 F5400
G1 X105.569 Y68.322 E85.9941 F2400
G0 X105.569 Y68.888 F5400
G1 X110.016 Y73.335 E86.3079 F2400
G0 X109.250 Y73.135 F5400
G1 X105.569 Y69.454 E86.5676 F2400
G0 X105.569 Y70.020 F5400
G1 X108.526 Y72.977 E86.7762 F2400
G0 X107.816 Y72.833 F5400
G1 X105.569 Y70.585 E86.9348 F2400
G0 X105.569 Y71.151 F5400
G1 X107.107 Y72.689 E87.0433 F2400
G0 X106.397 Y72.545 F5400
G1 X105.569 Y71.717 E87.1017 F2400
; ------------------------------------
; Layer #1
; ------------------------------------
G92 E0 ;reset extr
;segType:HShell
G0 F3000 E-1.0000
G0 F1200 Z2.000
G0 X107.986 Y67.609 F7200
G0 F3000 E0.0000
G1 X105.569 Y70.026 E0.1705 F3600
G0 X105.569 Y69.461 F7200
G1 X107.572 Y67.458 E0.3118 F3600
G0 X107.157 Y67.307 F7200
G1 X105.569 Y68.895 E0.4239 F3600
G0 X105.569 Y68.329 F7200
G1 X106.742 Y67.156 E0.5066 F3600
G0 X106.327 Y67.005 F7200
G1 X105.569 Y67.764 E0.5601 F3600
G0 X105.569 Y67.198 F7200
G1 X105.913 Y66.854 E0.5844 F3600
;segType:Perimeter
G0 X104.858 Y65.661 F7200
G1 X155.192 Y83.983 E3.2567 F2160
G1 X155.190 Y131.642 E5.6345
G1 X155.097 Y131.757 E5.6453
G1 X155.108 Y131.871 E5.6533
G1 X155.120 Y131.985 E5.6611
G1 X155.132 Y132.100 E5.6685
G1 X155.143 Y132.214 E5.6756
G1 X155.155 Y132.328 E5.6823
G1 X155.166 Y132.442 E5.6887
G1 X155.178 Y132.557 E5.6948
G1 X155.190 Y132.671 E5.7005
G1 X155.201 Y132.785 E5.7059
G1 X155.213 Y132.900 E5.7110
G1 X155.225 Y133.014 E5.7157
G1 X155.236 Y133.128 E5.7201
G1 X155.248 Y133.243 E5.7242
G1 X155.259 Y133.357 E5.7280
G1 X155.271 Y133.471 E5.7314
G1 X155.283 Y133.585 E5.7344
G0 X155.097 Y131.757 F7200
G1 X154.978 Y131.642 E5.7427 F2160
G1 X153.685 Y125.356 E6.0629
G1 X152.430 Y119.763 E6.3489
G1 X151.435 Y116.047 E6.5407
G1 X150.316 Y112.523 E6.7252
G1 X149.037 Y109.079 E6.9085
G1 X147.604 Y105.733 E7.0901
G1 X145.948 Y102.354 E7.2778
G1 X144.220 Y99.258 E7.4547
G1 X142.366 Y96.321 E7.6280
G1 X140.392 Y93.555 E7.7976
G1 X138.299 Y90.961 E7.9638
G1 X136.086 Y88.537 E8.1276
G1 X133.749 Y86.282 E8.2896
G1 X131.281 Y84.190 E8.4510
G1 X128.669 Y82.256 E8.6132
G1 X125.900 Y80.476 E8.7774
G1 X122.956 Y78.847 E8.9453
G1 X119.814 Y77.367 E9.1185
G1 X116.446 Y76.036 E9.2992
G1 X112.820 Y74.855 E9.4895
G1 X108.890 Y73.826 E9.6921
G1 X104.809 Y72.998 E9.8999
G1 X104.809 Y65.695 E10.2642
;segType:Loop
G0 X105.173 Y66.202 F7200
G1 X154.792 Y84.263 E12.8986 F3600
G1 X154.790 Y127.757 E15.0685
G1 X154.701 Y127.871 E15.0789
G1 X154.713 Y127.985 E15.0869
G1 X154.724 Y128.100 E15.0945
G1 X154.736 Y128.214 E15.1017
G1 X154.748 Y128.328 E15.1087
G1 X154.759 Y128.442 E15.1153
G1 X154.771 Y128.557 E15.1216
G1 X154.783 Y128.671 E15.1275
G1 X154.794 Y128.785 E15.1331
G1 X154.806 Y128.900 E15.1384
G1 X154.818 Y129.014 E15.1434
G1 X154.829 Y129.128 E15.1480
G1 X154.841 Y129.242 E15.1522
G1 X154.852 Y129.357 E15.1562
G1 X154.864 Y129.471 E15.1598
G1 X154.876 Y129.585 E15.1631
G1 X154.887 Y129.700 E15.1660
G0 X154.701 Y127.871 F7200
G1 X154.587 Y127.757 E15.1741 F3600
G1 X154.076 Y125.271 E15.3007
G1 X152.819 Y119.667 E15.5872
G1 X151.819 Y115.935 E15.7800
G1 X150.695 Y112.393 E15.9654
G1 X149.409 Y108.931 E16.1497
G1 X147.968 Y105.566 E16.3323
G1 X146.303 Y102.169 E16.5210
G1 X144.564 Y99.053 E16.6990
G1 X142.698 Y96.098 E16.8734
G1 X140.710 Y93.313 E17.0441
G1 X138.603 Y90.701 E17.2115
G1 X136.373 Y88.258 E17.3765
G1 X134.018 Y85.985 E17.5398
G1 X131.529 Y83.876 E17.7026
G1 X128.896 Y81.927 E17.8660
G1 X126.105 Y80.133 E18.0315
G1 X123.138 Y78.491 E18.2007
G1 X119.973 Y77.000 E18.3753
G1 X116.582 Y75.660 E18.5572
G1 X112.933 Y74.471 E18.7487
G1 X108.981 Y73.437 E18.9525
G1 X105.209 Y72.671 E19.1445
G1 X105.209 Y66.315 E19.4616
;segType:HShell
G0 X108.401 Y67.760 F7200
G1 X105.569 Y70.592 E19.6614 F3600
G0 X105.569 Y71.158 F7200
G1 X108.816 Y67.911 E19.8905 F3600
G0 X109.230 Y68.062 F7200
G1 X105.569 Y71.723 E20.1488 F3600
G0 X105.569 Y72.289 F7200
G1 X109.645 Y68.213 E20.4364 F3600
G0 X110.060 Y68.364 F7200
G1 X105.967 Y72.457 E20.7252 F3600
G0 X106.437 Y72.553 F7200
G1 X110.475 Y68.515 E21.0101 F3600
G0 X110.889 Y68.666 F7200
G1 X106.907 Y72.648 E21.2911 F3600
G0 X107.377 Y72.744 F7200
G1 X111.304 Y68.817 E21.5681 F3600
G0 X111.719 Y68.968 F7200
G1 X107.848 Y72.839 E21.8412 F3600
G0 X108.318 Y72.934 F7200
G1 X112.133 Y69.119 E22.1105 F3600
G0 X112.548 Y69.270 F7200
G1 X108.788 Y73.030 E22.3758 F3600
G0 X109.249 Y73.135 F7200
G1 X112.963 Y69.421 E22.6378 F3600
G0 X113.378 Y69.572 F7200
G1 X109.697 Y73.252 E22.8975 F3600
G0 X110.146 Y73.369 F7200
G1 X113.792 Y69.723 E23.1547 F3600
G0 X114.207 Y69.874 F7200
G1 X110.594 Y73.486 E23.4096 F3600
G0 X111.043 Y73.604 F7200
G1 X114.622 Y70.025 E23.6622 F3600
G0 X115.037 Y70.176 F7200
G1 X111.491 Y73.721 E23.9123 F3600
G0 X111.939 Y73.838 F7200
G1 X115.451 Y70.326 E24.1601 F3600
G0 X115.866 Y70.477 F7200
G1 X112.388 Y73.956 E24.4055 F3600
G0 X112.836 Y74.073 F7200
G1 X116.281 Y70.628 E24.6486 F3600
G0 X116.695 Y70.779 F7200
G1 X113.272 Y74.203 E24.8901 F3600
G0 X113.699 Y74.342 F7200
G1 X117.110 Y70.930 E25.1308 F3600
G0 X117.525 Y71.081 F7200
G1 X114.126 Y74.481 E25.3706 F3600
G0 X114.552 Y74.620 F7200
G1 X117.940 Y71.232 E25.6096 F3600
G0 X118.354 Y71.383 F7200
G1 X114.979 Y74.759 E25.8478 F3600
G0 X115.406 Y74.898 F7200
G1 X118.769 Y71.534 E26.0851 F3600
G0 X119.184 Y71.685 F7200
G1 X115.832 Y75.037 E26.3215 F3600
G0 X116.259 Y75.176 F7200
G1 X119.598 Y71.836 E26.5572 F3600
G0 X120.013 Y71.987 F7200
G1 X116.686 Y75.315 E26.7919 F3600
G0 X117.092 Y75.474 F7200
G1 X120.428 Y72.138 E27.0273 F3600
G0 X120.843 Y72.289 F7200
G1 X117.497 Y75.634 E27.2634 F3600
G0 X117.903 Y75.795 F7200
G1 X121.257 Y72.440 E27.5000 F3600
G0 X121.672 Y72.591 F7200
G1 X118.308 Y75.955 E27.7374 F3600
G0 X118.714 Y76.115 F7200
G1 X122.087 Y72.742 E27.9754 F3600
G0 X122.502 Y72.893 F7200
G1 X119.119 Y76.275 E28.2141 F3600
G0 X119.524 Y76.436 F7200
G1 X122.916 Y73.044 E28.4534 F3600
G0 X123.331 Y73.195 F7200
G1 X119.930 Y76.596 E28.6934 F3600
G0 X120.324 Y76.768 F7200
G1 X123.746 Y73.346 E28.9348 F3600
G0 X124.160 Y73.497 F7200
G1 X120.708 Y76.949 E29.1783 F3600
G0 X121.093 Y77.130 F7200
G1 X124.575 Y73.648 E29.4240 F3600
G0 X124.990 Y73.799 F7200
G1 X121.478 Y77.311 E29.6719 F3600
G0 X121.862 Y77.492 F7200
G1 X125.405 Y73.950 E29.9218 F3600
G0 X125.819 Y74.101 F7200
G1 X122.247 Y77.673 E30.1739 F3600
G0 X122.631 Y77.854 F7200
G1 X126.234 Y74.251 E30.4281 F3600
G0 X126.649 Y74.402 F7200
G1 X123.016 Y78.036 E30.6844 F3600
G0 X123.395 Y78.222 F7200
G1 X127.064 Y74.553 E30.9432 F3600
G0 X127.478 Y74.704 F7200
G1 X123.759 Y78.423 E31.2056 F3600
G0 X124.123 Y78.625 F7200
G1 X127.893 Y74.855 E31.4716 F3600
G0 X128.308 Y75.006 F7200
G1 X124.488 Y78.826 E31.7411 F3600
G0 X124.852 Y79.028 F7200
G1 X128.722 Y75.157 E32.0142 F3600
G0 X129.137 Y75.308 F7200
G1 X125.216 Y79.229 E32.2909 F3600
G0 X125.580 Y79.431 F7200
G1 X129.552 Y75.459 E32.5711 F3600
G0 X129.967 Y75.610 F7200
G1 X125.945 Y79.632 E32.8549 F3600
G0 X126.308 Y79.835 F7200
G1 X130.381 Y75.761 E33.1423 F3600
G0 X130.796 Y75.912 F7200
G1 X126.652 Y80.056 E33.4346 F3600
G0 X126.996 Y80.277 F7200
G1 X131.211 Y76.063 E33.7320 F3600
G0 X131.625 Y76.214 F7200
G1 X127.341 Y80.499 E34.0343 F3600
G0 X127.685 Y80.720 F7200
G1 X132.040 Y76.365 E34.3416 F3600
G0 X132.455 Y76.516 F7200
G1 X128.029 Y80.941 E34.6538 F3600
G0 X128.374 Y81.163 F7200
G1 X132.870 Y76.667 E34.9710 F3600
G0 X133.284 Y76.818 F7200
G1 X128.718 Y81.384 E35.2932 F3600
G0 X129.062 Y81.605 F7200
G1 X133.699 Y76.969 E35.6204 F3600
G0 X134.114 Y77.120 F7200
G1 X129.390 Y81.844 E35.9537 F3600
G0 X129.715 Y82.085 F7200
G1 X134.529 Y77.271 E36.2933 F3600
G0 X134.943 Y77.422 F7200
G1 X130.040 Y82.325 E36.6393 F3600
G0 X130.365 Y82.566 F7200
G1 X135.358 Y77.573 E36.9916 F3600
G0 X135.773 Y77.724 F7200
G1 X130.690 Y82.807 E37.3502 F3600
G0 X131.015 Y83.047 F7200
G1 X136.187 Y77.875 E37.7152 F3600
G0 X136.602 Y78.026 F7200
G1 X131.340 Y83.288 E38.0865 F3600
G0 X131.665 Y83.529 F7200
G1 X137.017 Y78.176 E38.4641 F3600
G0 X137.432 Y78.327 F7200
G1 X131.976 Y83.783 E38.8490 F3600
G0 X132.282 Y84.042 F7200
G1 X137.846 Y78.478 E39.2416 F3600
G0 X138.261 Y78.629 F7200
G1 X132.589 Y84.302 E39.6418 F3600
G0 X132.895 Y84.561 F7200
G1 X138.676 Y78.780 E40.0497 F3600
G0 X139.091 Y78.931 F7200
G1 X133.201 Y84.821 E40.4653 F3600
G0 X133.507 Y85.080 F7200
G1 X139.505 Y79.082 E40.8885 F3600
G0 X139.920 Y79.233 F7200
G1 X133.813 Y85.340 E41.3193 F3600
G0 X134.119 Y85.599 F7200
G1 X140.335 Y79.384 E41.7578 F3600
G0 X140.749 Y79.535 F7200
G1 X134.416 Y85.869 E42.2047 F3600
G0 X134.704 Y86.147 F7200
G1 X141.164 Y79.686 E42.6606 F3600
G0 X141.579 Y79.837 F7200
G1 X134.991 Y86.425 E43.1253 F3600
G0 X135.279 Y86.702 F7200
G1 X141.994 Y79.988 E43.5991 F3600
G0 X142.408 Y80.139 F7200
G1 X135.567 Y86.980 E44.0818 F3600
G0 X135.855 Y87.258 F7200
G1 X142.823 Y80.290 E44.5734 F3600
G0 X143.238 Y80.441 F7200
G1 X136.143 Y87.536 E45.0740 F3600
G0 X136.431 Y87.814 F7200
G1 X143.652 Y80.592 E45.5835 F3600
G0 X144.067 Y80.743 F7200
G1 X136.713 Y88.097 E46.1024 F3600
G0 X136.983 Y88.393 F7200
G1 X144.482 Y80.894 E46.6315 F3600
G0 X144.897 Y81.045 F7200
G1 X137.253 Y88.688 E47.1708 F3600
G0 X137.523 Y88.984 F7200
G1 X145.311 Y81.196 E47.7203 F3600
G0 X145.726 Y81.347 F7200
G1 X137.793 Y89.280 E48.2800 F3600
G0 X138.063 Y89.575 F7200
G1 X146.141 Y81.498 E48.8499 F3600
G0 X146.556 Y81.649 F7200
G1 X138.333 Y89.871 E49.4301 F3600
G0 X138.603 Y90.167 F7200
G1 X146.970 Y81.800 E50.0204 F3600
G0 X147.385 Y81.951 F7200
G1 X138.873 Y90.462 E50.6210 F3600
G0 X139.126 Y90.775 F7200
G1 X147.800 Y82.102 E51.2330 F3600
G0 X148.214 Y82.252 F7200
G1 X139.378 Y91.088 E51.8564 F3600
G0 X139.631 Y91.402 F7200
G1 X148.629 Y82.403 E52.4913 F3600
G0 X149.044 Y82.554 F7200
G1 X139.884 Y91.715 E53.1376 F3600
G0 X140.136 Y92.028 F7200
G1 X149.459 Y82.705 E53.7953 F3600
G0 X149.873 Y82.856 F7200
G1 X140.389 Y92.341 E54.4645 F3600
G0 X140.641 Y92.654 F7200
G1 X150.288 Y83.007 E55.1451 F3600
G0 X150.703 Y83.158 F7200
G1 X140.894 Y92.967 E55.8372 F3600
G0 X141.136 Y93.290 F7200
G1 X151.117 Y83.309 E56.5414 F3600
G0 X151.532 Y83.460 F7200
G1 X141.372 Y93.620 E57.2583 F3600
G0 X141.608 Y93.950 F7200
G1 X151.947 Y83.611 E57.9877 F3600
G0 X152.362 Y83.762 F7200
G1 X141.843 Y94.281 E58.7299 F3600
G0 X142.079 Y94.611 F7200
G1 X152.776 Y83.913 E59.4846 F3600
G0 X153.191 Y84.064 F7200
G1 X142.314 Y94.941 E60.2520 F3600
G0 X142.550 Y95.271 F7200
G1 X153.606 Y84.215 E61.0321 F3600
G0 X154.021 Y84.366 F7200
G1 X142.786 Y95.601 E61.8248 F3600
G0 X143.019 Y95.933 F7200
G1 X154.431 Y84.521 E62.6300 F3600
G0 X154.431 Y85.086 F7200
G1 X143.238 Y96.279 E63.4197 F3600
G0 X143.457 Y96.626 F7200
G1 X154.431 Y85.652 E64.1940 F3600
G0 X154.431 Y86.218 F7200
G1 X143.676 Y96.973 E64.9528 F3600
G0 X143.895 Y97.320 F7200
G1 X154.431 Y86.784 E65.6962 F3600
G0 X154.431 Y87.349 F7200
G1 X144.114 Y97.666 E66.4241 F3600
G0 X144.333 Y98.013 F7200
G1 X154.431 Y87.915 E67.1366 F3600
G0 X154.431 Y88.481 F7200
G1 X144.552 Y98.360 E67.8336 F3600
G0 X144.771 Y98.706 F7200
G1 X154.431 Y89.046 E68.5152 F3600
G0 X154.431 Y89.612 F7200
G1 X144.981 Y99.062 E69.1819 F3600
G0 X145.184 Y99.425 F7200
G1 X154.431 Y90.178 E69.8344 F3600
G0 X154.431 Y90.743 F7200
G1 X145.387 Y99.788 E70.4725 F3600
G0 X145.589 Y100.151 F7200
G1 X154.431 Y91.309 E71.0964 F3600
G0 X154.431 Y91.875 F7200
G1 X145.792 Y100.514 E71.7059 F3600
G0 X145.994 Y100.877 F7200
G1 X154.431 Y92.441 E72.3012 F3600
G0 X154.431 Y93.006 F7200
G1 X146.197 Y101.240 E72.8821 F3600
G0 X146.400 Y101.604 F7200
G1 X154.431 Y93.572 E73.4488 F3600
G0 X154.431 Y94.138 F7200
G1 X146.602 Y101.967 E74.0012 F3600
G0 X146.790 Y102.345 F7200
G1 X154.431 Y94.703 E74.5403 F3600
G0 X154.431 Y95.269 F7200
G1 X146.976 Y102.724 E75.0663 F3600
G0 X147.162 Y103.104 F7200
G1 X154.431 Y95.835 E75.5792 F3600
G0 X154.431 Y96.400 F7200
G1 X147.348 Y103.483 E76.0789 F3600
G0 X147.534 Y103.863 F7200
G1 X154.431 Y96.966 E76.5655 F3600
G0 X154.431 Y97.532 F7200
G1 X147.720 Y104.243 E77.0390 F3600
G0 X147.906 Y104.622 F7200
G1 X154.431 Y98.098 E77.4994 F3600
G0 X154.431 Y98.663 F7200
G1 X148.093 Y105.002 E77.9466 F3600
G0 X148.279 Y105.381 F7200
G1 X154.431 Y99.229 E78.3807 F3600
G0 X154.431 Y99.795 F7200
G1 X148.450 Y105.776 E78.8027 F3600
G0 X148.619 Y106.172 F7200
G1 X154.431 Y100.360 E79.2127 F3600
G0 X154.431 Y100.926 F7200
G1 X148.789 Y106.568 E79.6108 F3600
G0 X148.958 Y106.964 F7200
G1 X154.431 Y101.492 E79.9969 F3600
G0 X154.431 Y102.058 F7200
G1 X149.128 Y107.360 E80.3710 F3600
G0 X149.298 Y107.756 F7200
G1 X154.431 Y102.623 E80.7332 F3600
G0 X154.431 Y103.189 F7200
G1 X149.467 Y108.152 E81.0834 F3600
G0 X149.637 Y108.549 F7200
G1 X154.431 Y103.755 E81.4216 F3600
G0 X154.431 Y104.320 F7200
G1 X149.800 Y108.951 E81.7483 F3600
G0 X149.954 Y109.363 F7200
G1 X154.431 Y104.886 E82.0642 F3600
G0 X154.431 Y105.452 F7200
G1 X150.107 Y109.776 E82.3693 F3600
G0 X150.260 Y110.188 F7200
G1 X154.431 Y106.017 E82.6636 F3600
G0 X154.431 Y106.583 F7200
G1 X150.413 Y110.601 E82.9471 F3600
G0 X150.566 Y111.013 F7200
G1 X154.431 Y107.149 E83.2197 F3600
G0 X154.431 Y107.715 F7200
G1 X150.719 Y111.426 E83.4815 F3600
G0 X150.873 Y111.838 F7200
G1 X154.431 Y108.280 E83.7326 F3600
G0 X154.431 Y108.846 F7200
G1 X151.026 Y112.251 E83.9728 F3600
G0 X151.163 Y112.679 F7200
G1 X154.431 Y109.412 E84.2033 F3600
G0 X154.431 Y109.977 F7200
G1 X151.300 Y113.108 E84.4242 F3600
G0 X151.436 Y113.538 F7200
G1 X154.431 Y110.543 E84.6355 F3600
G0 X154.431 Y111.109 F7200
G1 X151.572 Y113.967 E84.8372 F3600
G0 X151.709 Y114.396 F7200
G1 X154.431 Y111.675 E85.0292 F3600
G0 X154.430 Y112.240 F7200
G1 X151.845 Y114.826 E85.2117 F3600
G0 X151.981 Y115.255 F7200
G1 X154.430 Y112.806 E85.3845 F3600
G0 X154.430 Y113.372 F7200
G1 X152.118 Y115.684 E85.5476 F3600
G0 X152.243 Y116.125 F7200
G1 X154.430 Y113.937 E85.7020 F3600
G0 X154.430 Y114.503 F7200
G1 X152.363 Y116.571 E85.8479 F3600
G0 X152.482 Y117.017 F7200
G1 X154.430 Y115.069 E85.9853 F3600
G0 X154.430 Y115.635 F7200
G1 X152.601 Y117.463 E86.1144 F3600
G0 X152.721 Y117.910 F7200
G1 X154.430 Y116.200 E86.2350 F3600
G0 X154.430 Y116.766 F7200
G1 X152.840 Y118.356 E86.3471 F3600
G0 X152.960 Y118.802 F7200
G1 X154.430 Y117.332 E86.4509 F3600
G0 X154.430 Y117.897 F7200
G1 X153.079 Y119.248 E86.5462 F3600
G0 X153.195 Y119.698 F7200
G1 X154.430 Y118.463 E86.6334 F3600
G0 X154.430 Y119.029 F7200
G1 X153.299 Y120.160 E86.7132 F3600
G0 X153.402 Y120.623 F7200
G1 X154.430 Y119.594 E86.7857 F3600
G0 X154.430 Y120.160 F7200
G1 X153.506 Y121.085 E86.8510 F3600
G0 X153.609 Y121.547 F7200
G1 X154.430 Y120.726 E86.9089 F3600
G0 X154.430 Y121.292 F7200
G1 X153.713 Y122.009 E86.9595 F3600
G0 X153.817 Y122.471 F7200
G1 X154.430 Y121.857 E87.0027 F3600
G0 X154.149 Y122.421 F7200
G1 X154.227 Y123.192 E87.0387 F3600
G1 X154.279 Y123.706 E87.0674
;segType:InnerHair
G0 X154.358 Y124.557 F7200
G1 X154.371 Y124.671 E87.0737 F3600
G1 X154.384 Y124.785 E87.0796
G1 X154.396 Y124.900 E87.0851
G1 X154.409 Y125.014 E87.0904
G1 X154.422 Y125.128 E87.0952
G1 X154.434 Y125.242 E87.0997
G1 X154.445 Y125.357 E87.1038
G1 X154.457 Y125.471 E87.1076
G1 X154.469 Y125.585 E87.1111
G1 X154.480 Y125.700 E87.1143
G1 X154.492 Y125.814 E87.1171
G1 X154.504 Y125.928 E87.1196
; ------------------------------------
; Layer #2
; ------------------------------------
G92 E0 ;reset extr
;segType:HShell
G0 F3000 E-1.0000
G0 F1200 Z2.300
G0 X113.085 Y74.141 F7200
G0 F3000 E0.0000
G1 X105.732 Y66.789 E0.5188 F3600
;segType:Perimeter
G0 X104.858 Y65.661 F7200
G1 X155.192 Y83.983 E3.1911 F2160
G1 X155.190 Y131.642 E5.5689
G1 X155.097 Y131.757 E5.5797
G1 X155.108 Y131.871 E5.5877
G1 X155.120 Y131.985 E5.5955
G1 X155.132 Y132.100 E5.6029
G1 X155.143 Y132.214 E5.6100
G1 X155.155 Y132.328 E5.6167
G1 X155.166 Y132.442 E5.6231
G1 X155.178 Y132.557 E5.6292
G1 X155.190 Y132.671 E5.6349
G1 X155.201 Y132.785 E5.6403
G1 X155.213 Y132.900 E5.6454
G1 X155.225 Y133.014 E5.6501
G1 X155.236 Y133.128 E5.6545
G1 X155.248 Y133.243 E5.6586
G1 X155.259 Y133.357 E5.6624
G1 X155.271 Y133.471 E5.6658
G1 X155.283 Y133.585 E5.6688
G0 X155.097 Y131.757 F7200
G1 X154.978 Y131.642 E5.6771 F2160
G1 X153.685 Y125.356 E5.9973
G1 X152.430 Y119.763 E6.2833
G1 X151.435 Y116.047 E6.4751
G1 X150.316 Y112.523 E6.6596
G1 X149.037 Y109.079 E6.8429
G1 X147.604 Y105.733 E7.0245
G1 X145.948 Y102.354 E7.2122
G1 X144.220 Y99.258 E7.3891
G1 X142.366 Y96.321 E7.5624
G1 X140.392 Y93.555 E7.7320
G1 X138.299 Y90.961 E7.8982
G1 X136.086 Y88.537 E8.0620
G1 X133.749 Y86.282 E8.2240
G1 X131.281 Y84.190 E8.3854
G1 X128.669 Y82.256 E8.5476
G1 X125.900 Y80.476 E8.7118
G1 X122.956 Y78.847 E8.8797
G1 X119.814 Y77.367 E9.0529
G1 X116.446 Y76.036 E9.2336
G1 X112.820 Y74.855 E9.4239
G1 X108.890 Y73.826 E9.6265
G1 X104.809 Y72.998 E9.8343
G1 X104.809 Y65.695 E10.1986
;segType:Loop
G0 X105.173 Y66.202 F7200
G1 X154.792 Y84.263 E12.8330 F3600
G1 X154.790 Y127.757 E15.0029
G1 X154.701 Y127.871 E15.0133
G1 X154.713 Y127.985 E15.0213
G1 X154.724 Y128.100 E15.0289
G1 X154.736 Y128.214 E15.0361
G1 X154.748 Y128.328 E15.0431
G1 X154.759 Y128.442 E15.0497
G1 X154.771 Y128.557 E15.0560
G1 X154.783 Y128.671 E15.0619
G1 X154.794 Y128.785 E15.0675
G1 X154.806 Y128.900 E15.0728
G1 X154.818 Y129.014 E15.0778
G1 X154.829 Y129.128 E15.0824
G1 X154.841 Y129.242 E15.0866
G1 X154.852 Y129.357 E15.0906
G1 X154.864 Y129.471 E15.0942
G1 X154.876 Y129.585 E15.0975
G1 X154.887 Y129.700 E15.1004
G0 X154.701 Y127.871 F7200
G1 X154.587 Y127.757 E15.1085 F3600
G1 X154.076 Y125.271 E15.2351
G1 X152.819 Y119.667 E15.5216
G1 X151.819 Y115.935 E15.7144
G1 X150.695 Y112.393 E15.8998
G1 X149.409 Y108.931 E16.0841
G1 X147.968 Y105.566 E16.2667
G1 X146.303 Y102.169 E16.4554
G1 X144.564 Y99.053 E16.6334
G1 X142.698 Y96.098 E16.8078
G1 X140.710 Y93.313 E16.9785
G1 X138.603 Y90.701 E17.1459
G1 X136.373 Y88.258 E17.3109
G1 X134.018 Y85.985 E17.4742
G1 X131.529 Y83.876 E17.6370
G1 X128.896 Y81.927 E17.8004
G1 X126.105 Y80.133 E17.9659
G1 X123.138 Y78.491 E18.1351
G1 X119.973 Y77.000 E18.3097
G1 X116.582 Y75.660 E18.4916
G1 X112.933 Y74.471 E18.6831
G1 X108.981 Y73.437 E18.8869
G1 X105.209 Y72.671 E19.0789
G1 X105.209 Y66.315 E19.3960
;segType:HShell
G0 X105.569 Y67.191 F7200
G1 X112.314 Y73.937 E19.8719 F3600
G0 X111.548 Y73.736 F7200
G1 X105.569 Y67.757 E20.2938 F3600
G0 X105.569 Y68.323 F7200
G1 X110.782 Y73.536 E20.6616 F3600
G0 X110.016 Y73.335 F7200
G1 X105.569 Y68.888 E20.9754 F3600
G0 X105.569 Y69.454 F7200
G1 X109.250 Y73.135 E21.2351 F3600
G0 X108.526 Y72.977 F7200
G1 X105.569 Y70.020 E21.4437 F3600
G0 X105.569 Y70.585 F7200
G1 X107.816 Y72.833 E21.6023 F3600
G0 X107.107 Y72.689 F7200
G1 X105.569 Y71.151 E21.7108 F3600
G0 X105.569 Y71.717 F7200
G1 X106.397 Y72.545 E21.7692 F3600
G0 X113.924 Y74.415 F7200
G1 X106.622 Y67.112 E22.2844 F3600
G0 X107.511 Y67.436 F7200
G1 X114.763 Y74.688 E22.7961 F3600
G0 X115.602 Y74.962 F7200
G1 X108.401 Y67.760 E23.3042 F3600
G0 X109.290 Y68.084 F7200
G1 X116.441 Y75.235 E23.8088 F3600
G0 X117.347 Y75.575 F7200
G1 X110.180 Y68.408 E24.3145 F3600
G0 X111.069 Y68.731 F7200
G1 X118.282 Y75.945 E24.8234 F3600
G0 X119.218 Y76.315 F7200
G1 X111.958 Y69.055 E25.3356 F3600
G0 X112.848 Y69.379 F7200
G1 X120.159 Y76.690 E25.8514 F3600
G0 X121.228 Y77.194 F7200
G1 X113.737 Y69.703 E26.3800 F3600
G0 X114.627 Y70.026 F7200
G1 X122.298 Y77.697 E26.9212 F3600
G0 X123.379 Y78.213 F7200
G1 X115.516 Y70.350 E27.4759 F3600
G0 X116.406 Y70.674 F7200
G1 X124.645 Y78.913 E28.0573 F3600
G0 X125.911 Y79.614 F7200
G1 X117.295 Y70.998 E28.6652 F3600
G0 X118.185 Y71.321 F7200
G1 X127.400 Y80.537 E29.3154 F3600
G0 X128.984 Y81.555 F7200
G1 X119.074 Y71.645 E30.0145 F3600
G0 X119.964 Y71.969 F7200
G1 X131.119 Y83.124 E30.8016 F3600
G0 X134.800 Y86.239 F7200
G1 X120.853 Y72.293 E31.7856 F3600
G0 X121.742 Y72.617 F7200
G1 X154.431 Y105.305 E34.0920 F3600
G0 X154.431 Y104.739 F7200
G1 X122.632 Y72.940 E36.3355 F3600
G0 X123.521 Y73.264 F7200
G1 X154.431 Y104.174 E38.5164 F3600
G0 X154.431 Y103.608 F7200
G1 X124.411 Y73.588 E40.6344 F3600
G0 X125.300 Y73.912 F7200
G1 X154.431 Y103.042 E42.6898 F3600
G0 X154.431 Y102.477 F7200
G1 X126.190 Y74.235 E44.6823 F3600
G0 X127.079 Y74.559 F7200
G1 X154.431 Y101.911 E46.6121 F3600
G0 X154.431 Y101.345 F7200
G1 X127.969 Y74.883 E48.4792 F3600
G0 X128.858 Y75.207 F7200
G1 X154.431 Y100.780 E50.2835 F3600
G0 X154.431 Y100.214 F7200
G1 X129.748 Y75.530 E52.0250 F3600
G0 X130.637 Y75.854 F7200
G1 X154.431 Y99.648 E53.7038 F3600
G0 X154.431 Y99.083 F7200
G1 X131.526 Y76.178 E55.3199 F3600
G0 X132.416 Y76.502 F7200
G1 X154.431 Y98.517 E56.8732 F3600
G0 X154.431 Y97.951 F7200
G1 X133.305 Y76.826 E58.3637 F3600
G0 X134.195 Y77.149 F7200
G1 X154.431 Y97.386 E59.7915 F3600
G0 X154.431 Y96.820 F7200
G1 X135.084 Y77.473 E61.1565 F3600
G0 X135.974 Y77.797 F7200
G1 X154.431 Y96.254 E62.4588 F3600
G0 X154.431 Y95.689 F7200
G1 X136.863 Y78.121 E63.6983 F3600
G0 X137.753 Y78.444 F7200
G1 X154.431 Y95.123 E64.8750 F3600
G0 X154.431 Y94.557 F7200
G1 X138.642 Y78.768 E65.9890 F3600
G0 X139.532 Y79.092 F7200
G1 X154.431 Y93.992 E67.0403 F3600
G0 X154.431 Y93.426 F7200
G1 X140.421 Y79.416 E68.0288 F3600
G0 X141.310 Y79.739 F7200
G1 X154.431 Y92.860 E68.9545 F3600
G0 X154.431 Y92.295 F7200
G1 X142.200 Y80.063 E69.8175 F3600
G0 X143.089 Y80.387 F7200
G1 X154.431 Y91.729 E70.6177 F3600
G0 X154.431 Y91.163 F7200
G1 X143.979 Y80.711 E71.3552 F3600
G0 X144.868 Y81.035 F7200
G1 X154.431 Y90.598 E72.0299 F3600
G0 X154.431 Y90.032 F7200
G1 X145.758 Y81.358 E72.6419 F3600
G0 X146.647 Y81.682 F7200
G1 X154.431 Y89.466 E73.1911 F3600
G0 X154.431 Y88.901 F7200
G1 X147.537 Y82.006 E73.6776 F3600
G0 X148.426 Y82.330 F7200
G1 X154.431 Y88.335 E74.1013 F3600
G0 X154.431 Y87.769 F7200
G1 X149.316 Y82.653 E74.4622 F3600
G0 X150.205 Y82.977 F7200
G1 X154.431 Y87.204 E74.7604 F3600
G0 X154.431 Y86.638 F7200
G1 X151.094 Y83.301 E74.9959 F3600
G0 X151.984 Y83.625 F7200
G1 X154.431 Y86.072 E75.1686 F3600
G0 X154.431 Y85.507 F7200
G1 X152.873 Y83.948 E75.2785 F3600
G0 X153.763 Y84.272 F7200
G1 X154.431 Y84.941 E75.3257 F3600
G0 X140.612 Y92.617 F7200
G1 X154.431 Y106.436 E76.3007 F3600
G0 X154.431 Y107.002 F7200
G1 X142.177 Y94.748 E77.1653 F3600
G0 X143.403 Y96.540 F7200
G1 X154.431 Y107.568 E77.9433 F3600
G0 X154.431 Y108.133 F7200
G1 X144.372 Y98.075 E78.6530 F3600
G0 X145.219 Y99.487 F7200
G1 X154.431 Y108.699 E79.3030 F3600
;segType:InnerHair
G0 X154.358 Y124.557 F7200
G1 X154.371 Y124.671 E79.3093 F3600
G1 X154.384 Y124.785 E79.3152
G1 X154.396 Y124.900 E79.3207
G1 X154.409 Y125.014 E79.3259
G1 X154.422 Y125.128 E79.3308
G1 X154.434 Y125.242 E79.3353
G1 X154.445 Y125.357 E79.3394
G1 X154.457 Y125.471 E79.3432
G1 X154.469 Y125.585 E79.3467
G1 X154.480 Y125.700 E79.3499
G1 X154.492 Y125.814 E79.3527
G1 X154.504 Y125.928 E79.3552
;segType:HShell
G0 X154.293 Y124.117 F7200
G1 X154.170 Y123.146 E79.3877 F3600
G0 X154.430 Y122.840 F7200
G1 X153.746 Y122.157 E79.4360 F3600
G0 X153.583 Y121.427 F7200
G1 X154.430 Y122.275 E79.4958 F3600
G0 X154.430 Y121.709 F7200
G1 X153.419 Y120.698 E79.5671 F3600
G0 X153.256 Y119.969 F7200
G1 X154.430 Y121.143 E79.6500 F3600
G0 X154.430 Y120.578 F7200
G1 X153.072 Y119.219 E79.7458 F3600
G0 X152.865 Y118.447 F7200
G1 X154.430 Y120.012 E79.8563 F3600
G0 X154.430 Y119.446 F7200
G1 X152.658 Y117.674 E79.9813 F3600
G0 X152.451 Y116.902 F7200
G1 X154.430 Y118.881 E80.1210 F3600
G0 X154.430 Y118.315 F7200
G1 X152.244 Y116.129 E80.2752 F3600
G0 X152.002 Y115.322 F7200
G1 X154.430 Y117.750 E80.4465 F3600
G0 X154.430 Y117.184 F7200
G1 X151.739 Y114.493 E80.6364 F3600
G0 X151.476 Y113.664 F7200
G1 X154.430 Y116.618 E80.8448 F3600
G0 X154.430 Y116.052 F7200
G1 X151.213 Y112.835 E81.0719 F3600
G0 X150.926 Y111.983 F7200
G1 X154.430 Y115.487 E81.3191 F3600
G0 X154.430 Y114.921 F7200
G1 X150.592 Y111.083 E81.5899 F3600
G0 X150.258 Y110.183 F7200
G1 X154.430 Y114.356 E81.8843 F3600
G0 X154.430 Y113.790 F7200
G1 X149.924 Y109.283 E82.2023 F3600
G0 X149.549 Y108.342 F7200
G1 X154.430 Y113.224 E82.5467 F3600
G0 X154.430 Y112.659 F7200
G1 X149.125 Y107.353 E82.9210 F3600
G0 X148.701 Y106.364 F7200
G1 X154.431 Y112.093 E83.3253 F3600
G0 X154.431 Y111.527 F7200
G1 X148.273 Y105.369 E83.7597 F3600
G0 X147.729 Y104.260 F7200
G1 X154.431 Y110.962 E84.2326 F3600
G0 X154.431 Y110.396 F7200
G1 X147.185 Y103.150 E84.7438 F3600
G0 X146.641 Y102.040 F7200
G1 X154.431 Y109.830 E85.2934 F3600
G0 X154.431 Y109.265 F7200
G1 X145.933 Y100.766 E85.8930 F3600
G0 X154.431 Y105.871 F7200
G1 X137.301 Y88.741 E87.1016 F3600
; ------------------------------------
; Layer #3
; ------------------------------------
G92 E0 ;reset extr
;segType:Infill
G0 F3000 E-1.0000
G0 F1200 Z2.600
G0 X110.594 Y73.486 F7200
G0 F3000 E0.0000
G1 X114.207 Y69.874 E0.3059 F4500
G0 X110.889 Y68.666 F7200
G1 X106.907 Y72.648 E0.6430 F4500
G0 X105.569 Y69.461 F7200
G1 X107.571 Y67.458 E0.8126 F4500
;segType:Perimeter
G0 X104.858 Y65.661 F7200
G1 X155.192 Y83.983 E3.4850 F2160
G1 X155.190 Y131.642 E5.8627
G1 X155.097 Y131.757 E5.8735
G1 X155.108 Y131.871 E5.8816
G1 X155.120 Y131.985 E5.8893
G1 X155.132 Y132.100 E5.8967
G1 X155.143 Y132.214 E5.9038
G1 X155.155 Y132.328 E5.9105
G1 X155.166 Y132.442 E5.9169
G1 X155.178 Y132.557 E5.9230
G1 X155.190 Y132.671 E5.9287
G1 X155.201 Y132.785 E5.9341
G1 X155.213 Y132.900 E5.9392
G1 X155.225 Y133.014 E5.9440
G1 X155.236 Y133.128 E5.9484
G1 X155.248 Y133.243 E5.9524
G1 X155.259 Y133.357 E5.9562
G1 X155.271 Y133.471 E5.9596
G1 X155.283 Y133.585 E5.9626
G0 X155.097 Y131.757 F7200
G1 X154.978 Y131.642 E5.9709 F2160
G1 X153.685 Y125.356 E6.2911
G1 X152.430 Y119.763 E6.5771
G1 X151.435 Y116.047 E6.7689
G1 X150.316 Y112.523 E6.9534
G1 X149.037 Y109.079 E7.1367
G1 X147.604 Y105.733 E7.3183
G1 X145.948 Y102.354 E7.5060
G1 X144.220 Y99.258 E7.6830
G1 X142.366 Y96.321 E7.8562
G1 X140.392 Y93.555 E8.0258
G1 X138.299 Y90.961 E8.1920
G1 X136.086 Y88.537 E8.3558
G1 X133.749 Y86.282 E8.5178
G1 X131.281 Y84.190 E8.6793
G1 X128.669 Y82.256 E8.8414
G1 X125.900 Y80.476 E9.0056
G1 X122.956 Y78.847 E9.1735
G1 X119.814 Y77.367 E9.3467
G1 X116.446 Y76.036 E9.5274
G1 X112.820 Y74.855 E9.7177
G1 X108.890 Y73.826 E9.9203
G1 X104.809 Y72.998 E10.1281
G1 X104.809 Y65.695 E10.4924
;segType:Loop
G0 X105.173 Y66.202 F7200
G1 X154.792 Y84.263 E13.1268 F3600
G1 X154.790 Y127.757 E15.2967
G1 X154.701 Y127.871 E15.3071
G1 X154.713 Y127.985 E15.3151
G1 X154.724 Y128.100 E15.3227
G1 X154.736 Y128.214 E15.3300
G1 X154.748 Y128.328 E15.3369
G1 X154.759 Y128.442 E15.3435
G1 X154.771 Y128.557 E15.3498
G1 X154.783 Y128.671 E15.3557
G1 X154.794 Y128.785 E15.3614
G1 X154.806 Y128.900 E15.3666
G1 X154.818 Y129.014 E15.3716
G1 X154.829 Y129.128 E15.3762
G1 X154.841 Y129.242 E15.3805
G1 X154.852 Y129.357 E15.3844
G1 X154.864 Y129.471 E15.3880
G1 X154.876 Y129.585 E15.3913
G1 X154.887 Y129.700 E15.3942
G0 X154.701 Y127.871 F7200
G1 X154.587 Y127.757 E15.4023 F3600
G1 X154.076 Y125.271 E15.5289
G1 X152.819 Y119.667 E15.8154
G1 X151.819 Y115.935 E16.0082
G1 X150.695 Y112.393 E16.1936
G1 X149.409 Y108.931 E16.3779
G1 X147.968 Y105.566 E16.5605
G1 X146.303 Y102.169 E16.7492
G1 X144.564 Y99.053 E16.9272
G1 X142.698 Y96.098 E17.1016
G1 X140.710 Y93.313 E17.2723
G1 X138.603 Y90.701 E17.4398
G1 X136.373 Y88.258 E17.6048
G1 X134.018 Y85.985 E17.7681
G1 X131.529 Y83.876 E17.9308
G1 X128.896 Y81.927 E18.0942
G1 X126.105 Y80.133 E18.2598
G1 X123.138 Y78.491 E18.4290
G1 X119.973 Y77.000 E18.6035
G1 X116.582 Y75.660 E18.7854
G1 X112.933 Y74.471 E18.9769
G1 X108.981 Y73.437 E19.1807
G1 X105.209 Y72.671 E19.3727
G1 X105.209 Y66.315 E19.6898
;segType:Infill
G0 X114.126 Y74.481 F7200
G1 X117.525 Y71.081 E19.9776 F4500
G0 X120.843 Y72.289 F7200
G1 X117.497 Y75.634 E20.2609 F4500
G0 X120.708 Y76.949 F7200
G1 X124.160 Y73.497 E20.5531 F4500
G0 X130.796 Y75.912 F7200
G1 X126.652 Y80.056 E20.9040 F4500
G0 X129.390 Y81.844 F7200
G1 X134.114 Y77.120 E21.3039 F4500
G0 X147.385 Y81.951 F7200
G1 X138.873 Y90.462 E22.0246 F4500
G0 X140.894 Y92.967 F7200
G1 X150.703 Y83.158 E22.8551 F4500
G0 X154.020 Y84.366 F7200
G1 X142.786 Y95.601 E23.8063 F4500
G0 X154.431 Y111.109 F7200
G1 X151.572 Y113.967 E24.0483 F4500
G0 X154.430 Y120.160 F7200
G1 X153.506 Y121.085 E24.1266 F4500
G0 X152.601 Y117.463 F7200
G1 X154.430 Y115.634 E24.2814 F4500
G0 X150.413 Y110.601 F7200
G1 X154.431 Y106.583 E24.6216 F4500
G0 X154.431 Y102.058 F7200
G1 X149.128 Y107.360 E25.0705 F4500
G0 X147.720 Y104.243 F7200
G1 X154.431 Y97.532 E25.6387 F4500
G0 X154.431 Y93.006 F7200
G1 X146.197 Y101.240 E26.3359 F4500
G0 X144.552 Y98.360 F7200
G1 X154.431 Y88.481 E27.1723 F4500
G0 X136.713 Y88.097 F7200
G1 X144.067 Y80.743 E27.7949 F4500
G0 X140.749 Y79.535 F7200
G1 X134.416 Y85.869 E28.3312 F4500
G0 X131.976 Y83.783 F7200
G1 X137.432 Y78.328 E28.7931 F4500
G0 X127.478 Y74.704 F7200
G1 X123.759 Y78.423 E29.1079 F4500
G0 X124.174 Y79.064 F7200
G0 X126.105 Y80.133
G0 X128.896 Y81.927
G0 X131.529 Y83.876
G0 X134.018 Y85.985
G0 X136.373 Y88.258
G0 X138.603 Y90.701
G0 X140.710 Y93.313
G0 X142.698 Y96.098
G0 X144.564 Y99.053
G0 X146.303 Y102.169
G0 X147.968 Y105.566
G0 X149.409 Y108.931
G0 X150.695 Y112.393
G0 X151.819 Y115.935
G0 X152.819 Y119.667
G0 X154.074 Y125.265
G0 X154.074 Y125.265
G0 X154.511 Y125.939
;segType:InnerHair
G0 X154.504 Y125.928
G1 X154.492 Y125.814 E29.1108 F3600
G1 X154.480 Y125.700 E29.1139
G1 X154.469 Y125.585 E29.1174
G1 X154.457 Y125.471 E29.1212
G1 X154.445 Y125.357 E29.1254
G1 X154.434 Y125.242 E29.1298
G1 X154.422 Y125.128 E29.1347
G1 X154.409 Y125.014 E29.1399
G1 X154.396 Y124.900 E29.1454
G1 X154.384 Y124.785 E29.1514
G1 X154.371 Y124.671 E29.1577
G1 X154.358 Y124.557 E29.1643
; ------------------------------------
; Layer #4
; ------------------------------------
G92 E0 ;reset extr
;segType:Infill
G0 F3000 E-1.0000
G0 F1200 Z2.900
G0 X113.924 Y74.415 F7200
G0 F3000 E0.0000
G1 X106.622 Y67.112 E0.6183 F4500
;segType:Perimeter
G0 X104.858 Y65.661 F7200
G1 X155.192 Y83.983 E3.2906 F2160
G1 X155.190 Y131.642 E5.6684
G1 X155.097 Y131.757 E5.6792
G1 X155.108 Y131.871 E5.6872
G1 X155.120 Y131.985 E5.6950
G1 X155.132 Y132.100 E5.7024
G1 X155.143 Y132.214 E5.7095
G1 X155.155 Y132.328 E5.7162
G1 X155.166 Y132.442 E5.7226
G1 X155.178 Y132.557 E5.7287
G1 X155.190 Y132.671 E5.7344
G1 X155.201 Y132.785 E5.7398
G1 X155.213 Y132.900 E5.7449
G1 X155.225 Y133.014 E5.7496
G1 X155.236 Y133.128 E5.7540
G1 X155.248 Y133.243 E5.7581
G1 X155.259 Y133.357 E5.7618
G1 X155.271 Y133.471 E5.7653
G1 X155.283 Y133.585 E5.7683
G0 X155.097 Y131.757 F7200
G1 X154.978 Y131.642 E5.7766 F2160
G1 X153.685 Y125.356 E6.0968
G1 X152.430 Y119.763 E6.3827
G1 X151.435 Y116.047 E6.5746
G1 X150.316 Y112.523 E6.7591
G1 X149.037 Y109.079 E6.9424
G1 X147.604 Y105.733 E7.1240
G1 X145.948 Y102.354 E7.3117
G1 X144.220 Y99.258 E7.4886
G1 X142.366 Y96.321 E7.6619
G1 X140.392 Y93.555 E7.8314
G1 X138.299 Y90.961 E7.9977
G1 X136.086 Y88.537 E8.1615
G1 X133.749 Y86.282 E8.3235
G1 X131.281 Y84.190 E8.4849
G1 X128.669 Y82.256 E8.6470
G1 X125.900 Y80.476 E8.8113
G1 X122.956 Y78.847 E8.9791
G1 X119.814 Y77.367 E9.1524
G1 X116.446 Y76.036 E9.3331
G1 X112.820 Y74.855 E9.5234
G1 X108.890 Y73.826 E9.7260
G1 X104.809 Y72.998 E9.9338
G1 X104.809 Y65.695 E10.2981
;segType:Loop
G0 X105.173 Y66.202 F7200
G1 X154.792 Y84.263 E12.9325 F3600
G1 X154.790 Y127.757 E15.1024
G1 X154.701 Y127.871 E15.1128
G1 X154.713 Y127.985 E15.1208
G1 X154.724 Y128.100 E15.1284
G1 X154.736 Y128.214 E15.1356
G1 X154.748 Y128.328 E15.1426
G1 X154.759 Y128.442 E15.1492
G1 X154.771 Y128.557 E15.1555
G1 X154.783 Y128.671 E15.1614
G1 X154.794 Y128.785 E15.1670
G1 X154.806 Y128.900 E15.1723
G1 X154.818 Y129.014 E15.1773
G1 X154.829 Y129.128 E15.1819
G1 X154.841 Y129.242 E15.1861
G1 X154.852 Y129.357 E15.1901
G1 X154.864 Y129.471 E15.1937
G1 X154.876 Y129.585 E15.1970
G1 X154.887 Y129.700 E15.1999
G0 X154.701 Y127.871 F7200
G1 X154.587 Y127.757 E15.2080 F3600
G1 X154.076 Y125.271 E15.3346
G1 X152.819 Y119.667 E15.6211
G1 X151.819 Y115.935 E15.8139
G1 X150.695 Y112.393 E15.9993
G1 X149.409 Y108.931 E16.1836
G1 X147.968 Y105.566 E16.3661
G1 X146.303 Y102.169 E16.5549
G1 X144.564 Y99.053 E16.7329
G1 X142.698 Y96.098 E16.9073
G1 X140.710 Y93.313 E17.0780
G1 X138.603 Y90.701 E17.2454
G1 X136.373 Y88.258 E17.4104
G1 X134.018 Y85.985 E17.5737
G1 X131.529 Y83.876 E17.7365
G1 X128.896 Y81.927 E17.8999
G1 X126.105 Y80.133 E18.0654
G1 X123.138 Y78.491 E18.2346
G1 X119.973 Y77.000 E18.4092
G1 X116.582 Y75.660 E18.5911
G1 X112.933 Y74.471 E18.7826
G1 X108.981 Y73.437 E18.9864
G1 X105.209 Y72.671 E19.1784
G1 X105.209 Y66.315 E19.4955
;segType:Infill
G0 X105.569 Y70.585 F7200
G1 X107.816 Y72.833 E19.6858 F4500
G0 X120.853 Y72.293 F7200
G1 X134.799 Y86.239 E20.8666 F4500
G0 X137.301 Y88.741 F7200
G1 X154.431 Y105.871 E22.3168 F4500
G0 X150.592 Y111.083 F7200
G1 X154.430 Y114.921 E22.6418 F4500
G0 X154.073 Y123.615 F7200
G1 X154.430 Y123.972 E22.6720 F4500
G0 X154.430 Y119.446 F7200
G1 X152.658 Y117.674 E22.8221 F4500
G0 X154.431 Y110.396 F7200
G1 X147.185 Y103.150 E23.4356 F4500
G0 X149.315 Y82.653 F7200
G1 X154.431 Y87.769 E23.8687 F4500
G0 X154.431 Y92.295 F7200
G1 X142.200 Y80.063 E24.9043 F4500
G0 X135.084 Y77.473 F7200
G1 X154.431 Y96.820 E26.5423 F4500
G0 X154.431 Y101.345 F7200
G1 X127.969 Y74.883 E28.7828 F4500
G0 X121.228 Y77.194 F7200
G1 X113.737 Y69.703 E29.4170 F4500
G0 X118.649 Y76.477 F7200
G0 X119.973 Y77.000
G0 X123.138 Y78.491
G0 X126.105 Y80.133
G0 X128.896 Y81.927
G0 X131.529 Y83.876
G0 X134.018 Y85.985
G0 X136.373 Y88.258
G0 X138.603 Y90.701
G0 X140.710 Y93.313
G0 X142.698 Y96.098
G0 X144.564 Y99.053
G0 X146.303 Y102.169
G0 X147.968 Y105.566
G0 X149.409 Y108.931
G0 X150.695 Y112.393
G0 X151.819 Y115.935
G0 X152.819 Y119.667
G0 X154.076 Y125.271
G0 X154.095 Y125.365
G0 X154.095 Y125.365
G0 X154.511 Y125.939
;segType:InnerHair
G0 X154.504 Y125.928
G1 X154.492 Y125.814 E29.4198 F3600
G1 X154.480 Y125.700 E29.4230
G1 X154.469 Y125.585 E29.4265
G1 X154.457 Y125.471 E29.4303
G1 X154.445 Y125.357 E29.4344
G1 X154.434 Y125.242 E29.4389
G1 X154.422 Y125.128 E29.4437
G1 X154.409 Y125.014 E29.4489
G1 X154.396 Y124.900 E29.4545
G1 X154.384 Y124.785 E29.4604
G1 X154.371 Y124.671 E29.4667
G1 X154.358 Y124.557 E29.4734
; ------------------------------------
; Layer #5
; ------------------------------------
G92 E0 ;reset extr
;segType:Infill
G0 F3000 E-1.0000
G0 F1200 Z3.200
G0 X110.594 Y73.486 F7200
G0 F3000 E0.0000
G1 X114.207 Y69.874 E0.3059 F4500
G0 X110.889 Y68.666 F7200
G1 X106.907 Y72.648 E0.6430 F4500
G0 X105.569 Y69.461 F7200
G1 X107.571 Y67.458 E0.8126 F4500
;segType:Perimeter
G0 X104.858 Y65.661 F7200
G1 X155.192 Y83.983 E3.4850 F2160
G1 X155.190 Y131.642 E5.8627
G1 X155.097 Y131.757 E5.8735
G1 X155.108 Y131.871 E5.8816
G1 X155.120 Y131.985 E5.8893
G1 X155.132 Y132.100 E5.8967
G1 X155.143 Y132.214 E5.9038
G1 X155.155 Y132.328 E5.9105
G1 X155.166 Y132.442 E5.9169
G1 X155.178 Y132.557 E5.9230
G1 X155.190 Y132.671 E5.9287
G1 X155.201 Y132.785 E5.9341
G1 X155.213 Y132.900 E5.9392
G1 X155.225 Y133.014 E5.9440
G1 X155.236 Y133.128 E5.9484
G1 X155.248 Y133.243 E5.9524
G1 X155.259 Y133.357 E5.9562
G1 X155.271 Y133.471 E5.9596
G1 X155.283 Y133.585 E5.9626
G0 X155.097 Y131.757 F7200
G1 X154.978 Y131.642 E5.9709 F2160
G1 X153.685 Y125.356 E6.2911
G1 X152.430 Y119.763 E6.5771
G1 X151.435 Y116.047 E6.7689
G1 X150.316 Y112.523 E6.9534
G1 X149.037 Y109.079 E7.1367
G1 X147.604 Y105.733 E7.3183
G1 X145.948 Y102.354 E7.5060
G1 X144.220 Y99.258 E7.6830
G1 X142.366 Y96.321 E7.8562
G1 X140.392 Y93.555 E8.0258
G1 X138.299 Y90.961 E8.1920
G1 X136.086 Y88.537 E8.3558
G1 X133.749 Y86.282 E8.5178
G1 X131.281 Y84.190 E8.6793
G1 X128.669 Y82.256 E8.8414
G1 X125.900 Y80.476 E9.0056
G1 X122.956 Y78.847 E9.1735
G1 X119.814 Y77.367 E9.3467
G1 X116.446 Y76.036 E9.5274
G1 X112.820 Y74.855 E9.7177
G1 X108.890 Y73.826 E9.9203
G1 X104.809 Y72.998 E10.1281
G1 X104.809 Y65.695 E10.4924
;segType:Loop
G0 X105.173 Y66.202 F7200
G1 X154.792 Y84.263 E13.1268 F3600
G1 X154.790 Y127.757 E15.2967
G1 X154.701 Y127.871 E15.3071
G1 X154.713 Y127.985 E15.3151
G1 X154.724 Y128.100 E15.3227
G1 X154.736 Y128.214 E15.3300
G1 X154.748 Y128.328 E15.3369
G1 X154.759 Y128.442 E15.3435
G1 X154.771 Y128.557 E15.3498
G1 X154.783 Y128.671 E15.3557
G1 X154.794 Y128.785 E15.3613
G1 X154.806 Y128.900 E15.3666
G1 X154.818 Y129.014 E15.3716
G1 X154.829 Y129.128 E15.3762
G1 X154.841 Y129.242 E15.3805
G1 X154.852 Y129.357 E15.3844
G1 X154.864 Y129.471 E15.3880
G1 X154.876 Y129.585 E15.3913
G1 X154.887 Y129.700 E15.3942
G0 X154.701 Y127.871 F7200
G1 X154.587 Y127.757 E15.4023 F3600
G1 X154.076 Y125.271 E15.5289
G1 X152.819 Y119.667 E15.8154
G1 X151.819 Y115.935 E16.0082
G1 X150.695 Y112.393 E16.1936
G1 X149.409 Y108.931 E16.3779
G1 X147.968 Y105.566 E16.5605
G1 X146.303 Y102.169 E16.7492
G1 X144.564 Y99.053 E16.9272
G1 X142.698 Y96.098 E17.1016
G1 X140.710 Y93.313 E17.2723
G1 X138.603 Y90.701 E17.4397
G1 X136.373 Y88.258 E17.6048
G1 X134.018 Y85.985 E17.7681
G1 X131.529 Y83.876 E17.9308
G1 X128.896 Y81.927 E18.0942
G1 X126.105 Y80.133 E18.2598
G1 X123.138 Y78.491 E18.4290
G1 X119.973 Y77.000 E18.6035
G1 X116.582 Y75.660 E18.7854
G1 X112.933 Y74.471 E18.9769
G1 X108.981 Y73.437 E19.1807
G1 X105.209 Y72.671 E19.3727
G1 X105.209 Y66.315 E19.6898
;segType:Infill
G0 X114.126 Y74.481 F7200
G1 X117.525 Y71.081 E19.9776 F4500
G0 X120.708 Y76.949 F7200
G1 X124.160 Y73.497 E20.2699 F4500
G0 X127.478 Y74.704 F7200
G1 X123.759 Y78.423 E20.5847 F4500
G0 X126.652 Y80.056 F7200
G1 X130.796 Y75.912 E20.9356 F4500
G0 X134.114 Y77.120 F7200
G1 X129.390 Y81.844 E21.3356 F4500
G0 X131.976 Y83.783 F7200
G1 X137.432 Y78.328 E21.7975 F4500
G0 X144.067 Y80.743 F7200
G1 X136.713 Y88.097 E22.4201 F4500
G0 X138.873 Y90.462 F7200
G1 X147.385 Y81.951 E23.1408 F4500
G0 X154.020 Y84.366 F7200
G1 X142.786 Y95.601 E24.0920 F4500
G0 X154.431 Y97.532 F7200
G1 X147.720 Y104.243 E24.6602 F4500
G0 X154.431 Y106.583 F7200
G1 X150.413 Y110.601 E25.0003 F4500
G0 X154.431 Y111.109 F7200
G1 X151.572 Y113.967 E25.2423 F4500
G0 X154.430 Y120.160 F7200
G1 X153.506 Y121.085 E25.3206 F4500
G0 X152.601 Y117.463 F7200
G1 X154.430 Y115.634 E25.4754 F4500
G0 X149.128 Y107.360 F7200
G1 X154.431 Y102.058 E25.9244 F4500
G0 X146.197 Y101.240 F7200
G1 X154.431 Y93.006 E26.6216 F4500
G0 X154.431 Y88.481 F7200
G1 X144.552 Y98.360 E27.4580 F4500
G0 X140.894 Y92.967 F7200
G1 X150.703 Y83.158 E28.2885 F4500
G0 X140.749 Y79.535 F7200
G1 X134.416 Y85.869 E28.8247 F4500
G0 X120.843 Y72.289 F7200
G1 X117.497 Y75.634 E29.1079 F4500
G0 X117.899 Y76.180 F7200
G0 X119.973 Y77.000
G0 X123.138 Y78.491
G0 X126.105 Y80.133
G0 X128.896 Y81.927
G0 X131.529 Y83.876
G0 X134.018 Y85.985
G0 X136.373 Y88.258
G0 X138.603 Y90.701
G0 X140.710 Y93.313
G0 X142.698 Y96.098
G0 X144.564 Y99.053
G0 X146.303 Y102.169
G0 X147.968 Y105.566
G0 X149.409 Y108.931
G0 X150.695 Y112.393
G0 X151.819 Y115.935
G0 X152.819 Y119.667
G0 X154.076 Y125.271
G0 X154.097 Y125.376
G0 X154.097 Y125.376
G0 X154.511 Y125.939
;segType:InnerHair
G0 X154.504 Y125.928
G1 X154.492 Y125.814 E29.1108 F3600
G1 X154.480 Y125.700 E29.1139
G1 X154.469 Y125.585 E29.1174
G1 X154.457 Y125.471 E29.1212
G1 X154.445 Y125.357 E29.1254
G1 X154.434 Y125.242 E29.1298
G1 X154.422 Y125.128 E29.1347
G1 X154.409 Y125.014 E29.1399
G1 X154.396 Y124.900 E29.1454
G1 X154.384 Y124.785 E29.1514
G1 X154.371 Y124.671 E29.1577
G1 X154.358 Y124.557 E29.1643
; ------------------------------------
; Layer #6
; ------------------------------------
G92 E0 ;reset extr
;segType:Infill
G0 F3000 E-1.0000
G0 F1200 Z3.500
G0 X113.924 Y74.415 F7200
G0 F3000 E0.0000
G1 X106.622 Y67.112 E0.6183 F4500
;segType:Perimeter
G0 X104.858 Y65.661 F7200
G1 X155.192 Y83.983 E3.2906 F2160
G1 X155.190 Y131.642 E5.6684
G1 X155.097 Y131.757 E5.6792
G1 X155.108 Y131.871 E5.6872
G1 X155.120 Y131.985 E5.6950
G1 X155.132 Y132.100 E5.7024
G1 X155.143 Y132.214 E5.7095
G1 X155.155 Y132.328 E5.7162
G1 X155.166 Y132.442 E5.7226
G1 X155.178 Y132.557 E5.7287
G1 X155.190 Y132.671 E5.7344
G1 X155.201 Y132.785 E5.7398
G1 X155.213 Y132.900 E5.7449
G1 X155.225 Y133.014 E5.7496
G1 X155.236 Y133.128 E5.7540
G1 X155.248 Y133.243 E5.7581
G1 X155.259 Y133.357 E5.7619
G1 X155.271 Y133.471 E5.7653
G1 X155.283 Y133.585 E5.7683
G0 X155.097 Y131.757 F7200
G1 X154.978 Y131.642 E5.7766 F2160
G1 X153.685 Y125.356 E6.0968
G1 X152.430 Y119.763 E6.3827
G1 X151.435 Y116.047 E6.5746
G1 X150.316 Y112.523 E6.7591
G1 X149.037 Y109.079 E6.9424
G1 X147.604 Y105.733 E7.1240
G1 X145.948 Y102.354 E7.3117
G1 X144.220 Y99.258 E7.4886
G1 X142.366 Y96.321 E7.6619
G1 X140.392 Y93.555 E7.8314
G1 X138.299 Y90.961 E7.9977
G1 X136.086 Y88.537 E8.1615
G1 X133.749 Y86.282 E8.3235
G1 X131.281 Y84.190 E8.4849
G1 X128.669 Y82.256 E8.6470
G1 X125.900 Y80.476 E8.8113
G1 X122.956 Y78.847 E8.9791
G1 X119.814 Y77.367 E9.1524
G1 X116.446 Y76.036 E9.3331
G1 X112.820 Y74.855 E9.5234
G1 X108.890 Y73.826 E9.7260
G1 X104.809 Y72.998 E9.9338
G1 X104.809 Y65.695 E10.2981
;segType:Loop
G0 X105.173 Y66.202 F7200
G1 X154.792 Y84.263 E12.9325 F3600
G1 X154.790 Y127.757 E15.1024
G1 X154.701 Y127.871 E15.1128
G1 X154.713 Y127.985 E15.1208
G1 X154.724 Y128.100 E15.1284
G1 X154.736 Y128.214 E15.1356
G1 X154.748 Y128.328 E15.1426
G1 X154.759 Y128.442 E15.1492
G1 X154.771 Y128.557 E15.1555
G1 X154.783 Y128.671 E15.1614
G1 X154.794 Y128.785 E15.1670
G1 X154.806 Y128.900 E15.1723
G1 X154.818 Y129.014 E15.1773
G1 X154.829 Y129.128 E15.1819
G1 X154.841 Y129.242 E15.1862
G1 X154.852 Y129.357 E15.1901
G1 X154.864 Y129.471 E15.1937
G1 X154.876 Y129.585 E15.1970
G1 X154.887 Y129.700 E15.1999
G0 X154.701 Y127.871 F7200
G1 X154.587 Y127.757 E15.2080 F3600
G1 X154.076 Y125.271 E15.3346
G1 X152.819 Y119.667 E15.6211
G1 X151.819 Y115.935 E15.8139
G1 X150.695 Y112.393 E15.9993
G1 X149.409 Y108.931 E16.1836
G1 X147.968 Y105.566 E16.3662
G1 X146.303 Y102.169 E16.5549
G1 X144.564 Y99.053 E16.7329
G1 X142.698 Y96.098 E16.9073
G1 X140.710 Y93.313 E17.0780
G1 X138.603 Y90.701 E17.2454
G1 X136.373 Y88.258 E17.4104
G1 X134.018 Y85.985 E17.5738
G1 X131.529 Y83.876 E17.7365
G1 X128.896 Y81.927 E17.8999
G1 X126.105 Y80.133 E18.0654
G1 X123.138 Y78.491 E18.2347
G1 X119.973 Y77.000 E18.4092
G1 X116.582 Y75.660 E18.5911
G1 X112.933 Y74.471 E18.7826
G1 X108.981 Y73.437 E18.9864
G1 X105.209 Y72.671 E19.1784
G1 X105.209 Y66.315 E19.4955
;segType:Infill
G0 X105.569 Y70.585 F7200
G1 X107.817 Y72.833 E19.6858 F4500
G0 X120.853 Y72.293 F7200
G1 X134.800 Y86.240 E20.8666 F4500
G0 X137.301 Y88.741 F7200
G1 X154.431 Y105.871 E22.3169 F4500
G0 X150.592 Y111.083 F7200
G1 X154.430 Y114.921 E22.6419 F4500
G0 X154.073 Y123.615 F7200
G1 X154.430 Y123.972 E22.6721 F4500
G0 X154.430 Y119.447 F7200
G1 X152.658 Y117.674 E22.8221 F4500
G0 X154.431 Y110.396 F7200
G1 X147.185 Y103.150 E23.4356 F4500
G0 X149.315 Y82.653 F7200
G1 X154.431 Y87.769 E23.8688 F4500
G0 X154.431 Y92.295 F7200
G1 X142.200 Y80.063 E24.9043 F4500
G0 X135.084 Y77.473 F7200
G1 X154.431 Y96.820 E26.5424 F4500
G0 X154.431 Y101.345 F7200
G1 X127.969 Y74.883 E28.7828 F4500
G0 X121.228 Y77.194 F7200
G1 X113.737 Y69.703 E29.4171 F4500
G0 X118.649 Y76.477 F7200
G0 X119.973 Y77.000
G0 X123.138 Y78.491
G0 X126.105 Y80.133
G0 X128.896 Y81.927
G0 X131.529 Y83.876
G0 X134.018 Y85.985
G0 X136.373 Y88.258
G0 X138.603 Y90.701
G0 X140.710 Y93.313
G0 X142.698 Y96.098
G0 X144.564 Y99.053
G0 X146.303 Y102.169
G0 X147.968 Y105.566
G0 X149.409 Y108.931
G0 X150.695 Y112.393
G0 X151.819 Y115.935
G0 X152.819 Y119.667
G0 X154.076 Y125.271
G0 X154.095 Y125.365
G0 X154.095 Y125.365
G0 X154.511 Y125.939
;segType:InnerHair
G0 X154.504 Y125.928
G1 X154.492 Y125.814 E29.4199 F3600
G1 X154.480 Y125.700 E29.4230
G1 X154.469 Y125.585 E29.4265
G1 X154.457 Y125.471 E29.4303
G1 X154.445 Y125.357 E29.4345
G1 X154.434 Y125.242 E29.4390
G1 X154.422 Y125.128 E29.4438
G1 X154.409 Y125.014 E29.4490
G1 X154.396 Y124.900 E29.4546
G1 X154.384 Y124.785 E29.4605
G1 X154.371 Y124.671 E29.4668
G1 X154.358 Y124.557 E29.4734
; ------------------------------------
; Layer #7
; ------------------------------------
G92 E0 ;reset extr
;segType:Infill
G0 F3000 E-1.0000
G0 F1200 Z3.800
G0 X110.594 Y73.486 F7200
G0 F3000 E0.0000
G1 X114.207 Y69.874 E0.3059 F4500
G0 X110.889 Y68.666 F7200
G1 X106.907 Y72.648 E0.6430 F4500
G0 X105.569 Y69.461 F7200
G1 X107.572 Y67.458 E0.8126 F4500
;segType:Perimeter
G0 X104.858 Y65.661 F7200
G1 X155.192 Y83.983 E3.4850 F2160
G1 X155.190 Y131.642 E5.8627
G1 X155.097 Y131.757 E5.8735
G1 X155.108 Y131.871 E5.8816
G1 X155.120 Y131.985 E5.8893
G1 X155.132 Y132.100 E5.8967
G1 X155.143 Y132.214 E5.9038
G1 X155.155 Y132.328 E5.9105
G1 X155.166 Y132.442 E5.9169
G1 X155.178 Y132.557 E5.9230
G1 X155.190 Y132.671 E5.9287
G1 X155.201 Y132.785 E5.9341
G1 X155.213 Y132.900 E5.9392
G1 X155.225 Y133.014 E5.9440
G1 X155.236 Y133.128 E5.9484
G1 X155.248 Y133.243 E5.9524
G1 X155.259 Y133.357 E5.9562
G1 X155.271 Y133.471 E5.9596
G1 X155.283 Y133.585 E5.9626
G0 X155.097 Y131.757 F7200
G1 X154.978 Y131.642 E5.9709 F2160
G1 X153.685 Y125.356 E6.2911
G1 X152.430 Y119.763 E6.5771
G1 X151.435 Y116.047 E6.7689
G1 X150.316 Y112.523 E6.9534
G1 X149.037 Y109.079 E7.1367
G1 X147.604 Y105.733 E7.3183
G1 X145.948 Y102.354 E7.5060
G1 X144.220 Y99.258 E7.6830
G1 X142.366 Y96.321 E7.8562
G1 X140.392 Y93.555 E8.0258
G1 X138.299 Y90.961 E8.1920
G1 X136.086 Y88.537 E8.3558
G1 X133.749 Y86.282 E8.5178
G1 X131.281 Y84.190 E8.6793
G1 X128.669 Y82.256 E8.8414
G1 X125.900 Y80.476 E9.0056
G1 X122.956 Y78.847 E9.1735
G1 X119.814 Y77.367 E9.3467
G1 X116.446 Y76.036 E9.5274
G1 X112.820 Y74.855 E9.7177
G1 X108.890 Y73.826 E9.9203
G1 X104.809 Y72.998 E10.1281
G1 X104.809 Y65.695 E10.4924
;segType:Loop
G0 X105.173 Y66.202 F7200
G1 X154.792 Y84.263 E13.1268 F3600
G1 X154.790 Y127.757 E15.2967
G1 X154.701 Y127.871 E15.3071
G1 X154.713 Y127.985 E15.3151
G1 X154.724 Y128.100 E15.3227
G1 X154.736 Y128.214 E15.3300
G1 X154.748 Y128.328 E15.3369
G1 X154.759 Y128.442 E15.3435
G1 X154.771 Y128.557 E15.3498
G1 X154.783 Y128.671 E15.3557
G1 X154.794 Y128.785 E15.3614
G1 X154.806 Y128.900 E15.3666
G1 X154.818 Y129.014 E15.3716
G1 X154.829 Y129.128 E15.3762
G1 X154.841 Y129.242 E15.3805
G1 X154.852 Y129.357 E15.3844
G1 X154.864 Y129.471 E15.3880
G1 X154.876 Y129.585 E15.3913
G1 X154.887 Y129.700 E15.3942
G0 X154.701 Y127.871 F7200
G1 X154.587 Y127.757 E15.4023 F3600
G1 X154.076 Y125.271 E15.5289
G1 X152.819 Y119.667 E15.8154
G1 X151.819 Y115.935 E16.0082
G1 X150.695 Y112.393 E16.1936
G1 X149.409 Y108.931 E16.3779
G1 X147.968 Y105.566 E16.5605
G1 X146.303 Y102.169 E16.7492
G1 X144.564 Y99.053 E16.9272
G1 X142.698 Y96.098 E17.1016
G1 X140.710 Y93.313 E17.2723
G1 X138.603 Y90.701 E17.4398
G1 X136.373 Y88.258 E17.6048
G1 X134.018 Y85.985 E17.7681
G1 X131.529 Y83.876 E17.9308
G1 X128.896 Y81.927 E18.0942
G1 X126.105 Y80.133 E18.2598
G1 X123.138 Y78.491 E18.4290
G1 X119.973 Y77.000 E18.6035
G1 X116.582 Y75.660 E18.7854
G1 X112.933 Y74.471 E18.9769
G1 X108.981 Y73.437 E19.1807
G1 X105.209 Y72.671 E19.3727
G1 X105.209 Y66.315 E19.6898
;segType:Infill
G0 X114.126 Y74.481 F7200
G1 X117.525 Y71.081 E19.9776 F4500
G0 X123.759 Y78.423 F7200
G1 X127.478 Y74.704 E20.2925 F4500
G0 X147.385 Y81.951 F7200
G1 X138.873 Y90.462 E21.0132 F4500
G0 X140.894 Y92.967 F7200
G1 X150.703 Y83.158 E21.8436 F4500
G0 X154.020 Y84.366 F7200
G1 X142.786 Y95.601 E22.7948 F4500
G0 X154.431 Y111.109 F7200
G1 X151.572 Y113.967 E23.0368 F4500
G0 X154.430 Y120.160 F7200
G1 X153.506 Y121.085 E23.1151 F4500
G0 X152.601 Y117.463 F7200
G1 X154.430 Y115.634 E23.2700 F4500
G0 X150.413 Y110.601 F7200
G1 X154.431 Y106.583 E23.6101 F4500
G0 X154.431 Y102.058 F7200
G1 X149.128 Y107.360 E24.0591 F4500
G0 X147.720 Y104.243 F7200
G1 X154.431 Y97.532 E24.6273 F4500
G0 X154.431 Y93.006 F7200
G1 X146.197 Y101.240 E25.3244 F4500
G0 X144.552 Y98.360 F7200
G1 X154.431 Y88.481 E26.1608 F4500
G0 X136.713 Y88.097 F7200
G1 X144.067 Y80.743 E26.7835 F4500
G0 X140.749 Y79.535 F7200
G1 X134.416 Y85.869 E27.3197 F4500
G0 X131.976 Y83.783 F7200
G1 X137.432 Y78.328 E27.7816 F4500
G0 X134.114 Y77.120 F7200
G1 X129.390 Y81.844 E28.1816 F4500
G0 X126.652 Y80.056 F7200
G1 X130.796 Y75.912 E28.5324 F4500
G0 X124.160 Y73.497 F7200
G1 X120.708 Y76.949 E28.8247 F4500
G0 X117.497 Y75.634 F7200
G1 X120.843 Y72.289 E29.1079 F4500
G0 X125.584 Y79.844 F7200
G0 X126.105 Y80.133
G0 X128.896 Y81.927
G0 X131.529 Y83.876
G0 X134.018 Y85.985
G0 X136.373 Y88.258
G0 X138.603 Y90.701
G0 X140.710 Y93.313
G0 X142.698 Y96.098
G0 X144.564 Y99.053
G0 X146.303 Y102.169
G0 X147.968 Y105.566
G0 X149.409 Y108.931
G0 X150.695 Y112.393
G0 X151.819 Y115.935
G0 X152.819 Y119.667
G0 X154.067 Y125.233
G0 X154.067 Y125.233
G0 X154.510 Y125.939
;segType:InnerHair
G0 X154.504 Y125.928
G1 X154.492 Y125.814 E29.1108 F3600
G1 X154.480 Y125.700 E29.1139
G1 X154.469 Y125.585 E29.1174
G1 X154.457 Y125.471 E29.1212
G1 X154.445 Y125.357 E29.1254
G1 X154.434 Y125.242 E29.1298
G1 X154.422 Y125.128 E29.1347
G1 X154.409 Y125.014 E29.1399
G1 X154.396 Y124.900 E29.1454
G1 X154.384 Y124.785 E29.1514
G1 X154.371 Y124.671 E29.1577
G1 X154.358 Y124.557 E29.1643
; ------------------------------------
; Layer #8
; ------------------------------------
G92 E0 ;reset extr
;segType:Infill
G0 F3000 E-1.0000
G0 F1200 Z4.100
G0 X113.924 Y74.415 F7200
G0 F3000 E0.0000
G1 X106.622 Y67.112 E0.6183 F4500
;segType:Perimeter
G0 X104.858 Y65.661 F7200
G1 X155.192 Y83.983 E3.2906 F2160
G1 X155.190 Y131.642 E5.6684
G1 X155.097 Y131.757 E5.6792
G1 X155.108 Y131.871 E5.6872
G1 X155.120 Y131.985 E5.6950
G1 X155.132 Y132.100 E5.7024
G1 X155.143 Y132.214 E5.7095
G1 X155.155 Y132.328 E5.7162
G1 X155.166 Y132.442 E5.7226
G1 X155.178 Y132.557 E5.7287
G1 X155.190 Y132.671 E5.7344
G1 X155.201 Y132.785 E5.7398
G1 X155.213 Y132.900 E5.7449
G1 X155.225 Y133.014 E5.7496
G1 X155.236 Y133.128 E5.7540
G1 X155.248 Y133.243 E5.7581
G1 X155.259 Y133.357 E5.7618
G1 X155.271 Y133.471 E5.7653
G1 X155.283 Y133.585 E5.7683
G0 X155.097 Y131.757 F7200
G1 X154.978 Y131.642 E5.7766 F2160
G1 X153.685 Y125.356 E6.0968
G1 X152.430 Y119.763 E6.3827
G1 X151.435 Y116.047 E6.5746
G1 X150.316 Y112.523 E6.7591
G1 X149.037 Y109.079 E6.9424
G1 X147.604 Y105.733 E7.1240
G1 X145.948 Y102.354 E7.3117
G1 X144.220 Y99.258 E7.4886
G1 X142.366 Y96.321 E7.6619
G1 X140.392 Y93.555 E7.8314
G1 X138.299 Y90.961 E7.9977
G1 X136.086 Y88.537 E8.1615
G1 X133.749 Y86.282 E8.3235
G1 X131.281 Y84.190 E8.4849
G1 X128.669 Y82.256 E8.6470
G1 X125.900 Y80.476 E8.8113
G1 X122.956 Y78.847 E8.9791
G1 X119.814 Y77.367 E9.1524
G1 X116.446 Y76.036 E9.3331
G1 X112.820 Y74.855 E9.5234
G1 X108.890 Y73.826 E9.7260
G1 X104.809 Y72.998 E9.9338
G1 X104.809 Y65.695 E10.2981
;segType:Loop
G0 X105.173 Y66.202 F7200
G1 X154.792 Y84.263 E12.9325 F3600
G1 X154.790 Y127.757 E15.1024
G1 X154.701 Y127.871 E15.1128
G1 X154.713 Y127.985 E15.1208
G1 X154.724 Y128.100 E15.1284
G1 X154.736 Y128.214 E15.1356
G1 X154.748 Y128.328 E15.1426
G1 X154.759 Y128.442 E15.1492
G1 X154.771 Y128.557 E15.1555
G1 X154.783 Y128.671 E15.1614
G1 X154.794 Y128.785 E15.1670
G1 X154.806 Y128.900 E15.1723
G1 X154.818 Y129.014 E15.1773
G1 X154.829 Y129.128 E15.1819
G1 X154.841 Y129.242 E15.1861
G1 X154.852 Y129.357 E15.1901
G1 X154.864 Y129.471 E15.1937
G1 X154.876 Y129.585 E15.1970
G1 X154.887 Y129.700 E15.1999
G0 X154.701 Y127.871 F7200
G1 X154.587 Y127.757 E15.2080 F3600
G1 X154.076 Y125.271 E15.3346
G1 X152.819 Y119.667 E15.6211
G1 X151.819 Y115.935 E15.8139
G1 X150.695 Y112.393 E15.9993
G1 X149.409 Y108.931 E16.1836
G1 X147.968 Y105.566 E16.3661
G1 X146.303 Y102.169 E16.5549
G1 X144.564 Y99.053 E16.7329
G1 X142.698 Y96.098 E16.9073
G1 X140.710 Y93.313 E17.0780
G1 X138.603 Y90.701 E17.2454
G1 X136.373 Y88.258 E17.4104
G1 X134.018 Y85.985 E17.5737
G1 X131.529 Y83.876 E17.7365
G1 X128.896 Y81.927 E17.8999
G1 X126.105 Y80.133 E18.0654
G1 X123.138 Y78.491 E18.2346
G1 X119.973 Y77.000 E18.4092
G1 X116.582 Y75.660 E18.5911
G1 X112.933 Y74.471 E18.7826
G1 X108.981 Y73.437 E18.9864
G1 X105.209 Y72.671 E19.1784
G1 X105.209 Y66.315 E19.4955
;segType:Infill
G0 X105.569 Y70.585 F7200
G1 X107.816 Y72.833 E19.6858 F4500
G0 X120.853 Y72.293 F7200
G1 X134.799 Y86.239 E20.8666 F4500
G0 X137.302 Y88.741 F7200
G1 X154.431 Y105.871 E22.3168 F4500
G0 X150.592 Y111.083 F7200
G1 X154.430 Y114.921 E22.6418 F4500
G0 X154.073 Y123.615 F7200
G1 X154.430 Y123.972 E22.6720 F4500
G0 X154.430 Y119.446 F7200
G1 X152.658 Y117.674 E22.8221 F4500
G0 X154.431 Y110.396 F7200
G1 X147.185 Y103.150 E23.4356 F4500
G0 X149.315 Y82.653 F7200
G1 X154.431 Y87.769 E23.8687 F4500
G0 X154.431 Y92.295 F7200
G1 X142.200 Y80.063 E24.9043 F4500
G0 X135.084 Y77.473 F7200
G1 X154.431 Y96.820 E26.5423 F4500
G0 X154.431 Y101.345 F7200
G1 X127.969 Y74.883 E28.7828 F4500
G0 X121.228 Y77.194 F7200
G1 X113.737 Y69.703 E29.4170 F4500
G0 X118.649 Y76.477 F7200
G0 X119.973 Y77.000
G0 X123.138 Y78.491
G0 X126.105 Y80.133
G0 X128.896 Y81.927
G0 X131.529 Y83.876
G0 X134.018 Y85.985
G0 X136.373 Y88.258
G0 X138.603 Y90.701
G0 X140.710 Y93.313
G0 X142.698 Y96.098
G0 X144.564 Y99.053
G0 X146.303 Y102.169
G0 X147.968 Y105.566
G0 X149.409 Y108.931
G0 X150.695 Y112.393
G0 X151.819 Y115.935
G0 X152.819 Y119.667
G0 X154.076 Y125.271
G0 X154.095 Y125.365
G0 X154.095 Y125.365
G0 X154.511 Y125.939
;segType:InnerHair
G0 X154.504 Y125.928
G1 X154.492 Y125.814 E29.4198 F3600
G1 X154.480 Y125.700 E29.4230
G1 X154.469 Y125.585 E29.4265
G1 X154.457 Y125.471 E29.4303
